; generated by PrusaSlicer 2.6.1+win64 on 2023-11-12 at 16:53:23 UTC

; 

; external perimeters extrusion width = 0.45mm
; perimeters extrusion width = 0.45mm
; infill extrusion width = 0.45mm
; solid infill extrusion width = 0.45mm
; top infill extrusion width = 0.40mm
; support material extrusion width = 0.35mm
; first layer extrusion width = 0.42mm

M73 P0 R97
M201 X9000 Y9000 Z500 E10000 ; sets maximum accelerations, mm/sec^2
M203 X500 Y500 Z12 E120 ; sets maximum feedrates, mm / sec
M204 S2000 T1500 ; sets acceleration (S) and retract acceleration (R), mm/sec^2
M205 X10.00 Y10.00 Z0.20 E2.50 ; sets the jerk limits, mm/sec
M205 S0 T0 ; sets the minimum extruding and travel feed rate, mm/sec
;TYPE:Custom
M862.3 P "MK2S" ; printer model check
M862.1 P0.4 ; nozzle diameter check
M115 U3.2.3 ; tell printer latest fw version
G90 ; use absolute coordinates
M83 ; extruder relative mode
M204 S2000 T1500 ; MK2 firmware only supports the old M204 format
M104 S215 ; set extruder temp
M140 S60 ; set bed temp
M190 S60 ; wait for bed temp
M109 S215 ; wait for extruder temp
G28 W ; home all without mesh bed level
G80 ; mesh bed leveling
G1 Z0.2 F720
G1 Y-2 F1000 ; go outside print area
G92 E0
G1 X60 E9 F1000 ; intro line
G1 X100 E12.5 F1000 ; intro line
G92 E0
G21 ; set units to millimeters
G90 ; use absolute coordinates
M83 ; use relative distances for extrusion
M900 K0.05 ; Filament gcode LA 1.5
M900 K30 ; Filament gcode LA 1.0
M107
;LAYER_CHANGE
;Z:0.2
;HEIGHT:0.2
;BEFORE_LAYER_CHANGE
G92 E0.0
;0.2


G1 E-.8 F2100
G1 Z.4 F720
;AFTER_LAYER_CHANGE
;0.2
G1 X23.733 Y16.946 F10800
G1 Z.2 F720
G1 E.8 F2100
M204 S800
;TYPE:Skirt/Brim
;WIDTH:0.42
G1 F1200
G1 X28.347 Y12.332 E.20459
G1 X30.028 Y11.636 E.05705
G1 X45.143 Y11.636 E.47392
G1 X46.824 Y12.332 E.05705
G1 X51.438 Y16.946 E.20459
G1 X52.134 Y18.627 E.05705
G1 X52.134 Y167.553 E4.66947
G1 X51.438 Y169.234 E.05705
G1 X46.824 Y173.848 E.20459
G1 X45.143 Y174.544 E.05705
G1 X30.028 Y174.544 E.47392
G1 X28.347 Y173.848 E.05705
G1 X23.733 Y169.234 E.20459
G1 X23.037 Y167.553 E.05705
G1 X23.037 Y18.627 E4.66947
G1 X23.71 Y17.002 E.05515
M204 S1000
; printing object tensegrity_bar_4c.stl id:0 copy 0
;WIPE_START
G1 F8640
G1 X26.151 Y14.543 E-.8
;WIPE_END
G1 Z.6 F720
G1 X45.143 Y16.32 F10800
G1 Z.2 F720
G1 E.8 F2100
M204 S800
;TYPE:Support material
G1 F1200
G1 X47.45 Y16.32 E.07233
G1 X47.45 Y18.627 E.07233
G1 X49.757 Y18.627 E.07233
G1 X49.757 Y26.821 E.25692
G1 X45.566 Y26.821 E.13141
G1 X45.566 Y23.995 E.08861
G1 X45.492 Y23.818 E.00602
G1 X45.257 Y23.583 E.01042
G1 X45.081 Y23.51 E.00597
G1 X30.09 Y23.51 E.47003
G1 X29.914 Y23.583 E.00597
G1 X29.679 Y23.818 E.01042
G1 X29.606 Y23.995 E.006
G1 X29.606 Y26.821 E.08861
G1 X25.414 Y26.821 E.13144
G1 X25.414 Y18.627 E.25692
G1 X27.721 Y18.627 E.07233
G1 X27.721 Y16.32 E.07233
G1 X30.028 Y16.32 E.07233
G1 X30.028 Y14.013 E.07233
G1 X45.143 Y14.013 E.47392
G1 X45.143 Y16.264 E.07058
M204 S1000
G1 X49.317 Y26.652 F10800
M204 S800
G1 F1200
G1 X49.317 Y18.967 E.24096
G1 X48.898 Y18.967 E.01314
G1 X48.898 Y26.482 E.23563
G1 X48.479 Y26.482 E.01314
G1 X48.479 Y18.967 E.23563
G1 X48.06 Y18.967 E.01314
G1 X48.06 Y26.482 E.23563
G1 X47.641 Y26.482 E.01314
G1 X47.641 Y18.967 E.23563
G1 X47.222 Y18.967 E.01314
G1 X47.222 Y26.482 E.23563
G1 X46.803 Y26.482 E.01314
G1 X46.803 Y16.66 E.30796
G1 X46.384 Y16.66 E.01314
G1 X46.384 Y26.482 E.30796
G1 X45.965 Y26.482 E.01314
G1 X45.965 Y16.66 E.30796
G1 X45.546 Y16.66 E.01314
G1 X45.546 Y23.392 E.21108
G1 X45.45 Y23.295 E.00428
G1 X45.127 Y23.171 E.01085
G1 X45.127 Y16.66 E.20415
G1 X44.804 Y16.66 E.01013
G1 X44.804 Y14.352 E.07237
G1 X44.708 Y14.352 E.00301
G1 X44.708 Y23.171 E.27651
G1 X44.289 Y23.171 E.01314
G1 X44.289 Y14.352 E.27651
G1 X43.87 Y14.352 E.01314
G1 X43.87 Y23.171 E.27651
G1 X43.451 Y23.171 E.01314
G1 X43.451 Y14.352 E.27651
M73 P0 R96
G1 X43.032 Y14.352 E.01314
G1 X43.032 Y23.171 E.27651
G1 X42.613 Y23.171 E.01314
G1 X42.613 Y14.352 E.27651
G1 X42.194 Y14.352 E.01314
G1 X42.194 Y23.171 E.27651
G1 X41.775 Y23.171 E.01314
G1 X41.775 Y14.352 E.27651
G1 X41.356 Y14.352 E.01314
G1 X41.356 Y23.171 E.27651
G1 X40.937 Y23.171 E.01314
G1 X40.937 Y14.352 E.27651
G1 X40.518 Y14.352 E.01314
G1 X40.518 Y23.171 E.27651
G1 X40.099 Y23.171 E.01314
G1 X40.099 Y14.352 E.27651
G1 X39.68 Y14.352 E.01314
G1 X39.68 Y23.171 E.27651
G1 X39.261 Y23.171 E.01314
G1 X39.261 Y14.352 E.27651
G1 X38.843 Y14.352 E.01311
G1 X38.843 Y23.171 E.27651
G1 X38.424 Y23.171 E.01314
G1 X38.424 Y14.352 E.27651
G1 X38.005 Y14.352 E.01314
G1 X38.005 Y23.171 E.27651
G1 X37.586 Y23.171 E.01314
G1 X37.586 Y14.352 E.27651
G1 X37.167 Y14.352 E.01314
G1 X37.167 Y23.171 E.27651
G1 X36.748 Y23.171 E.01314
G1 X36.748 Y14.352 E.27651
G1 X36.329 Y14.352 E.01314
G1 X36.329 Y23.171 E.27651
G1 X35.91 Y23.171 E.01314
G1 X35.91 Y14.352 E.27651
G1 X35.491 Y14.352 E.01314
G1 X35.491 Y23.171 E.27651
G1 X35.072 Y23.171 E.01314
G1 X35.072 Y14.352 E.27651
G1 X34.653 Y14.352 E.01314
G1 X34.653 Y23.171 E.27651
G1 X34.234 Y23.171 E.01314
G1 X34.234 Y14.352 E.27651
G1 X33.815 Y14.352 E.01314
G1 X33.815 Y23.171 E.27651
G1 X33.396 Y23.171 E.01314
G1 X33.396 Y14.352 E.27651
G1 X32.977 Y14.352 E.01314
G1 X32.977 Y23.171 E.27651
G1 X32.558 Y23.171 E.01314
G1 X32.558 Y14.352 E.27651
G1 X32.139 Y14.352 E.01314
G1 X32.139 Y23.171 E.27651
G1 X31.72 Y23.171 E.01314
G1 X31.72 Y14.352 E.27651
G1 X31.301 Y14.352 E.01314
G1 X31.301 Y23.171 E.27651
G1 X30.882 Y23.171 E.01314
G1 X30.882 Y14.352 E.27651
G1 X30.463 Y14.352 E.01314
G1 X30.463 Y23.171 E.27651
G1 X30.044 Y23.171 E.01314
G1 X30.044 Y16.66 E.20415
G1 X29.625 Y16.66 E.01314
G1 X29.625 Y23.392 E.21108
G1 X29.391 Y23.626 E.01038
G1 X29.266 Y23.927 E.01022
G1 X29.266 Y26.482 E.08011
G1 X29.206 Y26.482 E.00188
G1 X29.206 Y16.66 E.30796
G1 X28.787 Y16.66 E.01314
G1 X28.787 Y26.482 E.30796
G1 X28.368 Y26.482 E.01314
G1 X28.368 Y16.66 E.30796
G1 X28.06 Y16.66 E.00966
G1 X28.06 Y18.967 E.07233
G1 X27.949 Y18.967 E.00348
G1 X27.949 Y26.482 E.23563
G1 X27.53 Y26.482 E.01314
G1 X27.53 Y18.967 E.23563
G1 X27.111 Y18.967 E.01314
G1 X27.111 Y26.482 E.23563
G1 X26.692 Y26.482 E.01314
G1 X26.692 Y18.967 E.23563
G1 X26.273 Y18.967 E.01314
G1 X26.273 Y26.482 E.23563
G1 X25.854 Y26.482 E.01314
G1 X25.854 Y18.797 E.24096
M204 S1000
;WIPE_START
G1 F8640
G1 X25.854 Y22.262 E-.8
;WIPE_END
G1 Z.6 F720
G1 X29.606 Y161.943 F10800
G1 Z.2 F720
G1 E.8 F2100
M204 S800
G1 F1200
G1 X29.606 Y162.186 E.00762
G1 X29.679 Y162.362 E.00597
G1 X29.914 Y162.597 E.01042
G1 X30.09 Y162.67 E.00597
G1 X45.081 Y162.67 E.47003
G1 X45.257 Y162.597 E.00597
M73 P1 R96
G1 X45.492 Y162.362 E.01042
G1 X45.566 Y162.186 E.00599
G1 X45.566 Y159.359 E.08864
G1 X49.757 Y159.359 E.13141
G1 X49.757 Y167.553 E.25692
G1 X47.45 Y167.553 E.07233
G1 X47.45 Y169.86 E.07233
G1 X45.143 Y169.86 E.07233
G1 X45.143 Y172.167 E.07233
G1 X30.028 Y172.167 E.47392
G1 X30.028 Y169.86 E.07233
G1 X27.721 Y169.86 E.07233
G1 X27.721 Y167.553 E.07233
G1 X25.414 Y167.553 E.07233
G1 X25.414 Y159.359 E.25692
G1 X29.606 Y159.359 E.13144
G1 X29.606 Y161.886 E.07923
M204 S1000
;WIPE_START
G1 F8640
G1 X29.606 Y159.359 E-.58349
G1 X28.668 Y159.359 E-.21651
;WIPE_END
G1 Z.6 F720
G1 X49.317 Y167.383 F10800
G1 Z.2 F720
G1 E.8 F2100
M204 S800
G1 F1200
G1 X49.317 Y159.698 E.24096
G1 X48.898 Y159.698 E.01314
G1 X48.898 Y167.214 E.23566
G1 X48.479 Y167.214 E.01314
G1 X48.479 Y159.698 E.23566
G1 X48.06 Y159.698 E.01314
G1 X48.06 Y167.214 E.23566
G1 X47.641 Y167.214 E.01314
G1 X47.641 Y159.698 E.23566
G1 X47.222 Y159.698 E.01314
G1 X47.222 Y167.214 E.23566
G1 X47.111 Y167.214 E.00348
G1 X47.111 Y169.521 E.07233
G1 X46.803 Y169.521 E.00966
G1 X46.803 Y159.698 E.30799
G1 X46.384 Y159.698 E.01314
G1 X46.384 Y169.521 E.30799
G1 X45.965 Y169.521 E.01314
G1 X45.965 Y159.698 E.30799
G1 X45.905 Y159.698 E.00188
G1 X45.905 Y162.253 E.08011
G1 X45.78 Y162.554 E.01022
G1 X45.546 Y162.788 E.01038
G1 X45.546 Y169.521 E.21111
G1 X45.127 Y169.521 E.01314
G1 X45.127 Y163.009 E.20418
G1 X44.708 Y163.009 E.01314
G1 X44.708 Y171.828 E.27651
G1 X44.289 Y171.828 E.01314
G1 X44.289 Y163.009 E.27651
G1 X43.87 Y163.009 E.01314
G1 X43.87 Y171.828 E.27651
G1 X43.451 Y171.828 E.01314
G1 X43.451 Y163.009 E.27651
G1 X43.032 Y163.009 E.01314
G1 X43.032 Y171.828 E.27651
G1 X42.613 Y171.828 E.01314
G1 X42.613 Y163.009 E.27651
G1 X42.194 Y163.009 E.01314
G1 X42.194 Y171.828 E.27651
G1 X41.775 Y171.828 E.01314
G1 X41.775 Y163.009 E.27651
G1 X41.356 Y163.009 E.01314
G1 X41.356 Y171.828 E.27651
G1 X40.937 Y171.828 E.01314
G1 X40.937 Y163.009 E.27651
G1 X40.518 Y163.009 E.01314
G1 X40.518 Y171.828 E.27651
G1 X40.099 Y171.828 E.01314
G1 X40.099 Y163.009 E.27651
G1 X39.68 Y163.009 E.01314
G1 X39.68 Y171.828 E.27651
G1 X39.261 Y171.828 E.01314
G1 X39.261 Y163.009 E.27651
G1 X38.842 Y163.009 E.01314
G1 X38.842 Y171.828 E.27651
G1 X38.424 Y171.828 E.01311
G1 X38.424 Y163.009 E.27651
G1 X38.005 Y163.009 E.01314
G1 X38.005 Y171.828 E.27651
G1 X37.586 Y171.828 E.01314
G1 X37.586 Y163.009 E.27651
G1 X37.167 Y163.009 E.01314
G1 X37.167 Y171.828 E.27651
G1 X36.748 Y171.828 E.01314
G1 X36.748 Y163.009 E.27651
G1 X36.329 Y163.009 E.01314
G1 X36.329 Y171.828 E.27651
G1 X35.91 Y171.828 E.01314
G1 X35.91 Y163.009 E.27651
G1 X35.491 Y163.009 E.01314
G1 X35.491 Y171.828 E.27651
G1 X35.072 Y171.828 E.01314
G1 X35.072 Y163.009 E.27651
G1 X34.653 Y163.009 E.01314
G1 X34.653 Y171.828 E.27651
G1 X34.234 Y171.828 E.01314
G1 X34.234 Y163.009 E.27651
G1 X33.815 Y163.009 E.01314
G1 X33.815 Y171.828 E.27651
G1 X33.396 Y171.828 E.01314
G1 X33.396 Y163.009 E.27651
G1 X32.977 Y163.009 E.01314
G1 X32.977 Y171.828 E.27651
G1 X32.558 Y171.828 E.01314
G1 X32.558 Y163.009 E.27651
G1 X32.139 Y163.009 E.01314
G1 X32.139 Y171.828 E.27651
G1 X31.72 Y171.828 E.01314
G1 X31.72 Y163.009 E.27651
G1 X31.301 Y163.009 E.01314
G1 X31.301 Y171.828 E.27651
G1 X30.882 Y171.828 E.01314
G1 X30.882 Y163.009 E.27651
G1 X30.463 Y163.009 E.01314
G1 X30.463 Y171.828 E.27651
G1 X30.367 Y171.828 E.00301
G1 X30.367 Y169.521 E.07233
G1 X30.044 Y169.521 E.01013
G1 X30.044 Y163.009 E.20418
G1 X29.721 Y162.885 E.01085
G1 X29.625 Y162.788 E.00428
G1 X29.625 Y169.521 E.21111
G1 X29.206 Y169.521 E.01314
G1 X29.206 Y159.698 E.30799
G1 X28.787 Y159.698 E.01314
G1 X28.787 Y169.521 E.30799
G1 X28.368 Y169.521 E.01314
G1 X28.368 Y159.698 E.30799
G1 X27.949 Y159.698 E.01314
G1 X27.949 Y167.214 E.23566
G1 X27.53 Y167.214 E.01314
G1 X27.53 Y159.698 E.23566
G1 X27.111 Y159.698 E.01314
G1 X27.111 Y167.214 E.23566
G1 X26.692 Y167.214 E.01314
G1 X26.692 Y159.698 E.23566
G1 X26.273 Y159.698 E.01314
G1 X26.273 Y167.214 E.23566
G1 X25.854 Y167.214 E.01314
G1 X25.854 Y159.529 E.24096
M204 S1000
;WIPE_START
G1 F8640
G1 X25.854 Y162.994 E-.8
;WIPE_END
G1 Z.6 F720
G1 X30.873 Y161.403 F10800
G1 Z.2 F720
G1 E.8 F2100
M204 S800
;TYPE:Perimeter
;WIDTH:0.419999
G1 F1200
G1 X30.873 Y24.777 E4.28381
G1 X44.298 Y24.777 E.42093
G1 X44.298 Y161.403 E4.28381
M73 P1 R95
G1 X30.933 Y161.403 E.41905
M204 S1000
G1 X30.496 Y161.78 F10800
M204 S800
;TYPE:External perimeter
G1 F1200
G1 X30.496 Y24.4 E4.30745
G1 X44.676 Y24.4 E.4446
G1 X44.676 Y161.78 E4.30745
G1 X30.556 Y161.78 E.44272
M204 S1000
M73 P2 R95
G1 X30.509 Y161.38 F10800
;WIPE_START
G1 F8640
G1 X30.554 Y158.315 E-.8
;WIPE_END
G1 Z.6 F720
G1 X38.721 Y29.448 F10800
G1 Z.2 F720
G1 E.8 F2100
M204 S800
;TYPE:Perimeter
G1 F1200
G1 X38.661 Y29.512 E.00275
G1 X38.251 Y29.747 E.01482
G1 X37.684 Y29.869 E.01818
G1 X37.259 Y29.829 E.01338
G1 X36.885 Y29.729 E.01214
G1 X36.43 Y29.455 E.01665
G1 X36.053 Y29.01 E.01829
G1 X35.85 Y28.496 E.01733
G1 X35.816 Y28.302 E.00618
G1 X35.827 Y27.767 E.01678
G1 X35.996 Y27.286 E.01599
G1 X36.367 Y26.79 E.01942
G1 X36.885 Y26.452 E.01939
G1 X37.462 Y26.313 E.01861
G1 X37.654 Y26.312 E.00602
G1 X38.094 Y26.383 E.01397
G1 X38.654 Y26.664 E.01964
G1 X39.077 Y27.115 E.01939
G1 X39.321 Y27.684 E.01941
G1 X39.355 Y27.878 E.00618
G1 X39.346 Y28.4 E.01637
G1 X39.176 Y28.895 E.01641
G1 X39.06 Y29.085 E.00698
G1 X38.762 Y29.404 E.01369
M204 S1000
G1 X38.466 Y29.19 F10800
M204 S800
;TYPE:External perimeter
G1 F1200
G1 X38.024 Y29.427 E.01573
G1 X37.553 Y29.498 E.01493
G1 X37.073 Y29.402 E.01535
G1 X36.626 Y29.112 E.01671
G1 X36.369 Y28.804 E.01258
G1 X36.193 Y28.302 E.01668
G1 X36.205 Y27.813 E.01534
G1 X36.383 Y27.358 E.01532
G1 X36.706 Y26.991 E.01533
G1 X37.134 Y26.756 E.01531
G1 X37.593 Y26.684 E.01457
G1 X38.098 Y26.778 E.01611
G1 X38.516 Y27.033 E.01535
G1 X38.821 Y27.414 E.0153
G1 X38.978 Y27.878 E.01536
G1 X38.966 Y28.367 E.01534
G1 X38.772 Y28.843 E.01612
G1 X38.505 Y29.145 E.01264
M204 S1000
G1 X38.524 Y29.585 F10800
;WIPE_START
G1 F8640
G1 X38.024 Y29.427 E-.12874
G1 X37.553 Y29.498 E-.10998
G1 X37.073 Y29.402 E-.11303
G1 X36.626 Y29.112 E-.12303
G1 X36.369 Y28.804 E-.09262
G1 X36.193 Y28.302 E-.12283
G1 X36.205 Y27.827 E-.10977
;WIPE_END
G1 Z.6 F720
G1 X36.41 Y31.019 F10800
G1 Z.2 F720
G1 E.8 F2100
M204 S800
;TYPE:Perimeter
G1 F1200
G1 X36.816 Y30.831 E.01403
G1 X37.22 Y30.732 E.01304
G1 X37.727 Y30.716 E.0159
G1 X38.06 Y30.752 E.0105
G1 X38.448 Y30.865 E.01267
G1 X38.821 Y31.049 E.01304
G1 X39.176 Y31.313 E.01387
G1 X39.445 Y31.594 E.0122
G1 X39.676 Y31.94 E.01304
G1 X39.844 Y32.32 E.01303
G1 X39.944 Y32.724 E.01305
G1 X39.971 Y33.139 E.01304
G1 X39.927 Y33.553 E.01305
G1 X39.811 Y33.952 E.01303
G1 X39.644 Y34.293 E.01191
G1 X39.382 Y34.661 E.01416
G1 X39.081 Y34.949 E.01306
G1 X38.736 Y35.181 E.01304
G1 X38.355 Y35.349 E.01306
G1 X37.951 Y35.448 E.01304
G1 X37.536 Y35.476 E.01304
G1 X37.123 Y35.431 E.01303
G1 X36.723 Y35.315 E.01306
G1 X36.35 Y35.132 E.01303
G1 X36.014 Y34.886 E.01306
G1 X35.726 Y34.586 E.01304
G1 X35.495 Y34.24 E.01304
G1 X35.327 Y33.86 E.01303
G1 X35.227 Y33.456 E.01305
G1 X35.2 Y33.139 E.00998
G1 X35.245 Y32.627 E.01612
G1 X35.361 Y32.228 E.01303
G1 X35.544 Y31.855 E.01303
G1 X35.79 Y31.519 E.01306
G1 X36.128 Y31.204 E.01449
G1 X36.36 Y31.052 E.0087
M204 S1000
G1 X36.612 Y31.333 F10800
M204 S800
;TYPE:External perimeter
G1 F1200
G1 X36.913 Y31.196 E.01037
G1 X37.483 Y31.087 E.0182
G1 X37.962 Y31.116 E.01505
G1 X38.289 Y31.207 E.01064
G1 X38.605 Y31.358 E.01098
G1 X38.909 Y31.579 E.01178
G1 X39.136 Y31.811 E.01018
G1 X39.335 Y32.099 E.01098
G1 X39.48 Y32.418 E.01099
G1 X39.568 Y32.757 E.01098
G1 X39.596 Y33.107 E.01101
G1 X39.562 Y33.455 E.01096
G1 X39.469 Y33.793 E.01099
G1 X39.332 Y34.081 E.01
G1 X39.115 Y34.395 E.01197
G1 X38.865 Y34.641 E.011
G1 X38.576 Y34.839 E.01098
G1 X38.258 Y34.985 E.01097
G1 X37.918 Y35.073 E.01101
G1 X37.569 Y35.1 E.01098
G1 X37.22 Y35.067 E.01099
G1 X36.883 Y34.973 E.01097
G1 X36.566 Y34.823 E.011
G1 X36.281 Y34.619 E.01099
G1 X36.035 Y34.37 E.01097
G1 X35.837 Y34.081 E.01098
G1 X35.691 Y33.762 E.011
G1 X35.603 Y33.423 E.01098
G1 X35.575 Y33.107 E.00995
G1 X35.609 Y32.725 E.01202
G1 X35.702 Y32.387 E.01099
G1 X35.853 Y32.071 E.01098
G1 X36.056 Y31.785 E.011
G1 X36.344 Y31.513 E.01242
G1 X36.562 Y31.366 E.00824
M204 S1000
G1 X36.616 Y31.002 F10800
;WIPE_START
G1 F8640
G1 X36.913 Y31.196 E-.09005
G1 X37.483 Y31.087 E-.134
G1 X37.962 Y31.116 E-.1108
G1 X38.289 Y31.207 E-.07837
G1 X38.605 Y31.358 E-.08087
G1 X38.909 Y31.579 E-.08678
G1 X39.136 Y31.811 E-.07495
G1 X39.335 Y32.099 E-.08083
G1 X39.449 Y32.349 E-.06335
;WIPE_END
G1 Z.6 F720
G1 X35.525 Y154.285 F10800
G1 Z.2 F720
G1 E.8 F2100
M204 S800
;TYPE:Perimeter
G1 F1200
G1 X35.327 Y153.86 E.0147
G1 X35.227 Y153.456 E.01305
G1 X35.2 Y153.041 E.01304
G1 X35.245 Y152.627 E.01306
G1 X35.361 Y152.228 E.01303
G1 X35.544 Y151.855 E.01303
G1 X35.79 Y151.519 E.01306
G1 X36.09 Y151.231 E.01304
G1 X36.435 Y150.999 E.01304
G1 X36.816 Y150.831 E.01306
G1 X37.22 Y150.732 E.01304
G1 X37.598 Y150.706 E.01188
G1 X38.048 Y150.749 E.01417
G1 X38.448 Y150.865 E.01306
G1 X38.821 Y151.049 E.01304
G1 X39.157 Y151.294 E.01304
G1 X39.445 Y151.594 E.01304
G1 X39.676 Y151.94 E.01304
G1 X39.844 Y152.32 E.01303
G1 X39.944 Y152.724 E.01305
G1 X39.971 Y153.139 E.01304
G1 X39.927 Y153.553 E.01305
G1 X39.811 Y153.952 E.01303
G1 X39.627 Y154.326 E.01307
G1 X39.381 Y154.661 E.01303
G1 X39.043 Y154.976 E.01449
G1 X38.718 Y155.189 E.01218
G1 X38.355 Y155.349 E.01244
