; generated by PrusaSlicer 2.5.0+win64 on 2023-11-15 at 08:26:02 UTC


;
;
; 

; external perimeters extrusion width = 0.60mm
; perimeters extrusion width = 0.50mm
; infill extrusion width = 0.50mm
; solid infill extrusion width = 0.50mm
; top infill extrusion width = 0.45mm
; first layer extrusion width = 0.42mm

M73 P0 R118
M73 Q0 S120
M201 X1000 Y1000 Z200 E5000 ; sets maximum accelerations, mm/sec^2
M203 X200 Y200 Z12 E120 ; sets maximum feedrates, mm / sec
M204 P1250 R1250 T1250 ; sets acceleration (P, T) and retract acceleration (R), mm/sec^2
M205 X8.00 Y8.00 Z0.40 E4.50 ; sets the jerk limits, mm/sec
M205 S0 T0 ; sets the minimum extruding and travel feed rate, mm/sec
M107
;TYPE:Custom
M862.3 P "MK3" ; printer model check
M862.1 P0.4 ; nozzle diameter check
M115 U3.12.1 ; tell printer latest fw version
G90 ; use absolute coordinates
M83 ; extruder relative mode
M104 S215 ; set extruder temp
M140 S60 ; set bed temp
M190 S60 ; wait for bed temp
M109 S215 ; wait for extruder temp
G28 W ; home all without mesh bed level
G80 ; mesh bed leveling

G1 Z0.2 F720
G1 Y-3 F1000 ; go outside print area
G92 E0
G1 X60 E9 F1000 ; intro line
G1 X100 E12.5 F1000 ; intro line

G92 E0
M221 S95

; Don't change E values below. Excessive value can damage the printer.

M907 E538 ; set extruder motor current
G21 ; set units to millimeters
G90 ; use absolute coordinates
M83 ; use relative distances for extrusion
M900 K0.05 ; Filament gcode LA 1.5
M900 K30 ; Filament gcode LA 1.0
M107
;LAYER_CHANGE
;Z:0.2
;HEIGHT:0.2
;BEFORE_LAYER_CHANGE
G92 E0.0
;0.2


G1 E-.8 F2100
M73 Q0 S119
G1 Z.4 F720
;AFTER_LAYER_CHANGE
;0.2
G1 X34.163 Y22.833 F10800
G1 Z.2 F720
G1 E.8 F2100
M204 S800
;TYPE:Skirt/Brim
;WIDTH:0.42
G1 F1200
G1 X35.497 Y21.207 E.06596
G1 X36.406 Y20.461 E.03688
G1 X37.831 Y19.647 E.05144
G1 X39.734 Y19.05 E.06253
G1 X41.248 Y18.91 E.04766
G1 X67.642 Y18.921 E.82757
G1 X69.27 Y19.127 E.05144
G1 X70.395 Y19.469 E.03688
G1 X71.919 Y20.233 E.05344
G1 X164.071 Y72.721 E3.32519
G1 X164.575 Y73.106 E.01989
G1 X165.075 Y73.606 E.02217
G1 X165.771 Y75.287 E.05704
G1 X165.771 Y99.287 E.7525
G1 X165.075 Y100.968 E.05704
G1 X164.071 Y101.852 E.04197
G1 X70.826 Y154.927 E3.36406
G1 X69.27 Y155.446 E.05144
G1 X67.409 Y155.664 E.05873
G1 X41.248 Y155.664 E.82026
G1 X39.736 Y155.524 E.0476
G1 X38.262 Y155.105 E.04806
G1 X36.794 Y154.372 E.05144
G1 X35.168 Y153.037 E.06596
G1 X34.422 Y152.128 E.03688
G1 X33.608 Y150.703 E.05144
G1 X33.088 Y149.147 E.05144
G1 X32.882 Y147.52 E.05144
G1 X32.871 Y27.287 E3.76982
G1 X33.088 Y25.426 E.05874
G1 X33.43 Y24.301 E.03688
G1 X34.136 Y22.887 E.04956
M204 S1000
; printing object bottom.stl id:0 copy 0
;WIPE_START
G1 F8640
G1 X35.497 Y21.207 E-.49927
G1 X36.37 Y20.49 E-.26073
;WIPE_END
G1 E-.04 F2100
G1 Z.6 F720
G1 X37.249 Y24.615 F10800
G1 Z.2 F720
G1 E.8 F2100
M204 S800
;TYPE:Perimeter
;WIDTH:0.419999
G1 F1200
G1 X37.847 Y23.886 E.02956
G1 X38.576 Y23.288 E.02956
G1 X39.408 Y22.844 E.02956
G1 X40.31 Y22.57 E.02956
G1 X41.287 Y22.474 E.03078
G1 X67.37 Y22.474 E.81784
G1 X68.347 Y22.57 E.03078
G1 X69.249 Y22.844 E.02956
G1 X70.081 Y23.288 E.02956
G1 X70.84 Y23.911 E.03078
G1 X120.804 Y73.875 E2.21549
G1 X121.732 Y74.655 E.03801
G1 X122.514 Y75.128 E.02865
G1 X123.511 Y75.567 E.03416
G1 X124.656 Y75.867 E.03712
G1 X125.871 Y75.974 E.03825
G1 X162.207 Y75.974 E1.1393
G1 X162.207 Y98.6 E.70942
G1 X126.252 Y98.6 E1.12737
G1 X125.703 Y98.612 E.01722
G1 X124.656 Y98.707 E.03296
G1 X123.6 Y98.976 E.03416
G1 X122.675 Y99.358 E.03137
G1 X121.662 Y99.97 E.0371
G1 X120.804 Y100.699 E.03532
G1 X70.84 Y150.663 E2.21549
G1 X70.081 Y151.285 E.03078
G1 X69.249 Y151.73 E.02956
G1 X68.347 Y152.004 E.02956
G1 X67.37 Y152.1 E.03078
G1 X41.287 Y152.1 E.81784
G1 X40.31 Y152.004 E.03078
G1 X39.408 Y151.73 E.02956
G1 X38.576 Y151.285 E.02956
G1 X37.847 Y150.687 E.02956
G1 X37.249 Y149.959 E.02956
G1 X36.805 Y149.127 E.02956
G1 X36.531 Y148.225 E.02956
G1 X36.435 Y147.248 E.03078
G1 X36.435 Y143.326 E.12299
G1 X36.531 Y142.349 E.03078
G1 X36.805 Y141.446 E.02956
G1 X37.249 Y140.615 E.02956
G1 X37.847 Y139.886 E.02956
G1 X38.576 Y139.288 E.02956
G1 X39.408 Y138.844 E.02956
G1 X40.31 Y138.57 E.02956
G1 X41.287 Y138.474 E.03078
G1 X60.79 Y138.474 E.61153
G1 X62.006 Y138.367 E.03825
G1 X63.062 Y138.098 E.03416
G1 X63.986 Y137.715 E.03137
G1 X64.999 Y137.104 E.0371
G1 X65.858 Y136.375 E.03532
G1 X82.483 Y119.75 E.73718
G1 X83.212 Y118.891 E.03532
G1 X83.823 Y117.878 E.0371
G1 X84.206 Y116.954 E.03137
G1 X84.474 Y115.898 E.03416
G1 X84.581 Y114.683 E.03825
G1 X84.581 Y59.891 E1.71796
G1 X84.476 Y58.683 E.03801
G1 X84.258 Y57.796 E.02865
G1 X83.864 Y56.78 E.03416
G1 X83.266 Y55.759 E.03712
G1 X82.514 Y54.858 E.03677
G1 X65.858 Y38.199 E.73865
G1 X64.999 Y37.47 E.03532
G1 X63.986 Y36.858 E.0371
G1 X63.062 Y36.476 E.03137
G1 X62.006 Y36.207 E.03416
G1 X60.79 Y36.1 E.03825
G1 X41.287 Y36.1 E.61153
G1 X40.31 Y36.004 E.03078
G1 X39.408 Y35.73 E.02956
G1 X38.576 Y35.285 E.02956
G1 X37.847 Y34.687 E.02956
G1 X37.249 Y33.959 E.02956
G1 X36.805 Y33.127 E.02956
G1 X36.531 Y32.225 E.02956
G1 X36.435 Y31.248 E.03078
G1 X36.435 Y27.326 E.12299
G1 X36.531 Y26.349 E.03078
G1 X36.805 Y25.446 E.02956
G1 X37.221 Y24.668 E.02768
M204 S1000
G1 X36.934 Y24.405 F10800
M204 S800
;TYPE:External perimeter
G1 F1200
G1 X37.579 Y23.618 E.03189
G1 X38.366 Y22.973 E.03189
G1 X39.263 Y22.494 E.03189
G1 X40.236 Y22.199 E.03189
G1 X41.268 Y22.097 E.03252
G1 X67.389 Y22.097 E.819
G1 X68.421 Y22.199 E.03252
G1 X69.394 Y22.494 E.03189
G1 X70.291 Y22.973 E.03189
G1 X71.093 Y23.631 E.03252
G1 X121.07 Y73.608 E2.21607
G1 X121.929 Y74.333 E.03523
M73 P0 R117
G1 X122.666 Y74.783 E.02706
G1 X123.663 Y75.222 E.03416
G1 X124.749 Y75.501 E.03516
G1 X125.871 Y75.597 E.03531
G1 X162.584 Y75.597 E1.15112
G1 X162.584 Y98.977 E.73306
G1 X126.252 Y98.977 E1.13919
M73 Q0 S118
G1 X125.734 Y98.988 E.01624
G1 X124.749 Y99.072 E.031
G1 X123.693 Y99.341 E.03416
G1 X122.868 Y99.683 E.02799
G1 X121.906 Y100.257 E.03514
G1 X121.07 Y100.965 E.03434
G1 X71.093 Y150.942 E2.21607
G1 X70.291 Y151.601 E.03252
G1 X69.394 Y152.08 E.03189
G1 X68.421 Y152.375 E.03189
G1 X67.389 Y152.477 E.03252
G1 X41.268 Y152.477 E.819
G1 X40.236 Y152.375 E.03252
G1 X39.263 Y152.08 E.03189
G1 X38.366 Y151.601 E.03189
G1 X37.579 Y150.955 E.03189
G1 X36.934 Y150.169 E.03189
M73 P1 R117
G1 X36.455 Y149.272 E.03189
G1 X36.16 Y148.299 E.03189
G1 X36.058 Y147.267 E.03252
G1 X36.058 Y143.307 E.12415
G1 X36.16 Y142.275 E.03252
G1 X36.455 Y141.301 E.03189
M73 Q1 S118
G1 X36.934 Y140.405 E.03189
G1 X37.579 Y139.618 E.03189
G1 X38.366 Y138.973 E.03189
G1 X39.263 Y138.494 E.03189
G1 X40.236 Y138.199 E.03189
G1 X41.268 Y138.097 E.03252
G1 X60.79 Y138.097 E.61211
G1 X61.913 Y138.001 E.03531
G1 X62.969 Y137.733 E.03416
G1 X63.793 Y137.391 E.02799
G1 X64.755 Y136.816 E.03514
G1 X65.591 Y136.108 E.03434
G1 X82.216 Y119.483 E.73718
G1 X82.942 Y118.622 E.03531
G1 X83.511 Y117.662 E.03501
G1 X83.84 Y116.861 E.02714
G1 X84.109 Y115.805 E.03416
G1 X84.204 Y114.683 E.03531
G1 X84.204 Y59.891 E1.71796
G1 X84.11 Y58.771 E.03523
G1 X83.906 Y57.932 E.02706
G1 X83.512 Y56.917 E.03416
G1 X82.942 Y55.951 E.03516
G1 X82.227 Y55.102 E.03482
G1 X65.591 Y38.465 E.73767
G1 X64.755 Y37.757 E.03434
G1 X63.793 Y37.183 E.03514
G1 X62.969 Y36.841 E.02799
G1 X61.913 Y36.572 E.03416
G1 X60.79 Y36.477 E.03531
G1 X41.268 Y36.477 E.61211
G1 X40.236 Y36.375 E.03252
G1 X39.263 Y36.08 E.03189
G1 X38.366 Y35.601 E.03189
G1 X37.579 Y34.955 E.03189
G1 X36.934 Y34.169 E.03189
G1 X36.455 Y33.272 E.03189
G1 X36.16 Y32.299 E.03189
G1 X36.058 Y31.267 E.03252
G1 X36.058 Y27.307 E.12415
G1 X36.16 Y26.275 E.03252
G1 X36.455 Y25.301 E.03189
G1 X36.906 Y24.457 E.03001
M204 S1000
G1 X37.333 Y24.431 F10800
;WIPE_START
G1 F8640
G1 X37.579 Y23.618 E-.24844
G1 X38.366 Y22.973 E-.23483
G1 X39.263 Y22.494 E-.23483
G1 X39.436 Y22.441 E-.04189
;WIPE_END
G1 E-.04 F2100
G1 Z.6 F720
G1 X93.445 Y71.219 F10800
G1 Z.2 F720
G1 E.8 F2100
M204 S800
;TYPE:Perimeter
G1 F1200
G1 X94.382 Y71.1 E.02961
G1 X107.104 Y71.1 E.3989
G1 X108.319 Y71.207 E.03825
G1 X109.375 Y71.476 E.03416
G1 X110.227 Y71.822 E.02883
G1 X111.236 Y72.415 E.0367
G1 X112.171 Y73.199 E.03825
G1 X121.184 Y82.212 E.39965
G1 X121.97 Y83.149 E.03833
G1 X122.611 Y84.26 E.04024
G1 X123.069 Y85.566 E.04339
G1 X123.256 Y86.734 E.03708
G1 X123.238 Y88.016 E.04022
G1 X122.991 Y89.275 E.0402
G1 X122.651 Y90.228 E.03174
G1 X122.027 Y91.342 E.04003
G1 X121.096 Y92.45 E.0454
G1 X112.171 Y101.375 E.39573
G1 X111.313 Y102.104 E.03532
G1 X110.3 Y102.715 E.0371
G1 X109.375 Y103.098 E.03137
G1 X108.319 Y103.367 E.03416
G1 X107.151 Y103.472 E.03678
G1 X94.382 Y103.474 E.40038
G1 X93.499 Y103.375 E.02785
G1 X92.585 Y103.058 E.03033
G1 X91.767 Y102.54 E.03035
G1 X91.092 Y101.848 E.03031
G1 X90.675 Y101.204 E.02404
G1 X90.337 Y100.31 E.02998
G1 X90.207 Y99.299 E.03195
G1 X90.207 Y75.274 E.75328
G1 X90.307 Y74.391 E.02786
G1 X90.623 Y73.477 E.03035
G1 X91.141 Y72.66 E.03033
G1 X91.834 Y71.985 E.03031
G1 X92.477 Y71.568 E.02404
G1 X93.386 Y71.227 E.03043
M204 S1000
G1 X93.5 Y71.584 F10800
M204 S800
;TYPE:External perimeter
G1 F1200
G1 X94.382 Y71.477 E.02785
G1 X107.104 Y71.477 E.3989
G1 X108.226 Y71.572 E.03531
G1 X109.282 Y71.841 E.03416
G1 X110.083 Y72.171 E.02714
G1 X111.044 Y72.739 E.03501
G1 X111.905 Y73.465 E.03531
G1 X120.918 Y82.478 E.39965
G1 X121.68 Y83.39 E.03727
G1 X122.283 Y84.446 E.03813
G1 X122.697 Y85.625 E.03917
G1 X122.883 Y86.793 E.03708
G1 X122.861 Y88.008 E.03811
G1 X122.622 Y89.2 E.03809
G1 X122.297 Y90.099 E.02999
G1 X121.699 Y91.156 E.03806
G1 X120.829 Y92.184 E.04223
G1 X111.905 Y101.108 E.39573
G1 X111.069 Y101.816 E.03434
G1 X110.107 Y102.391 E.03514
G1 X109.282 Y102.733 E.02799
G1 X108.226 Y103.001 E.03416
G1 X107.12 Y103.096 E.03482
G1 X94.382 Y103.097 E.39939
G1 X93.543 Y103 E.02649
G1 X92.713 Y102.704 E.0276
G1 X91.974 Y102.225 E.02762
G1 X91.367 Y101.589 E.02758
G1 X90.995 Y101.004 E.02174
G1 X90.691 Y100.181 E.02749
G1 X90.584 Y99.299 E.02785
G1 X90.584 Y75.274 E.75328
G1 X90.681 Y74.435 E.02649
G1 X90.977 Y73.606 E.02762
G1 X91.457 Y72.867 E.0276
G1 X92.092 Y72.259 E.02758
G1 X92.678 Y71.887 E.02174
G1 X93.444 Y71.604 E.02561
M204 S1000
G1 X93.616 Y71.201 F10800
;WIPE_START
G1 F8640
G1 X94.382 Y71.477 E-.21861
G1 X96.727 Y71.477 E-.54139
;WIPE_END
G1 E-.04 F2100
G1 Z.6 F720
G1 X162.094 Y76.851 F10800
G1 Z.2 F720
G1 E.8 F2100
M204 S800
;TYPE:Solid infill
;WIDTH:0.42071
G1 F1200
G1 X161.5 Y76.257 E.02639
G1 X160.966 Y76.257 E.01678
G1 X161.924 Y77.215 E.04259
G1 X161.924 Y77.75 E.01678
G1 X160.431 Y76.257 E.06633
G1 X159.897 Y76.257 E.01678
G1 X161.924 Y78.284 E.09006
G1 X161.924 Y78.818 E.01678
G1 X159.363 Y76.257 E.1138
G1 X158.829 Y76.257 E.01678
G1 X161.924 Y79.352 E.13753
G1 X161.924 Y79.887 E.01678
G1 X158.294 Y76.257 E.16127
G1 X157.76 Y76.257 E.01678
G1 X161.924 Y80.421 E.185
G1 X161.924 Y80.955 E.01678
G1 X157.226 Y76.257 E.20874
G1 X156.691 Y76.257 E.01678
G1 X161.924 Y81.49 E.23248
G1 X161.924 Y82.024 E.01678
G1 X156.157 Y76.257 E.25621
G1 X155.623 Y76.257 E.01678
G1 X161.924 Y82.558 E.27995
G1 X161.924 Y83.092 E.01678
G1 X155.089 Y76.257 E.30368
G1 X154.554 Y76.257 E.01678
G1 X161.924 Y83.627 E.32742
G1 X161.924 Y84.161 E.01678
G1 X154.02 Y76.257 E.35115
G1 X153.486 Y76.257 E.01678
G1 X161.924 Y84.695 E.37489
G1 X161.924 Y85.23 E.01678
G1 X152.951 Y76.257 E.39863
G1 X152.417 Y76.257 E.01678
G1 X161.924 Y85.764 E.42236
G1 X161.924 Y86.298 E.01678
G1 X151.883 Y76.257 E.4461
G1 X151.349 Y76.257 E.01678
G1 X161.924 Y86.832 E.46983
G1 X161.924 Y87.367 E.01678
G1 X150.814 Y76.257 E.49357
G1 X150.28 Y76.257 E.01678
G1 X161.924 Y87.901 E.51731
G1 X161.924 Y88.435 E.01678
G1 X149.746 Y76.257 E.54104
G1 X149.211 Y76.256 E.01678
G1 X161.924 Y88.969 E.56478
G1 X161.924 Y89.504 E.01678
G1 X148.677 Y76.256 E.58851
G1 X148.143 Y76.256 E.01678
G1 X161.924 Y90.038 E.61225
G1 X161.924 Y90.572 E.01678
G1 X147.609 Y76.256 E.63598
G1 X147.074 Y76.256 E.01678
G1 X161.924 Y91.107 E.65972
G1 X161.924 Y91.641 E.01678
G1 X146.54 Y76.256 E.68346
G1 X146.006 Y76.256 E.01678
G1 X161.924 Y92.175 E.70719
G1 X161.924 Y92.709 E.01678
G1 X145.472 Y76.256 E.73093
G1 X144.937 Y76.256 E.01678
G1 X161.924 Y93.244 E.75466
G1 X161.924 Y93.778 E.01678
G1 X144.403 Y76.256 E.7784
G1 X143.869 Y76.256 E.01678
G1 X161.924 Y94.312 E.80213
G1 X161.924 Y94.846 E.01678
G1 X143.334 Y76.256 E.82587
G1 X142.8 Y76.256 E.01678
G1 X161.924 Y95.381 E.84961
G1 X161.924 Y95.915 E.01678
M73 P1 R116
G1 X142.266 Y76.256 E.87334
G1 X141.732 Y76.256 E.01678
G1 X161.924 Y96.449 E.89708
G1 X161.924 Y96.984 E.01678
G1 X141.197 Y76.256 E.92081
G1 X140.663 Y76.256 E.01678
M73 Q1 S117
G1 X161.924 Y97.518 E.94455
G1 X161.924 Y98.052 E.01678
G1 X140.129 Y76.256 E.96828
G1 X139.594 Y76.256 E.01678
G1 X161.655 Y98.317 E.98005
G1 X161.121 Y98.317 E.01678
G1 X139.06 Y76.256 E.98005
G1 X138.526 Y76.256 E.01678
G1 X160.586 Y98.317 E.98005
G1 X160.052 Y98.317 E.01678
G1 X137.992 Y76.256 E.98005
G1 X137.457 Y76.256 E.01678
G1 X159.518 Y98.317 E.98005
G1 X158.984 Y98.317 E.01678
G1 X136.923 Y76.256 E.98005
G1 X136.389 Y76.256 E.01678
G1 X158.449 Y98.317 E.98005
G1 X157.915 Y98.317 E.01678
G1 X135.854 Y76.256 E.98005
G1 X135.32 Y76.256 E.01678
G1 X157.381 Y98.317 E.98005
G1 X156.847 Y98.317 E.01678
G1 X134.786 Y76.256 E.98005
G1 X134.252 Y76.256 E.01678
M73 P2 R116
M73 Q2 S117
G1 X156.312 Y98.317 E.98005
G1 X155.778 Y98.317 E.01678
G1 X133.717 Y76.256 E.98005
G1 X133.183 Y76.256 E.01678
G1 X155.244 Y98.317 E.98005
G1 X154.709 Y98.317 E.01678
G1 X132.649 Y76.256 E.98005
G1 X132.114 Y76.256 E.01678
G1 X154.175 Y98.317 E.98005
G1 X153.641 Y98.317 E.01678
G1 X131.58 Y76.256 E.98005
G1 X131.046 Y76.256 E.01678
G1 X153.107 Y98.317 E.98005
G1 X152.572 Y98.317 E.01678
G1 X130.512 Y76.256 E.98006
G1 X129.977 Y76.256 E.01678
G1 X152.038 Y98.317 E.98006
G1 X151.504 Y98.317 E.01678
G1 X129.443 Y76.256 E.98006
G1 X128.909 Y76.256 E.01678
G1 X150.969 Y98.317 E.98006
G1 X150.435 Y98.317 E.01678
G1 X128.374 Y76.256 E.98006
G1 X127.84 Y76.256 E.01678
G1 X149.901 Y98.317 E.98006
G1 X149.367 Y98.317 E.01678
G1 X127.306 Y76.256 E.98006
G1 X126.772 Y76.256 E.01678
G1 X148.832 Y98.317 E.98006
G1 X148.298 Y98.317 E.01678
G1 X126.237 Y76.256 E.98006
G1 X125.691 Y76.244 E.01718
G1 X147.764 Y98.317 E.98061
G1 X147.23 Y98.317 E.01678
G1 X125.106 Y76.194 E.98283
G1 X124.649 Y76.155 E.01443
G1 X124.494 Y76.116 E.00501
G1 X146.695 Y98.317 E.9863
G1 X146.161 Y98.317 E.01678
G1 X123.779 Y75.935 E.99432
G1 X123.522 Y75.87 E.00832
G1 X122.913 Y75.603 E.02088
G1 X145.627 Y98.317 E1.00905
G1 X145.092 Y98.317 E.01678
G1 X121.806 Y75.03 E1.03452
G1 X121.539 Y74.866 E.00983
G1 X120.607 Y74.078 E.03836
M73 P2 R115
G1 X70.65 Y24.121 E2.21935
G1 X69.923 Y23.524 E.02952
G1 X69.585 Y23.344 E.01204
G1 X144.558 Y98.317 E3.3307
G1 X144.024 Y98.317 E.01678
M73 Q2 S116
G1 X68.671 Y22.964 E3.34758
G1 X68.292 Y22.849 E.01244
G1 X67.992 Y22.819 E.00947
G1 X143.49 Y98.317 E3.354
G1 X142.955 Y98.317 E.01678
G1 X67.399 Y22.761 E3.35659
G1 X66.861 Y22.757 E.01692
G1 X142.421 Y98.317 E3.35678
G1 X141.887 Y98.317 E.01678
G1 X66.327 Y22.757 E3.35678
G1 X65.792 Y22.757 E.01678
M73 P3 R115
G1 X141.353 Y98.317 E3.35678
G1 X140.818 Y98.317 E.01678
M73 Q3 S116
G1 X65.258 Y22.757 E3.35678
G1 X64.724 Y22.757 E.01678
G1 X140.284 Y98.317 E3.35678
G1 X139.75 Y98.317 E.01678
G1 X64.189 Y22.757 E3.35678
G1 X63.655 Y22.757 E.01678
G1 X139.215 Y98.317 E3.35678
G1 X138.681 Y98.317 E.01678
M73 P3 R114
G1 X63.121 Y22.757 E3.35678
G1 X62.587 Y22.757 E.01678
M73 Q3 S115
G1 X138.147 Y98.317 E3.35678
G1 X137.613 Y98.317 E.01678
G1 X62.052 Y22.757 E3.35678
G1 X61.518 Y22.757 E.01678
G1 X110.313 Y71.552 E2.16774
G1 X109.423 Y71.196 E.03012
G1 X60.984 Y22.757 E2.15192
G1 X60.45 Y22.757 E.01678
G1 X108.706 Y71.014 E2.14382
G1 X108.382 Y70.931 E.01052
G1 X108.06 Y70.901 E.01016
G1 X59.915 Y22.757 E2.13883
G1 X59.381 Y22.757 E.01678
G1 X107.471 Y70.847 E2.13643
G1 X107.171 Y70.82 E.00948
G1 X106.909 Y70.82 E.00822
G1 X58.847 Y22.757 E2.1352
G1 X58.312 Y22.757 E.01678
G1 X106.375 Y70.819 E2.1352
G1 X105.841 Y70.819 E.01679
G1 X57.778 Y22.757 E2.13519
