; generated by PrusaSlicer 2.5.0+win64 on 2023-11-21 at 10:17:03 UTC


;
;
; 

; external perimeters extrusion width = 0.45mm
; perimeters extrusion width = 0.45mm
; infill extrusion width = 0.45mm
; solid infill extrusion width = 0.45mm
; top infill extrusion width = 0.40mm
; first layer extrusion width = 0.42mm

; external perimeters extrusion width = 0.45mm
; perimeters extrusion width = 0.45mm
; infill extrusion width = 0.45mm
; solid infill extrusion width = 0.45mm
; top infill extrusion width = 0.40mm
; first layer extrusion width = 0.42mm

M73 P0 R106
M73 Q0 S107
M201 X1000 Y1000 Z200 E5000 ; sets maximum accelerations, mm/sec^2
M203 X200 Y200 Z12 E120 ; sets maximum feedrates, mm / sec
M204 P1250 R1250 T1250 ; sets acceleration (P, T) and retract acceleration (R), mm/sec^2
M205 X8.00 Y8.00 Z0.40 E4.50 ; sets the jerk limits, mm/sec
M205 S0 T0 ; sets the minimum extruding and travel feed rate, mm/sec
M107
;TYPE:Custom
M862.3 P "MK3" ; printer model check
M862.1 P0.4 ; nozzle diameter check
M115 U3.12.1 ; tell printer latest fw version
G90 ; use absolute coordinates
M83 ; extruder relative mode
M104 S215 ; set extruder temp
M140 S60 ; set bed temp
M190 S60 ; wait for bed temp
M109 S215 ; wait for extruder temp
G28 W ; home all without mesh bed level
G80 ; mesh bed leveling

G1 Z0.2 F720
G1 Y-3 F1000 ; go outside print area
G92 E0
G1 X60 E9 F1000 ; intro line
G1 X100 E12.5 F1000 ; intro line

G92 E0
M221 S95

; Don't change E values below. Excessive value can damage the printer.
M907 E430 ; set extruder motor current
G21 ; set units to millimeters
G90 ; use absolute coordinates
M83 ; use relative distances for extrusion
M900 K0.05 ; Filament gcode LA 1.5
M900 K30 ; Filament gcode LA 1.0
M107
;LAYER_CHANGE
;Z:0.2
;HEIGHT:0.2
;BEFORE_LAYER_CHANGE
G92 E0.0
;0.2


G1 E-.8 F2100
G1 Z.4 F720
;AFTER_LAYER_CHANGE
;0.2
G1 X12.52 Y27.665 F10800
G1 Z.2 F720
G1 E.8 F2100
M204 S800
;TYPE:Skirt/Brim
;WIDTH:0.42
G1 F1200
G1 X14.201 Y26.969 E.05704
G1 X123.201 Y26.969 E3.41762
G1 X124.881 Y27.665 E.05704
G1 X125.381 Y28.165 E.02217
G1 X126.078 Y29.846 E.05704
G1 X126.078 Y44.846 E.47031
G1 X125.381 Y46.527 E.05704
G1 X124.694 Y47.195 E.03006
G1 X73.76 Y88.331 E2.05279
G1 X72.267 Y88.859 E.04967
G1 X23.267 Y88.859 E1.53636
G1 X22.051 Y88.797 E.03816
G1 X20.078 Y88.439 E.0629
G1 X18.819 Y88.03 E.0415
G1 X17.011 Y87.16 E.0629
G1 X15.907 Y86.431 E.0415
G1 X15.045 Y85.731 E.03482
G1 X13.658 Y84.281 E.0629
G1 X12.88 Y83.21 E.0415
G1 X11.93 Y81.444 E.0629
G1 X11.226 Y79.34 E.06956
G1 X10.99 Y78.037 E.0415
G1 X10.9 Y76.931 E.03482
G1 X11.324 Y29.824 E1.47705
G1 X12.02 Y28.165 E.05641
M73 P0 R105
G1 X12.477 Y27.707 E.02029
M204 S1000
; printing object middle_hole.stl id:0 copy 0
;WIPE_START
G1 F8640
G1 X14.201 Y26.969 E-.43292
G1 X15.617 Y26.969 E-.32708
;WIPE_END
G1 E-.04 F2100
G1 Z.6 F720
G1 X122.539 Y38.641 F10800
G1 Z.2 F720
G1 E.8 F2100
M204 S800
;TYPE:Perimeter
;WIDTH:0.369381
G1 F1200
G1 X122.539 Y39.061 E.0114
;WIDTH:0.374711
G1 X122.536 Y39.184 E.00338
;WIDTH:0.419999
G1 X122.513 Y39.874 E.02164
G1 X122.513 Y44.159 E.13435
G1 X44.488 Y44.159 E2.44644
G1 X44.488 Y34.228 E.31136
G1 X44.455 Y33.934 E.00929
M73 Q0 S106
G1 X44.323 Y33.725 E.00774
G1 X44.147 Y33.605 E.00666
G1 X43.922 Y33.559 E.00721
G1 X14.888 Y33.559 E.91035
G1 X14.888 Y30.533 E.09487
G1 X122.513 Y30.533 E3.37453
G1 X122.513 Y32.337 E.05658
G1 X122.526 Y35.224 E.09051
;WIDTH:0.39469
G1 X122.539 Y35.63 E.01189
;WIDTH:0.369381
G1 X122.539 Y38.581 E.08011
M204 S1000
;WIPE_START
G1 F8640
G1 X122.539 Y39.061 E-.11082
G1 X122.536 Y39.184 E-.02829
G1 X122.513 Y39.874 E-.15938
G1 X122.513 Y41.872 E-.46151
;WIPE_END
G1 E-.04 F2100
G1 Z.6 F720
G1 X122.891 Y44.536 F10800
G1 Z.2 F720
G1 E.8 F2100
M204 S800
;TYPE:External perimeter
;WIDTH:0.419999
G1 F1200
G1 X44.111 Y44.536 E2.47009
G1 X44.111 Y34.124 E.32644
G1 X44.056 Y33.991 E.00452
G1 X43.922 Y33.936 E.00453
G1 X14.511 Y33.936 E.92217
G1 X14.511 Y30.156 E.11852
G1 X122.891 Y30.156 E3.39817
G1 X122.891 Y44.476 E.44899
M204 S1000
G1 X122.491 Y44.518 F10800
;WIPE_START
G1 F8640
G1 X119.599 Y44.478 E-.76
;WIPE_END
G1 E-.04 F2100
G1 Z.6 F720
G1 X122.212 Y38.876 F10800
G1 Z.2 F720
G1 E.8 F2100
M204 S800
;TYPE:Perimeter
;WIDTH:0.369381
G1 F1200
G1 X122.212 Y39.061 E.00503
;WIDTH:0.374711
G1 X122.207 Y39.155 E.00259
;WIDTH:0.419999
G1 X121.955 Y39.551 E.01472
G1 X118.983 Y41.267 E.10758
G1 X118.701 Y41.343 E.00918
G1 X118.418 Y41.267 E.00918
G1 X115.446 Y39.551 E.10758
G1 X115.246 Y39.356 E.00875
G1 X115.163 Y39.061 E.00961
G1 X115.163 Y35.63 E.10758
G1 X115.246 Y35.335 E.00961
G1 X115.446 Y35.14 E.00875
G1 X118.418 Y33.425 E.10758
G1 X118.701 Y33.349 E.00918
G1 X118.983 Y33.425 E.00918
G1 X121.955 Y35.14 E.10758
G1 X122.084 Y35.385 E.00868
;WIDTH:0.39469
G1 X122.212 Y35.63 E.00809
;WIDTH:0.369381
G1 X122.212 Y38.816 E.08648
M204 S1000
G1 X121.858 Y39.094 F10800
M204 S800
;TYPE:External perimeter
;WIDTH:0.419999
G1 F1200
G1 X121.766 Y39.225 E.005
G1 X118.795 Y40.94 E.10758
G1 X118.667 Y40.963 E.00406
G1 X118.606 Y40.94 E.00203
G1 X115.635 Y39.225 E.10758
G1 X115.543 Y39.091 E.00509
G1 X115.541 Y35.63 E.10851
G1 X115.596 Y35.497 E.00452
G1 X118.606 Y33.751 E.10911
G1 X118.734 Y33.729 E.00406
G1 X119.618 Y34.227 E.03181
G1 X121.766 Y35.467 E.07777
G1 X121.861 Y35.63 E.00591
G1 X121.861 Y39.034 E.10672
M204 S1000
G1 X121.954 Y39.221 F10800
;WIPE_START
G1 F8640
G1 X121.766 Y39.225 E-.04909
G1 X119.1 Y40.764 E-.71091
;WIPE_END
G1 E-.04 F2100
G1 Z.6 F720
G1 X102.072 Y39.437 F10800
G1 Z.2 F720
G1 E.8 F2100
M204 S800
;TYPE:Perimeter
G1 F1200
G1 X101.955 Y39.551 E.00513
G1 X98.983 Y41.267 E.10758
G1 X98.701 Y41.343 E.00918
G1 X98.418 Y41.267 E.00918
G1 X95.446 Y39.551 E.10758
G1 X95.255 Y39.37 E.00826
G1 X95.169 Y39.141 E.00765
G1 X95.163 Y35.63 E.11009
G1 X95.209 Y35.408 E.00711
G1 X95.349 Y35.211 E.00758
G1 X95.446 Y35.14 E.00376
G1 X98.418 Y33.425 E.10758
G1 X98.701 Y33.349 E.00918
G1 X98.983 Y33.425 E.00918
G1 X101.955 Y35.14 E.10758
G1 X102.155 Y35.335 E.00875
G1 X102.238 Y35.63 E.00961
G1 X102.238 Y39.061 E.10758
G1 X102.155 Y39.356 E.00961
G1 X102.115 Y39.395 E.00174
M204 S1000
G1 X101.805 Y39.195 F10800
M204 S800
;TYPE:External perimeter
G1 F1200
G1 X98.795 Y40.94 E.10911
G1 X98.667 Y40.963 E.00406
G1 X95.635 Y39.225 E.10958
G1 X95.542 Y39.088 E.00517
G1 X95.541 Y35.63 E.10842
G1 X95.603 Y35.491 E.00479
G1 X98.606 Y33.751 E.10883
G1 X98.734 Y33.729 E.00406
G1 X101.766 Y35.467 E.10958
G1 X101.858 Y35.601 E.00509
G1 X101.861 Y35.63 E.00093
G1 X101.861 Y39.061 E.10758
G1 X101.828 Y39.139 E.00264
M204 S1000
G1 X101.941 Y39.571 F10800
;WIPE_START
G1 F8640
G1 X98.998 Y40.82 E-.76
;WIPE_END
G1 E-.04 F2100
G1 Z.6 F720
G1 X91.273 Y36.608 F10800
G1 Z.2 F720
G1 E.8 F2100
M204 S800
;TYPE:Perimeter
G1 F1200
G1 X91.312 Y36.722 E.00378
G1 X91.385 Y37.272 E.01738
G1 X91.312 Y37.969 E.02198
G1 X91.062 Y38.624 E.02198
G1 X90.651 Y39.192 E.02198
G1 X90.107 Y39.633 E.02198
G1 X89.467 Y39.919 E.02198
G1 X88.715 Y40.033 E.02383
G1 X48.686 Y40.033 E1.25508
G1 X48.077 Y39.958 E.01924
G1 X47.422 Y39.707 E.02198
G1 X46.855 Y39.296 E.02198
G1 X46.413 Y38.752 E.02198
G1 X46.127 Y38.112 E.02198
G1 X46.016 Y37.42 E.02198
G1 X46.089 Y36.722 E.02198
G1 X46.339 Y36.068 E.02198
G1 X46.75 Y35.5 E.02198
G1 X47.295 Y35.058 E.02198
G1 X47.935 Y34.772 E.02198
G1 X48.686 Y34.659 E.02383
G1 X88.715 Y34.659 E1.25508
G1 X89.324 Y34.734 E.01924
G1 X89.979 Y34.984 E.02198
G1 X90.546 Y35.396 E.02198
G1 X90.988 Y35.94 E.02198
G1 X91.253 Y36.552 E.02091
M204 S1000
G1 X90.926 Y36.724 F10800
M204 S800
;TYPE:External perimeter
G1 F1200
G1 X91.011 Y37.321 E.01891
G1 X90.939 Y37.92 E.01891
G1 X90.714 Y38.48 E.01891
G1 X90.352 Y38.962 E.01891
G1 X89.877 Y39.334 E.01891
G1 X89.322 Y39.571 E.01891
G1 X88.715 Y39.656 E.01922
G1 X48.686 Y39.656 E1.25508
G1 X48.126 Y39.584 E.01769
G1 X47.567 Y39.359 E.01891
G1 X47.084 Y38.997 E.01891
G1 X46.712 Y38.522 E.01891
G1 X46.475 Y37.968 E.01891
G1 X46.39 Y37.37 E.01891
G1 X46.463 Y36.772 E.01891
G1 X46.687 Y36.212 E.01891
G1 X47.05 Y35.73 E.01891
G1 X47.524 Y35.357 E.01891
G1 X48.079 Y35.121 E.01891
G1 X48.686 Y35.036 E.01922
G1 X88.715 Y35.036 E1.25508
G1 X89.275 Y35.108 E.01769
M73 P1 R105
M73 Q1 S106
G1 X89.834 Y35.333 E.01891
G1 X90.317 Y35.695 E.01891
G1 X90.689 Y36.169 E.01891
G1 X90.902 Y36.669 E.01703
M204 S1000
G1 X91.313 Y36.824 F10800
;WIPE_START
G1 F8640
G1 X91.011 Y37.321 E-.15269
G1 X90.939 Y37.92 E-.13927
G1 X90.714 Y38.48 E-.13927
G1 X90.352 Y38.962 E-.13927
G1 X89.877 Y39.334 E-.13927
G1 X89.677 Y39.42 E-.05024
;WIPE_END
G1 E-.04 F2100
G1 Z.6 F720
G1 X122.4 Y31.411 F10800
G1 Z.2 F720
G1 E.8 F2100
M204 S800
;TYPE:Solid infill
;WIDTH:0.421444
G1 F1200
G1 X121.805 Y30.816 E.02651
G1 X121.269 Y30.816 E.01685
G1 X122.231 Y31.777 E.04279
G1 X122.231 Y32.312 E.01685
G1 X120.734 Y30.816 E.06662
G1 X120.199 Y30.816 E.01685
G1 X122.231 Y32.848 E.09044
G1 X122.231 Y33.383 E.01685
G1 X119.663 Y30.816 E.11427
G1 X119.128 Y30.816 E.01685
G1 X122.231 Y33.918 E.1381
G1 X122.231 Y34.454 E.01685
G1 X118.593 Y30.816 E.16193
G1 X118.058 Y30.816 E.01685
G1 X122.242 Y35 E.18625
G1 X122.248 Y35.096 E.00304
G1 X122.218 Y35.104 E.00097
G1 X122.121 Y34.91 E.00685
G1 X120.927 Y34.22 E.04339
G1 X117.522 Y30.816 E.15155
G1 X116.987 Y30.816 E.01685
G1 X119.66 Y33.489 E.119
G1 X119.118 Y33.176 E.01972
G1 X118.855 Y33.08 E.00881
G1 X118.702 Y33.066 E.00484
G1 X116.452 Y30.816 E.10016
G1 X115.916 Y30.816 E.01685
G1 X118.279 Y33.178 E.10517
G1 X117.94 Y33.374 E.01233
G1 X115.381 Y30.816 E.11389
G1 X114.846 Y30.816 E.01685
G1 X117.6 Y33.57 E.12261
G1 X117.261 Y33.766 E.01233
G1 X114.31 Y30.816 E.13133
G1 X113.775 Y30.816 E.01685
G1 X116.921 Y33.962 E.14005
G1 X116.582 Y34.158 E.01233
G1 X113.24 Y30.816 E.14878
G1 X112.704 Y30.816 E.01685
G1 X116.243 Y34.354 E.1575
G1 X115.903 Y34.55 E.01233
G1 X112.169 Y30.816 E.16622
G1 X111.634 Y30.816 E.01685
G1 X115.564 Y34.746 E.17494
G1 X115.233 Y34.95 E.01225
G1 X111.098 Y30.816 E.18402
G1 X110.563 Y30.816 E.01685
G1 X114.982 Y35.235 E.1967
G1 X114.927 Y35.35 E.00402
G1 X114.881 Y35.669 E.01013
G1 X110.028 Y30.816 E.21601
G1 X109.493 Y30.816 E.01685
G1 X114.881 Y36.204 E.23984
G1 X114.881 Y36.739 E.01685
G1 X108.957 Y30.816 E.26366
G1 X108.422 Y30.816 E.01685
G1 X114.881 Y37.275 E.28749
G1 X114.881 Y37.81 E.01685
G1 X107.887 Y30.816 E.31132
G1 X107.351 Y30.816 E.01685
G1 X115.05 Y38.515 E.3427
M204 S1000
;WIPE_START
G1 F8640
G1 X112.723 Y36.187 E-.76
;WIPE_END
G1 E-.04 F2100
G1 Z.6 F720
G1 X122.028 Y39.604 F10800
G1 Z.2 F720
G1 E.8 F2100
M204 S800
G1 F1200
G1 X122.235 Y39.811 E.0092
G1 X122.231 Y40.342 E.01673
G1 X121.835 Y39.947 E.01759
G1 X121.496 Y40.143 E.01233
G1 X122.231 Y40.877 E.0327
G1 X122.231 Y41.413 E.01685
G1 X121.157 Y40.339 E.04781
G1 X120.817 Y40.535 E.01233
G1 X122.231 Y41.948 E.06291
G1 X122.231 Y42.483 E.01685
G1 X120.478 Y40.73 E.07802
G1 X120.139 Y40.926 E.01233
G1 X122.231 Y43.019 E.09312
G1 X122.231 Y43.554 E.01685
G1 X119.799 Y41.122 E.10823
G1 X119.46 Y41.318 E.01233
G1 X122.017 Y43.876 E.11384
G1 X121.482 Y43.876 E.01685
G1 X119.12 Y41.514 E.10512
G1 X118.855 Y41.612 E.0089
G1 X118.696 Y41.625 E.00501
G1 X120.947 Y43.876 E.10018
G1 X120.411 Y43.876 E.01685
G1 X117.271 Y40.735 E.1398
M204 S1000
;WIPE_START
G1 F8640
G1 X119.598 Y43.063 E-.76
;WIPE_END
G1 E-.04 F2100
G1 Z.6 F720
G1 X120.046 Y44.046 F10800
G1 Z.2 F720
G1 E.8 F2100
M204 S800
G1 F1200
G1 X116.468 Y40.468 E.15927
G1 X115.3 Y39.793 E.04246
G1 X115.129 Y39.662 E.00677
G1 X115.005 Y39.505 E.0063
G1 X114.927 Y39.341 E.00569
G1 X114.881 Y39.069 E.00869
G1 X114.881 Y38.88 E.00595
G1 X106.816 Y30.816 E.35897
G1 X106.281 Y30.816 E.01685
G1 X119.341 Y43.876 E.58133
G1 X118.806 Y43.876 E.01685
G1 X105.745 Y30.816 E.58133
G1 X105.21 Y30.816 E.01685
G1 X118.27 Y43.876 E.58133
G1 X117.735 Y43.876 E.01685
G1 X104.675 Y30.816 E.58133
G1 X104.139 Y30.816 E.01685
M73 P1 R104
G1 X117.2 Y43.876 E.58133
G1 X116.664 Y43.876 E.01685
G1 X103.604 Y30.816 E.58133
G1 X103.069 Y30.816 E.01685
G1 X116.129 Y43.876 E.58133
G1 X115.594 Y43.876 E.01685
G1 X102.533 Y30.816 E.58133
G1 X101.998 Y30.816 E.01685
G1 X115.058 Y43.876 E.58133
G1 X114.523 Y43.876 E.01685
G1 X101.463 Y30.816 E.58133
G1 X100.927 Y30.816 E.01685
G1 X113.988 Y43.876 E.58133
G1 X113.452 Y43.876 E.01685
G1 X100.392 Y30.816 E.58133
G1 X99.857 Y30.816 E.01685
M73 Q1 S105
G1 X112.917 Y43.876 E.58133
G1 X112.382 Y43.876 E.01685
G1 X99.322 Y30.816 E.58133
G1 X98.786 Y30.816 E.01685
G1 X111.846 Y43.876 E.58133
G1 X111.311 Y43.876 E.01685
G1 X98.251 Y30.816 E.58133
G1 X97.716 Y30.816 E.01685
G1 X101.384 Y34.485 E.16331
G1 X102.102 Y34.899 E.02606
G1 X102.272 Y35.03 E.00677
G1 X102.396 Y35.187 E.0063
G1 X102.474 Y35.35 E.00569
G1 X102.52 Y35.62 E.00862
G1 X110.776 Y43.876 E.36748
G1 X110.241 Y43.876 E.01685
G1 X102.52 Y36.156 E.34363
G1 X102.52 Y36.691 E.01685
G1 X109.705 Y43.876 E.31981
G1 X109.17 Y43.876 E.01685
G1 X102.52 Y37.226 E.29598
G1 X102.52 Y37.762 E.01685
G1 X108.635 Y43.876 E.27215
G1 X108.099 Y43.876 E.01685
G1 X102.52 Y38.297 E.24832
G1 X102.52 Y38.832 E.01685
G1 X107.564 Y43.876 E.2245
G1 X107.029 Y43.876 E.01685
G1 X102.477 Y39.324 E.20261
G1 X102.396 Y39.505 E.00623
G1 X102.275 Y39.658 E.00614
G1 X106.493 Y43.876 E.18775
G1 X105.958 Y43.876 E.01685
G1 X101.958 Y39.876 E.17805
G1 X101.619 Y40.072 E.01233
G1 X105.423 Y43.876 E.16932
G1 X104.887 Y43.876 E.01685
G1 X101.279 Y40.268 E.1606
G1 X100.94 Y40.464 E.01233
G1 X104.352 Y43.876 E.15188
G1 X103.817 Y43.876 E.01685
G1 X100.601 Y40.66 E.14316
G1 X100.261 Y40.856 E.01233
G1 X103.281 Y43.876 E.13444
G1 X102.746 Y43.876 E.01685
G1 X99.922 Y41.052 E.12572
G1 X99.582 Y41.248 E.01233
G1 X102.211 Y43.876 E.117
G1 X101.676 Y43.876 E.01685
G1 X99.243 Y41.443 E.10827
G1 X99.118 Y41.516 E.00455
G1 X98.871 Y41.606 E.00828
G1 X101.14 Y43.876 E.10103
G1 X100.605 Y43.876 E.01685
G1 X98.192 Y41.463 E.10741
G1 X96.925 Y40.732 E.04603
G1 X100.239 Y44.046 E.14751
M204 S1000
;WIPE_START
G1 F8640
G1 X97.912 Y41.718 E-.76
;WIPE_END
G1 E-.04 F2100
G1 Z.6 F720
G1 X100.581 Y34.217 F10800
G1 Z.2 F720
G1 E.8 F2100
M204 S800
G1 F1200
G1 X97.18 Y30.816 E.15139
G1 X96.645 Y30.816 E.01685
G1 X98.941 Y33.112 E.10219
G1 X98.847 Y33.078 E.00313
G1 X98.554 Y33.078 E.00925
G1 X98.42 Y33.126 E.00447
G1 X96.11 Y30.816 E.10284
G1 X95.574 Y30.816 E.01685
G1 X98.062 Y33.304 E.11074
G1 X97.723 Y33.499 E.01233
G1 X95.039 Y30.816 E.11946
G1 X94.504 Y30.816 E.01685
G1 X97.383 Y33.695 E.12818
G1 X97.044 Y33.891 E.01233
G1 X93.968 Y30.816 E.1369
G1 X93.433 Y30.816 E.01685
G1 X96.705 Y34.087 E.14562
G1 X96.365 Y34.283 E.01233
G1 X92.898 Y30.816 E.15435
G1 X92.362 Y30.816 E.01685
G1 X96.026 Y34.479 E.16307
G1 X95.687 Y34.675 E.01233
G1 X91.827 Y30.816 E.17179
G1 X91.292 Y30.816 E.01685
G1 X95.347 Y34.871 E.18051
G1 X95.158 Y35.002 E.00723
G1 X95.059 Y35.118 E.00482
G1 X90.757 Y30.816 E.19151
G1 X90.221 Y30.816 E.01685
G1 X94.899 Y35.494 E.20822
G1 X94.881 Y35.624 E.00414
G1 X94.881 Y36.01 E.01218
G1 X89.686 Y30.816 E.23123
G1 X89.151 Y30.816 E.01685
G1 X94.881 Y36.546 E.25506
G1 X94.881 Y37.081 E.01685
G1 X88.615 Y30.816 E.27888
G1 X88.08 Y30.816 E.01685
G1 X94.881 Y37.616 E.30271
G1 X94.881 Y38.152 E.01685
G1 X87.545 Y30.816 E.32654
G1 X87.009 Y30.816 E.01685
G1 X95.05 Y38.857 E.35792
M204 S1000
;WIPE_START
G1 F8640
G1 X92.723 Y36.529 E-.76
;WIPE_END
G1 E-.04 F2100
G1 Z.6 F720
G1 X99.704 Y44.046 F10800
G1 Z.2 F720
G1 E.8 F2100
M204 S800
G1 F1200
G1 X86.474 Y30.816 E.58888
G1 X85.939 Y30.816 E.01685
G1 X89.676 Y34.553 E.16634
G1 X90.093 Y34.725 E.0142
G1 X90.275 Y34.831 E.00662
G1 X90.839 Y35.283 E.02277
G1 X91.272 Y35.855 E.02256
G1 X91.491 Y36.368 E.01758
G1 X98.999 Y43.876 E.33418
G1 X98.464 Y43.876 E.01685
G1 X91.641 Y37.053 E.30368
G1 X91.666 Y37.241 E.00596
G1 X91.647 Y37.594 E.01113
G1 X97.928 Y43.876 E.2796
G1 X97.393 Y43.876 E.01685
G1 X91.581 Y38.064 E.25869
G1 X91.438 Y38.456 E.01313
G1 X96.858 Y43.876 E.24125
G1 X96.322 Y43.876 E.01685
G1 X91.271 Y38.824 E.22485
G1 X91.048 Y39.137 E.01208
G1 X95.787 Y43.876 E.21093
G1 X95.252 Y43.876 E.01685
G1 X90.809 Y39.433 E.19777
G1 X90.512 Y39.671 E.01199
G1 X94.716 Y43.876 E.18716
G1 X94.181 Y43.876 E.01685
