; generated by PrusaSlicer 2.5.0+win64 on 2023-11-21 at 12:01:00 UTC


;
;
; 

; external perimeters extrusion width = 0.60mm
; perimeters extrusion width = 0.50mm
; infill extrusion width = 0.50mm
; solid infill extrusion width = 0.50mm
; top infill extrusion width = 0.45mm
; first layer extrusion width = 0.42mm

M73 P0 R110
M73 Q0 S110
M201 X1000 Y1000 Z200 E5000 ; sets maximum accelerations, mm/sec^2
M203 X200 Y200 Z12 E120 ; sets maximum feedrates, mm / sec
M204 P1250 R1250 T1250 ; sets acceleration (P, T) and retract acceleration (R), mm/sec^2
M205 X8.00 Y8.00 Z0.40 E4.50 ; sets the jerk limits, mm/sec
M205 S0 T0 ; sets the minimum extruding and travel feed rate, mm/sec
M107
;TYPE:Custom
M862.3 P "MK3" ; printer model check
M862.1 P0.4 ; nozzle diameter check
M115 U3.12.1 ; tell printer latest fw version
G90 ; use absolute coordinates
M83 ; extruder relative mode
M104 S215 ; set extruder temp
M140 S60 ; set bed temp
M190 S60 ; wait for bed temp
M109 S215 ; wait for extruder temp
G28 W ; home all without mesh bed level
G80 ; mesh bed leveling

G1 Z0.2 F720
G1 Y-3 F1000 ; go outside print area
G92 E0
G1 X60 E9 F1000 ; intro line
G1 X100 E12.5 F1000 ; intro line

G92 E0
M221 S95

; Don't change E values below. Excessive value can damage the printer.

M907 E538 ; set extruder motor current
G21 ; set units to millimeters
G90 ; use absolute coordinates
M83 ; use relative distances for extrusion
M900 K0.05 ; Filament gcode LA 1.5
M900 K30 ; Filament gcode LA 1.0
M107
;LAYER_CHANGE
;Z:0.2
;HEIGHT:0.2
;BEFORE_LAYER_CHANGE
G92 E0.0
;0.2


M73 P0 R109
G1 E-.8 F2100
G1 Z.4 F720
;AFTER_LAYER_CHANGE
;0.2
G1 X58.915 Y40.546 F10800
G1 Z.2 F720
G1 E.8 F2100
M204 S800
;TYPE:Skirt/Brim
;WIDTH:0.42
G1 F1200
G1 X60.249 Y38.92 E.06596
G1 X61.159 Y38.174 E.03688
G1 X62.583 Y37.36 E.05144
G1 X64.296 Y36.799 E.05649
G1 X65.998 Y36.623 E.05368
G1 X91.748 Y36.634 E.80735
G1 X93.375 Y36.841 E.05144
G1 X94.501 Y37.182 E.03688
G1 X96.038 Y37.953 E.05391
G1 X191.189 Y92.942 E3.44579
G1 X192.125 Y93.935 E.04278
G1 X192.377 Y95 E.03432
G1 X192.377 Y105 E.31354
G1 X191.985 Y106.307 E.04278
G1 X191.341 Y106.963 E.02884
G1 X96.189 Y171.952 E3.61288
G1 X94.931 Y172.64 E.04494
G1 X93.375 Y173.159 E.05144
G1 X91.515 Y173.377 E.05873
G1 X66 Y173.377 E.80001
G1 X64.466 Y173.234 E.04829
G1 X62.909 Y172.784 E.05081
G1 X61.546 Y172.085 E.04803
G1 X59.92 Y170.751 E.06596
G1 X59.174 Y169.841 E.03688
G1 X58.36 Y168.417 E.05144
G1 X57.841 Y166.861 E.05144
G1 X57.634 Y165.233 E.05144
G1 X57.623 Y45 E3.76982
G1 X57.841 Y43.139 E.05873
G1 X58.182 Y42.014 E.03688
G1 X58.888 Y40.6 E.04956
M204 S1000
; printing object middle_Y.stl id:0 copy 0
;WIPE_START
G1 F8640
G1 X60.249 Y38.92 E-.49927
G1 X61.122 Y38.204 E-.26073
;WIPE_END
G1 E-.04 F2100
G1 Z.6 F720
G1 X158.736 Y104.691 F10800
G1 Z.2 F720
G1 E.8 F2100
M204 S800
;TYPE:Perimeter
;WIDTH:0.419999
G1 F1200
G1 X158.713 Y104.779 E.00284
G1 X158.713 Y113.813 E.28327
G1 X152.43 Y113.815 E.19701
G1 X151.261 Y113.92 E.03678
G1 X150.205 Y114.189 E.03416
G1 X149.354 Y114.535 E.02883
G1 X148.268 Y115.183 E.03963
G1 X147.444 Y115.88 E.03385
G1 X94.945 Y168.376 E2.32781
G1 X94.187 Y168.999 E.03078
G1 X93.355 Y169.443 E.02956
G1 X92.453 Y169.717 E.02956
G1 X91.476 Y169.813 E.03078
G1 X66.039 Y169.813 E.79757
G1 X65.062 Y169.717 E.03078
G1 X64.16 Y169.443 E.02956
G1 X63.328 Y168.999 E.02956
G1 X62.599 Y168.401 E.02956
G1 X62.001 Y167.672 E.02956
G1 X61.557 Y166.84 E.02956
G1 X61.283 Y165.938 E.02956
G1 X61.187 Y164.961 E.03078
G1 X61.187 Y161.039 E.12299
G1 X61.283 Y160.062 E.03078
G1 X61.557 Y159.16 E.02956
G1 X62.001 Y158.328 E.02956
G1 X62.599 Y157.599 E.02956
G1 X63.328 Y157.001 E.02956
G1 X64.16 Y156.557 E.02956
G1 X65.062 Y156.283 E.02956
G1 X66.039 Y156.187 E.03078
G1 X84.896 Y156.187 E.59126
G1 X86.104 Y156.082 E.03801
G1 X86.991 Y155.864 E.02865
G1 X88.091 Y155.429 E.03709
G1 X89.105 Y154.817 E.03712
G1 X89.963 Y154.088 E.03531
G1 X109.12 Y134.929 E.84951
G1 X109.872 Y134.028 E.03678
G1 X110.465 Y133.019 E.0367
G1 X110.811 Y132.167 E.02883
G1 X111.08 Y131.111 E.03416
G1 X111.187 Y129.9 E.03814
G1 X111.187 Y80.189 E1.55865
G1 X111.08 Y78.889 E.04089
G1 X110.811 Y77.833 E.03416
G1 X110.428 Y76.909 E.03137
G1 X109.817 Y75.895 E.0371
G1 X109.088 Y75.037 E.03532
G1 X89.963 Y55.912 E.84804
G1 X89.105 Y55.183 E.03531
G1 X88.253 Y54.659 E.03134
G1 X87.168 Y54.189 E.03709
G1 X86.111 Y53.92 E.03418
G1 X84.896 Y53.813 E.03825
G1 X66.039 Y53.813 E.59126
G1 X65.062 Y53.717 E.03078
G1 X64.16 Y53.443 E.02956
G1 X63.328 Y52.999 E.02956
G1 X62.599 Y52.401 E.02956
G1 X62.001 Y51.672 E.02956
G1 X61.557 Y50.84 E.02956
G1 X61.283 Y49.938 E.02956
G1 X61.187 Y48.961 E.03078
G1 X61.187 Y45.039 E.12299
G1 X61.283 Y44.062 E.03078
G1 X61.557 Y43.16 E.02956
G1 X62.001 Y42.328 E.02956
G1 X62.599 Y41.599 E.02956
G1 X63.328 Y41.001 E.02956
G1 X64.16 Y40.557 E.02956
G1 X65.062 Y40.283 E.02956
G1 X66.039 Y40.187 E.03078
G1 X91.476 Y40.187 E.79757
G1 X92.453 Y40.283 E.03078
G1 X93.355 Y40.557 E.02956
G1 X94.187 Y41.001 E.02956
G1 X94.945 Y41.624 E.03078
G1 X147.409 Y94.088 E2.32634
G1 X148.344 Y94.872 E.03825
G1 X149.354 Y95.465 E.0367
G1 X150.205 Y95.811 E.02883
G1 X151.221 Y96.07 E.03286
G1 X151.354 Y96.096 E.00424
G1 X152.477 Y96.187 E.03532
G1 X189.213 Y96.187 E1.15184
G1 X189.213 Y104.213 E.25164
G1 X159.279 Y104.213 E.93857
G1 X159.185 Y104.221 E.00296
G1 X158.938 Y104.327 E.00841
G1 X158.785 Y104.502 E.00728
G1 X158.751 Y104.633 E.00425
M204 S1000
G1 X159.09 Y104.775 F10800
M204 S800
;TYPE:External perimeter
G1 F1200
G1 X159.09 Y114.19 E.29519
G1 X152.461 Y114.191 E.20785
G1 X151.354 Y114.285 E.03482
G1 X150.298 Y114.554 E.03416
G1 X149.498 Y114.884 E.02714
G1 X148.512 Y115.47 E.03598
G1 X147.688 Y116.168 E.03385
G1 X95.199 Y168.656 E2.32741
G1 X94.397 Y169.314 E.03252
M73 Q0 S109
G1 X93.5 Y169.793 E.03189
G1 X92.527 Y170.088 E.03189
G1 X91.495 Y170.19 E.03252
G1 X66.02 Y170.19 E.79873
G1 X64.988 Y170.088 E.03252
M73 P0 R108
G1 X64.015 Y169.793 E.03189
G1 X63.118 Y169.314 E.03189
G1 X62.332 Y168.668 E.03189
G1 X61.686 Y167.882 E.03189
G1 X61.207 Y166.985 E.03189
G1 X60.912 Y166.012 E.03189
G1 X60.81 Y164.98 E.03252
G1 X60.81 Y161.02 E.12415
G1 X60.912 Y159.988 E.03252
G1 X61.207 Y159.015 E.03189
G1 X61.686 Y158.118 E.03189
G1 X62.332 Y157.332 E.03189
G1 X63.118 Y156.686 E.03189
G1 X64.015 Y156.207 E.03189
G1 X64.988 Y155.912 E.03189
G1 X66.02 Y155.81 E.03252
G1 X84.896 Y155.81 E.59184
G1 X86.016 Y155.715 E.03523
G1 X86.855 Y155.512 E.02706
G1 X87.898 Y155.104 E.03514
G1 X88.861 Y154.529 E.03516
G1 X89.697 Y153.822 E.03433
G1 X108.832 Y134.685 E.84853
G1 X109.548 Y133.836 E.03482
G1 X110.116 Y132.875 E.03501
G1 X110.446 Y132.074 E.02714
G1 X110.715 Y131.018 E.03416
G1 X110.81 Y129.897 E.03528
M73 P1 R108
G1 X110.809 Y80.088 E1.56172
G1 X110.715 Y78.982 E.03482
M73 Q1 S109
G1 X110.446 Y77.926 E.03416
G1 X110.104 Y77.101 E.02799
G1 X109.529 Y76.139 E.03514
G1 X108.822 Y75.303 E.03434
G1 X89.697 Y56.178 E.84804
G1 X88.861 Y55.471 E.03433
G1 X88.101 Y55.004 E.02796
G1 X87.075 Y54.554 E.03514
G1 X86.018 Y54.285 E.03418
G1 X84.896 Y54.19 E.03531
G1 X66.02 Y54.19 E.59184
G1 X64.988 Y54.088 E.03252
G1 X64.015 Y53.793 E.03189
G1 X63.118 Y53.314 E.03189
G1 X62.332 Y52.668 E.03189
G1 X61.686 Y51.882 E.03189
G1 X61.207 Y50.985 E.03189
G1 X60.912 Y50.012 E.03189
G1 X60.81 Y48.98 E.03252
G1 X60.81 Y45.02 E.12415
G1 X60.912 Y43.988 E.03252
G1 X61.207 Y43.015 E.03189
G1 X61.686 Y42.118 E.03189
G1 X62.332 Y41.332 E.03189
G1 X63.118 Y40.686 E.03189
G1 X64.015 Y40.207 E.03189
G1 X64.988 Y39.912 E.03189
G1 X66.02 Y39.81 E.03252
G1 X91.495 Y39.81 E.79873
G1 X92.527 Y39.912 E.03252
G1 X93.5 Y40.207 E.03189
G1 X94.397 Y40.686 E.03189
G1 X95.199 Y41.344 E.03252
G1 X147.676 Y93.822 E2.32692
G1 X148.537 Y94.548 E.03531
G1 X149.498 Y95.116 E.03501
G1 X150.298 Y95.446 E.02714
G1 X151.314 Y95.704 E.03286
G1 X152.477 Y95.81 E.03659
G1 X189.59 Y95.81 E1.16366
G1 X189.59 Y104.59 E.27529
G1 X159.279 Y104.59 E.95039
G1 X159.144 Y104.646 E.00456
G1 X159.113 Y104.72 E.00251
M204 S1000
G1 X158.703 Y104.878 F10800
;WIPE_START
G1 F8640
G1 X159.105 Y108.011 E-.76
;WIPE_END
G1 E-.04 F2100
G1 Z.6 F720
G1 X147.16 Y106.774 F10800
G1 Z.2 F720
G1 E.8 F2100
M204 S800
;TYPE:Perimeter
G1 F1200
G1 X146.717 Y108.027 E.04166
G1 X146.133 Y109.055 E.03708
G1 X145.324 Y110.038 E.0399
G1 X136.277 Y119.088 E.40124
G1 X135.418 Y119.817 E.03531
G1 X134.405 Y120.429 E.03712
G1 X133.305 Y120.864 E.03709
G1 X132.417 Y121.082 E.02865
G1 X131.21 Y121.187 E.03801
G1 X123.94 Y121.185 E.22795
G1 X122.673 Y121.062 E.0399
G1 X121.438 Y120.712 E.04025
G1 X120.286 Y120.148 E.04022
G1 X119.328 Y119.454 E.03708
G1 X118.434 Y118.535 E.04022
G1 X117.8 Y117.627 E.0347
G1 X117.288 Y116.562 E.03706
G1 X116.92 Y115.227 E.04341
G1 X116.813 Y114.01 E.03833
G1 X116.813 Y95.99 E.56498
G1 X116.938 Y94.673 E.04149
G1 X117.288 Y93.438 E.04024
G1 X117.852 Y92.286 E.04023
G1 X118.546 Y91.328 E.03708
G1 X119.465 Y90.434 E.04022
G1 X120.373 Y89.8 E.0347
G1 X121.438 Y89.288 E.03707
G1 X122.678 Y88.937 E.0404
G1 X123.99 Y88.813 E.04134
G1 X131.257 Y88.815 E.22783
G1 X132.425 Y88.92 E.03678
G1 X133.481 Y89.189 E.03416
G1 X134.333 Y89.535 E.02883
G1 X135.342 Y90.128 E.0367
G1 X136.277 Y90.912 E.03825
G1 X145.29 Y99.925 E.39965
G1 X146.075 Y100.862 E.03833
G1 X146.72 Y101.978 E.04041
G1 X147.175 Y103.279 E.04322
G1 X147.361 Y104.447 E.03708
G1 X147.366 Y104.659 E.00664
G1 X147.343 Y105.729 E.03358
G1 X147.176 Y106.716 E.03139
M204 S1000
;WIPE_START
G1 F8640
G1 X146.717 Y108.027 E-.32062
G1 X146.133 Y109.055 E-.27306
G1 X145.675 Y109.611 E-.16632
;WIPE_END
G1 E-.04 F2100
G1 Z.6 F720
G1 X146.389 Y107.841 F10800
G1 Z.2 F720
G1 E.8 F2100
M204 S800
;TYPE:External perimeter
G1 F1200
G1 X145.805 Y108.869 E.03708
G1 X145.035 Y109.796 E.0378
G1 X136.01 Y118.822 E.40018
G1 X135.149 Y119.548 E.03531
G1 X134.184 Y120.118 E.03516
G1 X133.168 Y120.512 E.03416
G1 X132.329 Y120.715 E.02706
G1 X131.225 Y120.809 E.03474
G1 X123.99 Y120.81 E.22685
G1 X122.773 Y120.698 E.03832
G1 X121.633 Y120.384 E.03709
G1 X120.536 Y119.86 E.03811
G1 X119.524 Y119.127 E.03919
G1 X118.706 Y118.274 E.03705
G1 X118.14 Y117.464 E.03098
G1 X117.628 Y116.399 E.03706
G1 X117.301 Y115.226 E.03818
G1 X117.191 Y114.027 E.03775
G1 X117.19 Y95.99 E.56551
G1 X117.302 Y94.773 E.03833
G1 X117.616 Y93.633 E.03708
G1 X118.14 Y92.536 E.03812
G1 X118.873 Y91.524 E.03919
G1 X119.726 Y90.706 E.03705
G1 X120.509 Y90.155 E.03002
G1 X121.633 Y89.616 E.03908
G1 X122.806 Y89.296 E.03813
G1 X123.99 Y89.19 E.03727
G1 X131.225 Y89.191 E.22685
G1 X132.332 Y89.285 E.03482
G1 X133.388 Y89.554 E.03416
G1 X134.213 Y89.896 E.02799
G1 X135.175 Y90.471 E.03514
G1 X136.01 Y91.178 E.03434
G1 X145.023 Y100.191 E.39965
G1 X145.786 Y101.103 E.03727
G1 X146.403 Y102.19 E.0392
G1 X146.803 Y103.338 E.03811
G1 X146.989 Y104.506 E.03708
G1 X146.966 Y105.721 E.03811
G1 X146.802 Y106.665 E.03002
G1 X146.412 Y107.785 E.0372
M204 S1000
G1 X146.62 Y108.168 F10800
;WIPE_START
G1 F8640
G1 X145.805 Y108.869 E-.28679
G1 X145.035 Y109.796 E-.27834
G1 X144.438 Y110.393 E-.19487
;WIPE_END
G1 E-.04 F2100
G1 Z.6 F720
G1 X189.1 Y97.063 F10800
G1 Z.2 F720
G1 E.8 F2100
M204 S800
;TYPE:Solid infill
;WIDTH:0.420242
G1 F1200
G1 X188.507 Y96.47 E.02632
G1 X187.973 Y96.47 E.01674
G1 X188.93 Y97.427 E.04246
G1 X188.93 Y97.961 E.01674
G1 X187.439 Y96.47 E.06614
G1 X186.906 Y96.47 E.01674
G1 X188.93 Y98.494 E.08982
G1 X188.93 Y99.028 E.01674
G1 X186.372 Y96.47 E.11349
G1 X185.839 Y96.47 E.01674
G1 X188.93 Y99.561 E.13717
G1 X188.93 Y100.095 E.01674
G1 X185.305 Y96.47 E.16085
G1 X184.771 Y96.47 E.01674
G1 X188.93 Y100.629 E.18452
G1 X188.93 Y101.162 E.01674
G1 X184.238 Y96.47 E.2082
G1 X183.704 Y96.47 E.01674
G1 X188.93 Y101.696 E.23188
G1 X188.93 Y102.229 E.01674
G1 X183.171 Y96.47 E.25555
G1 X182.637 Y96.47 E.01674
G1 X188.93 Y102.763 E.27923
G1 X188.93 Y103.297 E.01674
G1 X182.103 Y96.47 E.30291
G1 X181.57 Y96.47 E.01674
G1 X188.93 Y103.83 E.32659
G1 X188.93 Y103.93 E.00313
G1 X188.496 Y103.93 E.01361
G1 X181.036 Y96.47 E.33102
G1 X180.502 Y96.47 E.01674
G1 X187.963 Y103.93 E.33102
G1 X187.429 Y103.93 E.01674
G1 X179.969 Y96.47 E.33102
G1 X179.435 Y96.47 E.01674
G1 X186.896 Y103.93 E.33102
G1 X186.362 Y103.93 E.01674
G1 X178.902 Y96.47 E.33102
G1 X178.368 Y96.47 E.01674
G1 X185.828 Y103.93 E.33102
G1 X185.295 Y103.93 E.01674
G1 X177.834 Y96.47 E.33102
G1 X177.301 Y96.47 E.01674
G1 X184.761 Y103.93 E.33102
G1 X184.227 Y103.93 E.01674
G1 X176.767 Y96.47 E.33102
G1 X176.233 Y96.47 E.01674
G1 X183.694 Y103.93 E.33102
G1 X183.16 Y103.93 E.01674
G1 X175.7 Y96.47 E.33102
G1 X175.166 Y96.47 E.01674
G1 X182.627 Y103.93 E.33102
G1 X182.093 Y103.93 E.01674
G1 X174.633 Y96.47 E.33102
G1 X174.099 Y96.47 E.01674
G1 X181.559 Y103.93 E.33102
G1 X181.026 Y103.93 E.01674
G1 X173.565 Y96.47 E.33102
G1 X173.032 Y96.47 E.01674
G1 X180.492 Y103.93 E.33102
G1 X179.959 Y103.93 E.01674
G1 X172.498 Y96.47 E.33102
G1 X171.965 Y96.47 E.01674
G1 X179.425 Y103.93 E.33102
G1 X178.891 Y103.93 E.01674
G1 X171.431 Y96.47 E.33102
G1 X170.897 Y96.47 E.01674
G1 X178.358 Y103.93 E.33102
G1 X177.824 Y103.93 E.01674
G1 X170.364 Y96.47 E.33102
G1 X169.83 Y96.47 E.01674
G1 X177.29 Y103.93 E.33102
G1 X176.757 Y103.93 E.01674
G1 X169.296 Y96.47 E.33102
G1 X168.763 Y96.47 E.01674
G1 X176.223 Y103.93 E.33102
G1 X175.69 Y103.93 E.01674
G1 X168.229 Y96.47 E.33102
G1 X167.696 Y96.47 E.01674
G1 X175.156 Y103.93 E.33102
G1 X174.622 Y103.93 E.01674
G1 X167.162 Y96.47 E.33102
G1 X166.628 Y96.47 E.01674
G1 X174.089 Y103.93 E.33102
G1 X173.555 Y103.93 E.01674
G1 X166.095 Y96.47 E.33102
G1 X165.561 Y96.47 E.01674
G1 X173.022 Y103.93 E.33102
G1 X172.488 Y103.93 E.01674
G1 X165.027 Y96.47 E.33102
G1 X164.494 Y96.47 E.01674
G1 X171.954 Y103.93 E.33102
G1 X171.421 Y103.93 E.01674
G1 X163.96 Y96.47 E.33102
G1 X163.427 Y96.47 E.01674
G1 X170.887 Y103.93 E.33102
G1 X170.353 Y103.93 E.01674
G1 X162.893 Y96.47 E.33102
G1 X162.359 Y96.47 E.01674
G1 X169.82 Y103.93 E.33102
G1 X169.286 Y103.93 E.01674
M73 Q1 S108
G1 X161.826 Y96.47 E.33102
G1 X161.292 Y96.47 E.01674
G1 X168.753 Y103.93 E.33102
G1 X168.219 Y103.93 E.01674
G1 X160.759 Y96.47 E.33102
G1 X160.225 Y96.47 E.01674
G1 X167.685 Y103.93 E.33102
G1 X167.152 Y103.93 E.01674
G1 X159.691 Y96.47 E.33102
G1 X159.158 Y96.47 E.01674
G1 X166.618 Y103.93 E.33102
G1 X166.085 Y103.93 E.01674
G1 X158.624 Y96.47 E.33103
G1 X158.09 Y96.47 E.01674
M73 P1 R107
G1 X165.551 Y103.93 E.33103
G1 X165.017 Y103.93 E.01674
G1 X157.557 Y96.47 E.33103
G1 X157.023 Y96.47 E.01674
G1 X164.484 Y103.93 E.33103
G1 X163.95 Y103.93 E.01674
G1 X156.49 Y96.47 E.33103
G1 X155.956 Y96.47 E.01674
G1 X163.417 Y103.93 E.33103
G1 X162.883 Y103.93 E.01674
G1 X155.422 Y96.47 E.33103
G1 X154.889 Y96.47 E.01674
G1 X162.349 Y103.93 E.33103
G1 X161.816 Y103.93 E.01674
G1 X154.355 Y96.47 E.33103
G1 X153.821 Y96.47 E.01674
G1 X161.282 Y103.93 E.33103
G1 X160.748 Y103.93 E.01674
G1 X153.288 Y96.47 E.33103
G1 X152.754 Y96.47 E.01674
G1 X160.215 Y103.93 E.33103
G1 X159.681 Y103.93 E.01674
G1 X152.199 Y96.448 E.33197
G1 X151.617 Y96.399 E.01835
G1 X159.158 Y103.94 E.3346
G1 X158.878 Y104.029 E.00922
G1 X158.784 Y104.1 E.00369
G1 X150.982 Y96.298 E.34618
G1 X150.266 Y96.115 E.02317
G1 X158.531 Y104.381 E.36673
G1 X158.447 Y104.609 E.00764
G1 X158.43 Y104.814 E.00643
G1 X149.4 Y95.784 E.40066
G1 X149.142 Y95.675 E.00879
G1 X148.189 Y95.106 E.03483
G1 X158.43 Y105.347 E.45441
G1 X158.43 Y105.881 E.01674
M73 P2 R107
G1 X93.51 Y40.96 E2.88054
G1 X93.246 Y40.819 E.00937
M73 Q2 S108
G1 X92.656 Y40.641 E.01935
G1 X158.43 Y106.414 E2.9184
G1 X158.43 Y106.948 E.01674
G1 X92.006 Y40.523 E2.94727
G1 X91.418 Y40.47 E.0185
G1 X158.43 Y107.482 E2.97332
G1 X158.43 Y108.015 E.01674
G1 X90.885 Y40.47 E2.997
G1 X90.351 Y40.47 E.01674
G1 X158.43 Y108.549 E3.02068
G1 X158.43 Y109.082 E.01674
G1 X89.818 Y40.47 E3.04435
G1 X89.284 Y40.47 E.01674
G1 X158.43 Y109.616 E3.06803
G1 X158.43 Y110.15 E.01674
G1 X88.75 Y40.47 E3.0917
G1 X88.217 Y40.47 E.01674
G1 X158.43 Y110.683 E3.11538
G1 X158.43 Y111.217 E.01674
M73 Q2 S107
G1 X87.683 Y40.47 E3.13906
G1 X87.15 Y40.47 E.01674
M73 P2 R106
