; generated by PrusaSlicer 2.6.1+win64 on 2023-11-16 at 07:43:11 UTC

; 

; external perimeters extrusion width = 0.60mm
; perimeters extrusion width = 0.43mm
; infill extrusion width = 0.45mm
; solid infill extrusion width = 0.70mm
; top infill extrusion width = 0.45mm
; support material extrusion width = 0.37mm
; first layer extrusion width = 0.42mm

M73 P0 R100
M201 X9000 Y9000 Z500 E10000 ; sets maximum accelerations, mm/sec^2
M203 X500 Y500 Z12 E120 ; sets maximum feedrates, mm / sec
M204 S2000 T1500 ; sets acceleration (S) and retract acceleration (R), mm/sec^2
M205 X10.00 Y10.00 Z0.20 E2.50 ; sets the jerk limits, mm/sec
M205 S0 T0 ; sets the minimum extruding and travel feed rate, mm/sec
;TYPE:Custom
M862.3 P "MK2S" ; printer model check
M862.1 P0.4 ; nozzle diameter check
M115 U3.2.3 ; tell printer latest fw version
G90 ; use absolute coordinates
M83 ; extruder relative mode
M204 S2000 T1500 ; MK2 firmware only supports the old M204 format
M104 S215 ; set extruder temp
M140 S60 ; set bed temp
M190 S60 ; wait for bed temp
M109 S215 ; wait for extruder temp
G28 W ; home all without mesh bed level
G80 ; mesh bed leveling
G1 Z0.2 F720
G1 Y-2 F1000 ; go outside print area
G92 E0
G1 X60 E9 F1000 ; intro line
G1 X100 E12.5 F1000 ; intro line
G92 E0
G21 ; set units to millimeters
G90 ; use absolute coordinates
M83 ; use relative distances for extrusion
M900 K0.05 ; Filament gcode LA 1.5
M900 K30 ; Filament gcode LA 1.0
M107
;LAYER_CHANGE
;Z:0.2
;HEIGHT:0.2
;BEFORE_LAYER_CHANGE
G92 E0.0
;0.2


G1 E-.8 F2100
G1 Z.4 F720
;AFTER_LAYER_CHANGE
;0.2
G1 X15.048 Y14.346 F10800
G1 Z.2 F720
G1 E.8 F2100
M204 S800
;TYPE:Skirt/Brim
;WIDTH:0.42
G1 F1200
G1 X15.55 Y13.879 E.0215
G1 X16.452 Y13.326 E.03317
G1 X17.402 Y13.018 E.03131
G1 X18.269 Y12.927 E.02733
G1 X114.456 Y12.935 E3.01588
G1 X115.442 Y13.091 E.0313
M73 P0 R99
G1 X116.087 Y13.326 E.02152
G1 X116.989 Y13.879 E.03317
G1 X117.491 Y14.346 E.0215
G1 X117.914 Y14.887 E.02153
G1 X118.368 Y15.777 E.03133
G1 X118.556 Y16.437 E.02152
G1 X118.646 Y17.304 E.02733
G1 X118.646 Y113.304 E3.01001
G1 X118.556 Y114.172 E.02736
G1 X118.368 Y114.832 E.02152
G1 X117.914 Y115.722 E.03133
G1 X117.491 Y116.262 E.02151
G1 X116.989 Y116.73 E.02152
G1 X116.087 Y117.282 E.03316
G1 X115.137 Y117.591 E.03132
G1 X114.269 Y117.681 E.02736
G1 X18.269 Y117.681 E3.01001
G1 X17.402 Y117.591 E.02733
G1 X16.742 Y117.403 E.02152
G1 X15.852 Y116.949 E.03133
G1 X15.311 Y116.526 E.02153
G1 X14.844 Y116.024 E.0215
G1 X14.291 Y115.122 E.03317
G1 X13.983 Y114.172 E.03131
G1 X13.892 Y113.304 E.02736
G1 X13.892 Y17.304 E3.01001
G1 X13.983 Y16.437 E.02733
G1 X14.171 Y15.777 E.02152
G1 X14.624 Y14.887 E.03131
G1 X15.011 Y14.394 E.01965
M204 S1000
; printing object base_frame.stl id:0 copy 0
;WIPE_START
G1 F8640
G1 X15.55 Y13.879 E-.17213
G1 X16.452 Y13.326 E-.2443
G1 X17.402 Y13.018 E-.2306
G1 X18.061 Y12.949 E-.15297
;WIPE_END
G1 Z.6 F720
G1 X66.709 Y61.4 F10800
G1 Z.2 F720
G1 E.8 F2100
M204 S800
;TYPE:Support material
G1 F1200
G1 X67.144 Y61.474 E.01384
G1 X67.567 Y61.596 E.0138
G1 X67.974 Y61.764 E.01381
G1 X68.36 Y61.977 E.01382
G1 X68.719 Y62.232 E.01381
G1 X69.048 Y62.526 E.01383
G1 X69.341 Y62.855 E.01381
G1 X69.596 Y63.214 E.01381
G1 X69.809 Y63.6 E.01382
G1 X69.978 Y64.007 E.01382
G1 X70.1 Y64.43 E.0138
G1 X70.174 Y64.864 E.0138
G1 X70.198 Y65.304 E.01382
G1 X70.174 Y65.744 E.01382
G1 X70.1 Y66.179 E.01384
G1 X69.978 Y66.602 E.0138
G1 X69.809 Y67.009 E.01382
G1 X69.596 Y67.395 E.01382
G1 X69.341 Y67.754 E.01381
G1 X69.048 Y68.083 E.01381
G1 X68.719 Y68.376 E.01381
G1 X68.36 Y68.631 E.01381
G1 X67.974 Y68.844 E.01382
G1 X67.567 Y69.013 E.01382
G1 X67.144 Y69.135 E.0138
G1 X66.709 Y69.209 E.01384
G1 X66.269 Y69.233 E.01382
G1 X65.829 Y69.209 E.01382
G1 X65.395 Y69.135 E.0138
G1 X64.972 Y69.013 E.0138
G1 X64.565 Y68.844 E.01382
G1 X64.179 Y68.631 E.01382
G1 X63.82 Y68.376 E.01381
G1 X63.491 Y68.083 E.01381
G1 X63.197 Y67.754 E.01383
G1 X62.942 Y67.395 E.01381
G1 X62.729 Y67.009 E.01382
G1 X62.561 Y66.602 E.01381
G1 X62.439 Y66.179 E.0138
G1 X62.365 Y65.744 E.01384
G1 X62.34 Y65.304 E.01382
G1 X62.365 Y64.864 E.01382
G1 X62.439 Y64.43 E.0138
G1 X62.561 Y64.007 E.0138
G1 X62.729 Y63.6 E.01381
G1 X62.942 Y63.214 E.01382
G1 X63.197 Y62.855 E.01381
G1 X63.491 Y62.526 E.01383
G1 X63.82 Y62.232 E.01383
G1 X64.179 Y61.977 E.01381
G1 X64.565 Y61.764 E.01382
G1 X64.972 Y61.596 E.01381
G1 X65.395 Y61.474 E.0138
G1 X65.829 Y61.4 E.0138
G1 X66.269 Y61.375 E.01382
G1 X66.653 Y61.397 E.01206
M204 S1000
G1 X69.621 Y66.999 F10800
M204 S800
G1 F1200
G1 X69.621 Y64.032 E.09303
G1 X69.503 Y63.747 E.00967
G1 X69.308 Y63.395 E.01262
G1 X69.202 Y63.245 E.00576
G1 X69.202 Y67.364 E.12915
G1 X69.075 Y67.542 E.00686
G1 X68.783 Y67.864 E.01363
G1 X68.783 Y62.745 E.1605
G1 X68.507 Y62.498 E.01161
G1 X68.364 Y62.397 E.00549
G1 X68.364 Y68.212 E.18233
G1 X68.179 Y68.343 E.00711
G1 X67.945 Y68.473 E.00839
G1 X67.945 Y62.136 E.19869
G1 X67.827 Y62.071 E.00422
G1 X67.526 Y61.946 E.01022
G1 X67.526 Y68.663 E.21061
G1 X67.455 Y68.692 E.0024
G1 X67.107 Y68.792 E.01135
G1 X67.107 Y61.816 E.21873
G1 X66.688 Y61.741 E.01335
G1 X66.688 Y68.868 E.22346
G1 X66.269 Y68.894 E.01316
G1 X66.269 Y61.715 E.22509
G1 X65.85 Y61.741 E.01316
G1 X65.85 Y68.868 E.22346
G1 X65.431 Y68.792 E.01335
G1 X65.431 Y61.816 E.21873
G1 X65.012 Y61.946 E.01376
G1 X65.012 Y68.663 E.21061
G1 X64.593 Y68.473 E.01443
G1 X64.593 Y62.136 E.19869
G1 X64.36 Y62.265 E.00835
G1 X64.174 Y62.397 E.00715
G1 X64.174 Y68.212 E.18233
G1 X64.031 Y68.11 E.00551
G1 X63.755 Y67.864 E.01159
G1 X63.755 Y62.745 E.1605
G1 X63.463 Y63.067 E.01363
G1 X63.336 Y63.245 E.00686
G1 X63.336 Y67.364 E.12915
G1 X63.23 Y67.214 E.00576
G1 X63.036 Y66.862 E.0126
G1 X62.917 Y66.577 E.00968
G1 X62.917 Y63.61 E.09303
M204 S1000
;WIPE_START
G1 F8640
G1 X62.917 Y66.577 E-.68509
G1 X63.036 Y66.862 E-.07131
G1 X63.127 Y67.027 E-.0436
;WIPE_END
G1 Z.6 F720
G1 X115.415 Y16.932 F10800
G1 Z.2 F720
G1 E.8 F2100
M204 S800
;TYPE:Perimeter
;WIDTH:0.419999
G1 F1200
G1 X115.482 Y17.464 E.01681
G1 X115.482 Y113.144 E2.99997
G1 X115.415 Y113.677 E.01684
G1 X115.244 Y114.013 E.01182
G1 X114.978 Y114.279 E.01179
G1 X114.642 Y114.45 E.01182
G1 X114.216 Y114.517 E.01352
G1 X18.429 Y114.517 E3.00333
G1 X17.897 Y114.45 E.01681
G1 X17.561 Y114.279 E.01182
G1 X17.294 Y114.013 E.01182
G1 X17.123 Y113.677 E.01182
G1 X17.056 Y113.251 E.01352
G1 X17.056 Y17.464 E3.00333
G1 X17.123 Y16.932 E.01681
G1 X17.294 Y16.596 E.01182
G1 X17.561 Y16.329 E.01184
G1 X17.897 Y16.158 E.01182
G1 X18.322 Y16.091 E.01349
G1 X114.112 Y16.092 E3.00342
G1 X114.642 Y16.158 E.01675
G1 X114.978 Y16.329 E.01182
G1 X115.244 Y16.596 E.01182
G1 X115.388 Y16.878 E.00993
M204 S1000
G1 X115.779 Y16.814 F10800
M204 S800
;TYPE:External perimeter
G1 F1200
G1 X115.859 Y17.464 E.02053
G1 X115.859 Y113.281 E3.00427
G1 X115.779 Y113.795 E.01631
M73 P1 R99
G1 X115.553 Y114.237 E.01557
G1 X115.202 Y114.588 E.01556
G1 X114.76 Y114.814 E.01557
G1 X114.246 Y114.894 E.01631
G1 X18.293 Y114.894 E3.00853
G1 X17.779 Y114.814 E.01631
G1 X17.337 Y114.588 E.01557
G1 X16.985 Y114.237 E.01559
G1 X16.76 Y113.795 E.01555
G1 X16.679 Y113.281 E.01631
G1 X16.679 Y17.328 E3.00853
G1 X16.76 Y16.814 E.01631
G1 X16.985 Y16.372 E.01555
G1 X17.336 Y16.02 E.01559
G1 X17.779 Y15.795 E.01558
G1 X18.293 Y15.714 E.01631
G1 X114.248 Y15.715 E3.0086
G1 X114.76 Y15.795 E.01625
M73 P1 R98
G1 X115.202 Y16.02 E.01555
G1 X115.553 Y16.372 E.01559
G1 X115.751 Y16.76 E.01366
M204 S1000
G1 X115.504 Y17.105 F10800
;WIPE_START
G1 F8640
G1 X115.859 Y17.464 E-.16446
G1 X115.859 Y20.216 E-.63554
;WIPE_END
G1 Z.6 F720
G1 X65.087 Y70.455 F10800
G1 Z.2 F720
G1 E.8 F2100
M204 S800
;TYPE:Perimeter
G1 F1200
G1 X64.553 Y70.305 E.01739
G1 X64.004 Y70.081 E.01859
G1 X63.484 Y69.797 E.01858
G1 X62.998 Y69.457 E.0186
G1 X62.554 Y69.065 E.01857
G1 X62.156 Y68.625 E.0186
G1 X61.81 Y68.144 E.01858
G1 X61.52 Y67.627 E.01859
G1 X61.298 Y67.099 E.01796
G1 X61.123 Y66.514 E.01915
G1 X61.02 Y65.928 E.01866
G1 X60.983 Y65.336 E.0186
G1 X61.012 Y64.744 E.01858
G1 X61.108 Y64.159 E.01859
G1 X61.269 Y63.588 E.0186
G1 X61.493 Y63.039 E.01859
G1 X61.776 Y62.519 E.01856
G1 X62.116 Y62.033 E.0186
G1 X62.509 Y61.589 E.01859
G1 X62.948 Y61.191 E.01858
G1 X63.43 Y60.845 E.0186
G1 X63.947 Y60.555 E.01859
G1 X64.493 Y60.325 E.01858
G1 X65.062 Y60.157 E.0186
G1 X65.646 Y60.055 E.01859
G1 X66.217 Y60.019 E.01794
G1 X66.827 Y60.047 E.01915
G1 X67.415 Y60.143 E.01868
G1 X67.985 Y60.304 E.01857
G1 X68.534 Y60.528 E.01859
G1 X69.055 Y60.811 E.01859
G1 X69.541 Y61.151 E.0186
G1 X69.985 Y61.544 E.01859
G1 X70.383 Y61.983 E.01858
G1 X70.729 Y62.465 E.0186
G1 X71.019 Y62.982 E.01859
G1 X71.249 Y63.528 E.01858
G1 X71.416 Y64.097 E.01859
G1 X71.519 Y64.681 E.01859
G1 X71.556 Y65.273 E.0186
G1 X71.526 Y65.865 E.01859
G1 X71.43 Y66.45 E.01859
G1 X71.27 Y67.02 E.01856
G1 X71.046 Y67.57 E.01862
G1 X70.762 Y68.09 E.01858
G1 X70.422 Y68.576 E.0186
G1 X70.03 Y69.02 E.01857
G1 X69.59 Y69.418 E.0186
G1 X69.109 Y69.764 E.01858
G1 X68.592 Y70.054 E.01859
G1 X68.045 Y70.284 E.01861
G1 X67.477 Y70.451 E.01856
G1 X66.893 Y70.554 E.01859
G1 X66.301 Y70.591 E.0186
G1 X65.709 Y70.561 E.01859
G1 X65.145 Y70.469 E.01792
M204 S1000
G1 X65.187 Y70.094 F10800
M204 S800
;TYPE:External perimeter
G1 F1200
G1 X64.658 Y69.942 E.01726
G1 X64.148 Y69.733 E.01728
G1 X63.666 Y69.467 E.01726
G1 X63.216 Y69.15 E.01726
G1 X62.805 Y68.784 E.01726
G1 X62.437 Y68.374 E.01727
G1 X62.117 Y67.926 E.01726
G1 X61.85 Y67.444 E.01728
G1 X61.646 Y66.955 E.01661
G1 X61.485 Y66.408 E.01788
G1 X61.391 Y65.865 E.01728
G1 X61.359 Y65.315 E.01727
G1 X61.389 Y64.765 E.01727
G1 X61.48 Y64.222 E.01726
G1 X61.631 Y63.693 E.01725
G1 X61.841 Y63.183 E.01729
G1 X62.106 Y62.701 E.01725
G1 X62.424 Y62.251 E.01728
G1 X62.79 Y61.84 E.01726
G1 X63.2 Y61.472 E.01727
G1 X63.648 Y61.153 E.01724
G1 X64.129 Y60.885 E.01726
G1 X64.638 Y60.673 E.01729
G1 X65.166 Y60.52 E.01724
G1 X65.709 Y60.426 E.01728
G1 X66.238 Y60.395 E.01661
G1 X66.808 Y60.424 E.0179
G1 X67.352 Y60.515 E.01729
G1 X67.881 Y60.666 E.01725
G1 X68.39 Y60.876 E.01726
G1 X68.873 Y61.141 E.01727
G1 X69.322 Y61.459 E.01725
G1 X69.734 Y61.825 E.01728
G1 X70.102 Y62.235 E.01727
G1 X70.421 Y62.683 E.01724
G1 X70.689 Y63.164 E.01726
G1 X70.9 Y63.673 E.01728
G1 X71.054 Y64.201 E.01724
G1 X71.147 Y64.744 E.01727
G1 X71.179 Y65.294 E.01727
G1 X71.15 Y65.844 E.01727
G1 X71.059 Y66.387 E.01726
G1 X70.907 Y66.916 E.01726
G1 X70.698 Y67.425 E.01725
G1 X70.432 Y67.908 E.01729
G1 X70.115 Y68.357 E.01723
G1 X69.749 Y68.769 E.01728
G1 X69.339 Y69.137 E.01727
G1 X68.891 Y69.456 E.01724
G1 X68.409 Y69.724 E.01729
G1 X67.901 Y69.935 E.01725
G1 X67.372 Y70.089 E.01727
G1 X66.83 Y70.182 E.01724
G1 X66.28 Y70.214 E.01727
G1 X65.73 Y70.185 E.01727
G1 X65.246 Y70.104 E.01539
M204 S1000
G1 X64.916 Y70.387 F10800
;WIPE_START
G1 F8640
G1 X64.658 Y69.942 E-.14083
G1 X64.148 Y69.733 E-.12727
G1 X63.666 Y69.467 E-.12712
G1 X63.216 Y69.15 E-.1271
G1 X62.805 Y68.784 E-.12708
G1 X62.437 Y68.374 E-.12721
G1 X62.378 Y68.292 E-.02339
;WIPE_END
G1 Z.6 F720
G1 X114.498 Y16.25 F10800
G1 Z.2 F720
G1 E.8 F2100
M204 S800
;TYPE:Solid infill
;WIDTH:0.420883
G1 F1200
G1 X115.013 Y16.766 E.02291
G1 X115.143 Y17.02 E.00897
G1 X115.199 Y17.379 E.01142
G1 X115.199 Y17.486 E.00336
G1 X114.088 Y16.374 E.0494
G1 X113.553 Y16.374 E.01681
G1 X115.199 Y18.021 E.07318
G1 X115.199 Y18.555 E.01678
G1 X113.019 Y16.374 E.09691
G1 X112.484 Y16.374 E.01681
G1 X115.199 Y19.09 E.12069
G1 X115.199 Y19.624 E.01678
G1 X111.95 Y16.374 E.14443
G1 X111.415 Y16.374 E.01681
G1 X115.199 Y20.159 E.1682
G1 X115.199 Y20.693 E.01678
G1 X110.881 Y16.374 E.19194
G1 X110.346 Y16.374 E.01681
G1 X115.199 Y21.228 E.21572
G1 X115.199 Y21.762 E.01678
G1 X109.811 Y16.374 E.23947
G1 X109.277 Y16.374 E.01678
G1 X115.199 Y22.297 E.26323
G1 X115.199 Y22.831 E.01678
G1 X108.742 Y16.374 E.28698
G1 X108.208 Y16.374 E.01678
G1 X115.199 Y23.366 E.31074
G1 X115.199 Y23.9 E.01678
G1 X107.673 Y16.374 E.3345
G1 X107.139 Y16.374 E.01678
G1 X115.199 Y24.435 E.35825
G1 X115.199 Y24.97 E.01681
G1 X106.604 Y16.374 E.38203
G1 X106.07 Y16.374 E.01678
G1 X115.199 Y25.504 E.40577
G1 X115.199 Y26.039 E.01681
G1 X105.535 Y16.374 E.42954
G1 X105.001 Y16.374 E.01678
G1 X115.199 Y26.573 E.45328
G1 X115.199 Y27.108 E.01681
G1 X104.466 Y16.374 E.47706
G1 X103.932 Y16.374 E.01678
G1 X115.199 Y27.642 E.50079
G1 X115.199 Y28.177 E.01681
G1 X103.397 Y16.374 E.52457
G1 X102.863 Y16.374 E.01678
G1 X115.199 Y28.711 E.5483
G1 X115.199 Y29.246 E.01681
G1 X102.328 Y16.374 E.57208
G1 X101.794 Y16.374 E.01678
G1 X115.199 Y29.78 E.59581
G1 X115.199 Y30.315 E.01681
G1 X101.259 Y16.374 E.61959
G1 X100.725 Y16.374 E.01678
G1 X115.199 Y30.849 E.64333
G1 X115.199 Y31.384 E.01681
G1 X100.19 Y16.374 E.66711
G1 X99.656 Y16.374 E.01678
G1 X115.199 Y31.918 E.69084
G1 X115.199 Y32.453 E.01681
G1 X99.121 Y16.374 E.71462
G1 X98.587 Y16.374 E.01678
G1 X115.199 Y32.987 E.73835
G1 X115.199 Y33.522 E.01681
G1 X98.052 Y16.374 E.76213
G1 X97.517 Y16.374 E.01681
G1 X115.199 Y34.056 E.78589
G1 X115.199 Y34.591 E.01681
G1 X96.983 Y16.374 E.80964
G1 X96.448 Y16.374 E.01681
G1 X115.199 Y35.125 E.8334
G1 X115.199 Y35.66 E.01681
G1 X95.914 Y16.374 E.85715
G1 X95.379 Y16.374 E.01681
G1 X115.199 Y36.194 E.88091
G1 X115.199 Y36.729 E.01681
G1 X94.845 Y16.374 E.90467
G1 X94.31 Y16.374 E.01681
G1 X115.199 Y37.263 E.92842
G1 X115.199 Y37.798 E.01681
G1 X93.776 Y16.374 E.95218
G1 X93.241 Y16.374 E.01681
G1 X115.199 Y38.333 E.97596
G1 X115.199 Y38.867 E.01678
G1 X92.707 Y16.374 E.99969
G1 X92.172 Y16.374 E.01681
G1 X115.199 Y39.402 E1.02347
G1 X115.199 Y39.936 E.01678
G1 X91.638 Y16.374 E1.0472
G1 X91.103 Y16.374 E.01681
G1 X115.199 Y40.471 E1.07098
G1 X115.199 Y41.005 E.01678
M73 P2 R98
G1 X90.569 Y16.374 E1.09472
G1 X90.034 Y16.374 E.01681
G1 X115.199 Y41.54 E1.11849
G1 X115.199 Y42.074 E.01678
G1 X89.5 Y16.374 E1.14223
G1 X88.965 Y16.374 E.01681
G1 X115.199 Y42.609 E1.16601
G1 X115.199 Y43.143 E.01678
G1 X88.431 Y16.374 E1.18974
G1 X87.896 Y16.374 E.01681
G1 X115.199 Y43.678 E1.21352
G1 X115.199 Y44.212 E.01678
M73 P2 R97
G1 X87.362 Y16.374 E1.23725
G1 X86.827 Y16.374 E.01681
G1 X115.199 Y44.747 E1.26103
G1 X115.199 Y45.281 E.01678
G1 X86.293 Y16.374 E1.28477
G1 X85.758 Y16.374 E.01681
G1 X115.199 Y45.816 E1.30854
G1 X115.199 Y46.35 E.01678
G1 X85.223 Y16.374 E1.3323
G1 X84.689 Y16.374 E.01678
G1 X115.199 Y46.885 E1.35606
G1 X115.199 Y47.419 E.01678
G1 X84.154 Y16.374 E1.37981
G1 X83.62 Y16.374 E.01678
G1 X115.199 Y47.954 E1.40357
G1 X115.199 Y48.488 E.01678
G1 X83.085 Y16.374 E1.42732
G1 X82.551 Y16.374 E.01678
G1 X115.199 Y49.023 E1.45108
G1 X115.199 Y49.557 E.01678
G1 X82.016 Y16.374 E1.47484
G1 X81.482 Y16.374 E.01678
G1 X115.199 Y50.092 E1.49859
G1 X115.199 Y50.626 E.01678
G1 X80.947 Y16.374 E1.52235
G1 X80.413 Y16.374 E.01678
G1 X115.199 Y51.161 E1.54611
G1 X115.199 Y51.696 E.01681
G1 X79.878 Y16.374 E1.56988
G1 X79.344 Y16.374 E.01678
G1 X115.199 Y52.23 E1.59362
G1 X115.199 Y52.765 E.01681
G1 X78.809 Y16.374 E1.6174
G1 X78.275 Y16.374 E.01678
G1 X115.199 Y53.299 E1.64113
G1 X115.199 Y53.834 E.01681
G1 X77.74 Y16.374 E1.66491
G1 X77.206 Y16.374 E.01678
G1 X115.199 Y54.368 E1.68864
G1 X115.199 Y54.903 E.01681
G1 X76.671 Y16.374 E1.71242
G1 X76.137 Y16.374 E.01678
M73 P3 R97
G1 X115.199 Y55.437 E1.73615
G1 X115.199 Y55.972 E.01681
G1 X75.602 Y16.374 E1.75993
G1 X75.068 Y16.374 E.01678
G1 X115.199 Y56.506 E1.78367
G1 X115.199 Y57.041 E.01681
M73 P3 R96
G1 X74.533 Y16.374 E1.80745
G1 X73.999 Y16.374 E.01678
G1 X115.199 Y57.575 E1.83118
G1 X115.199 Y58.11 E.01681
G1 X73.464 Y16.374 E1.85496
G1 X72.929 Y16.374 E.01681
G1 X115.199 Y58.644 E1.87871
G1 X115.199 Y59.179 E.01681
G1 X72.395 Y16.374 E1.90247
G1 X71.86 Y16.374 E.01681
G1 X115.199 Y59.713 E1.92623
G1 X115.199 Y60.248 E.01681
G1 X71.326 Y16.374 E1.94998
G1 X70.791 Y16.374 E.01681
G1 X115.199 Y60.782 E1.97374
G1 X115.199 Y61.317 E.01681
G1 X70.257 Y16.374 E1.99749
G1 X69.722 Y16.374 E.01681
G1 X115.199 Y61.851 E2.02125
G1 X115.199 Y62.386 E.01681
G1 X69.188 Y16.374 E2.04501
G1 X68.653 Y16.374 E.01681
G1 X115.199 Y62.92 E2.06876
