; generated by PrusaSlicer 2.5.0+win64 on 2023-11-22 at 13:37:33 UTC


;
;
; 

; external perimeters extrusion width = 0.45mm
; perimeters extrusion width = 0.45mm
; infill extrusion width = 0.45mm
; solid infill extrusion width = 0.45mm
; top infill extrusion width = 0.40mm
; first layer extrusion width = 0.42mm

M73 P0 R5
M73 Q0 S5
M201 X1000 Y1000 Z200 E5000 ; sets maximum accelerations, mm/sec^2
M203 X200 Y200 Z12 E120 ; sets maximum feedrates, mm / sec
M204 P1250 R1250 T1250 ; sets acceleration (P, T) and retract acceleration (R), mm/sec^2
M205 X8.00 Y8.00 Z0.40 E4.50 ; sets the jerk limits, mm/sec
M205 S0 T0 ; sets the minimum extruding and travel feed rate, mm/sec
M107
;TYPE:Custom
M862.3 P "MK3" ; printer model check
M862.1 P0.4 ; nozzle diameter check
M115 U3.12.1 ; tell printer latest fw version
G90 ; use absolute coordinates
M83 ; extruder relative mode
M104 S215 ; set extruder temp
M140 S60 ; set bed temp
M190 S60 ; wait for bed temp
M109 S215 ; wait for extruder temp
G28 W ; home all without mesh bed level
G80 ; mesh bed leveling

G1 Z0.2 F720
G1 Y-3 F1000 ; go outside print area
G92 E0
G1 X60 E9 F1000 ; intro line
G1 X100 E12.5 F1000 ; intro line

G92 E0
M221 S95

; Don't change E values below. Excessive value can damage the printer.
M907 E430 ; set extruder motor current
G21 ; set units to millimeters
G90 ; use absolute coordinates
M83 ; use relative distances for extrusion
M900 K0.05 ; Filament gcode LA 1.5
M900 K30 ; Filament gcode LA 1.0
M107
;LAYER_CHANGE
;Z:0.2
;HEIGHT:0.2
;BEFORE_LAYER_CHANGE
G92 E0.0
;0.2


M73 P1 R5
M73 Q1 S5
G1 E-.8 F2100
G1 Z.4 F720
;AFTER_LAYER_CHANGE
;0.2
G1 X21.797 Y21.43 F10800
G1 Z.2 F720
M73 P2 R5
M73 Q2 S5
G1 E.8 F2100
M204 S800
;TYPE:Skirt/Brim
;WIDTH:0.42
G1 F1200
G1 X22.809 Y20.519 E.04267
G1 X24.05 Y19.633 E.04783
G1 X26.088 Y18.597 E.07169
G1 X27.306 Y18.184 E.04033
G1 X28.441 Y17.91 E.03658
G1 X29.789 Y17.728 E.04267
G1 X31.075 Y17.691 E.04033
G1 X32.239 Y17.764 E.03658
G1 X33.582 Y17.987 E.04267
G1 X35.049 Y18.405 E.04783
G1 X35.912 Y18.744 E.02909
G1 X37.919 Y19.841 E.07169
G1 X39.133 Y20.764 E.04783
G1 X40.117 Y21.704 E.04267
G1 X41.527 Y23.504 E.07169
G1 X42.279 Y24.831 E.04783
G1 X42.656 Y25.679 E.02909
G1 X43.096 Y26.967 E.04267
G1 X43.38 Y28.221 E.04033
G1 X43.533 Y29.378 E.03658
G1 X43.574 Y30.738 E.04267
G1 X43.519 Y31.664 E.02909
G1 X43.281 Y33.171 E.04783
G1 X42.593 Y35.351 E.07169
G1 X41.527 Y37.374 E.07169
G1 X40.623 Y38.602 E.04783
G1 X39.697 Y39.6 E.04267
G1 X39.007 Y40.22 E.02909
G1 X37.781 Y41.127 E.04783
G1 X36.603 Y41.808 E.04267
G1 X35.204 Y42.416 E.04783
G1 X33.974 Y42.793 E.04033
G1 X32.832 Y43.033 E.03658
G1 X30.551 Y43.189 E.07169
G1 X29.194 Y43.087 E.04267
G1 X27.696 Y42.802 E.04783
G1 X25.538 Y42.045 E.07169
G1 X24.19 Y41.331 E.04783
G1 X23.416 Y40.82 E.02909
M73 Q3 S5
G1 X21.682 Y39.33 E.07169
G1 X20.685 Y38.175 E.04783
G1 X19.919 Y37.05 E.04267
M73 P3 R5
G1 X18.914 Y34.997 E.07169
G1 X18.291 Y32.797 E.07169
G1 X18.121 Y31.522 E.04033
G1 X18.071 Y30.356 E.03658
G1 X18.291 Y28.081 E.07169
G1 X18.662 Y26.601 E.04783
G1 X19.14 Y25.327 E.04267
G1 X19.543 Y24.491 E.02909
G1 X20.334 Y23.187 E.04783
G1 X21.759 Y21.476 E.06981
M204 S1000
G1 X22.047 Y21.716 F10800
M204 S800
G1 F1200
G1 X23.164 Y20.718 E.04694
G1 X24.258 Y19.948 E.04196
G1 X26.237 Y18.944 E.06957
G1 X27.412 Y18.546 E.03892
G1 X28.502 Y18.282 E.03517
G1 X29.829 Y18.103 E.04196
G1 X31.069 Y18.068 E.03892
G1 X32.189 Y18.138 E.03517
G1 X33.509 Y18.357 E.04196
G1 X34.932 Y18.764 E.04641
G1 X35.754 Y19.087 E.02767
G1 X37.702 Y20.149 E.06957
G1 X38.772 Y20.952 E.04196
G1 X39.848 Y21.969 E.04641
G1 X41.216 Y23.716 E.06957
G1 X41.944 Y25.005 E.04641
G1 X42.303 Y25.811 E.02767
G1 X42.735 Y27.078 E.04196
G1 X43.009 Y28.288 E.03892
G1 X43.157 Y29.4 E.03517
G1 X43.197 Y30.738 E.04196
G1 X43.144 Y31.619 E.02767
G1 X42.915 Y33.081 E.04641
G1 X42.513 Y34.506 E.04641
G1 X42.006 Y35.744 E.04196
G1 X40.879 Y37.656 E.06957
G1 X39.945 Y38.804 E.04641
G1 X39.326 Y39.433 E.02767
G1 X37.583 Y40.807 E.06957
G1 X36.297 Y41.539 E.04641
G1 X35.066 Y42.065 E.04196
G1 X33.879 Y42.428 E.03892
M73 Q4 S5
G1 X32.782 Y42.659 E.03517
G1 X30.568 Y42.812 E.06957
G1 X29.233 Y42.712 E.04196
M73 P4 R5
G1 X27.78 Y42.435 E.04641
G1 X25.686 Y41.698 E.06957
G1 X24.379 Y41.004 E.04641
G1 X23.642 Y40.518 E.02767
G1 X21.958 Y39.074 E.06957
G1 X21.077 Y38.066 E.04196
G1 X20.237 Y36.847 E.04641
G1 X19.262 Y34.854 E.06957
G1 X18.66 Y32.719 E.06957
G1 X18.496 Y31.488 E.03892
G1 X18.448 Y30.368 E.03517
G1 X18.66 Y28.159 E.06957
G1 X18.977 Y26.859 E.04196
G1 X19.489 Y25.47 E.04641
G1 X19.872 Y24.675 E.02767
G1 X20.639 Y23.408 E.04641
G1 X22.009 Y21.762 E.06715
M204 S1000
; printing object kladicka.stl id:0 copy 0
;WIPE_START
G1 F8640
G1 X23.164 Y20.718 E-.35943
G1 X24.258 Y19.948 E-.30902
G1 X24.612 Y19.769 E-.09156
;WIPE_END
G1 E-.04 F2100
G1 Z.6 F720
G1 X24.53 Y24.238 F10800
G1 Z.2 F720
G1 E.8 F2100
M204 S800
;TYPE:Perimeter
;WIDTH:0.419999
G1 F1200
G1 X24.912 Y23.873 E.01657
G1 X25.316 Y23.531 E.01658
G1 X25.739 Y23.214 E.01658
G1 X26.18 Y22.923 E.01657
G1 X26.625 Y22.665 E.01613
G1 X27.61 Y22.209 E.03402
G1 X28.094 Y22.036 E.01613
G1 X28.601 Y21.888 E.01657
G1 X29.117 Y21.77 E.01658
G1 X29.638 Y21.683 E.01657
G1 X30.164 Y21.628 E.01658
G1 X30.678 Y21.605 E.01613
G1 X31.762 Y21.654 E.03402
G1 X32.272 Y21.723 E.01613
G1 X32.79 Y21.825 E.01657
G1 X33.302 Y21.958 E.01658
G1 X33.805 Y22.121 E.01657
G1 X34.297 Y22.314 E.01657
G1 X34.776 Y22.537 E.01657
G1 X35.242 Y22.787 E.01658
G1 X35.692 Y23.065 E.01657
G1 X36.124 Y23.369 E.01657
G1 X36.537 Y23.699 E.01657
G1 X36.93 Y24.053 E.01658
G1 X37.301 Y24.429 E.01657
G1 X37.649 Y24.827 E.01658
G1 X37.972 Y25.245 E.01657
G1 X38.27 Y25.682 E.01657
G1 X38.541 Y26.136 E.01658
G1 X38.785 Y26.605 E.01658
G1 X39 Y27.088 E.01657
G1 X39.185 Y27.583 E.01657
G1 X39.341 Y28.088 E.01657
G1 X39.463 Y28.588 E.01613
G1 X39.625 Y29.661 E.03402
G1 X39.656 Y30.252 E.01855
G1 X39.656 Y30.703 E.01415
G1 X39.625 Y31.217 E.01613
G1 X39.463 Y32.29 E.03402
G1 X39.341 Y32.789 E.01613
G1 X39.185 Y33.294 E.01657
G1 X39.005 Y33.776 E.01613
G1 X38.534 Y34.754 E.03402
G1 X38.27 Y35.195 E.01613
G1 X37.972 Y35.632 E.01657
M73 Q5 S5
G1 X37.649 Y36.05 E.01657
G1 X37.301 Y36.448 E.01657
G1 X36.93 Y36.825 E.01658
G1 X36.537 Y37.179 E.01657
G1 X36.124 Y37.508 E.01657
G1 X35.692 Y37.812 E.01657
G1 X35.242 Y38.09 E.01657
G1 X34.776 Y38.341 E.01658
M73 P5 R5
G1 X34.297 Y38.563 E.01657
G1 X33.805 Y38.756 E.01657
G1 X33.302 Y38.92 E.01657
G1 X32.79 Y39.053 E.01658
G1 X32.272 Y39.155 E.01657
G1 X31.748 Y39.226 E.01658
G1 X31.221 Y39.265 E.01657
G1 X30.692 Y39.273 E.01658
G1 X30.164 Y39.249 E.01657
G1 X29.638 Y39.194 E.01658
G1 X29.117 Y39.107 E.01657
G1 X28.601 Y38.99 E.01658
G1 X28.094 Y38.842 E.01657
G1 X27.596 Y38.663 E.01657
G1 X27.11 Y38.456 E.01657
G1 X26.638 Y38.219 E.01658
G1 X26.18 Y37.955 E.01657
G1 X25.739 Y37.664 E.01658
G1 X25.316 Y37.346 E.01657
G1 X24.912 Y37.005 E.01658
G1 X24.53 Y36.639 E.01657
G1 X24.18 Y36.262 E.01613
G1 X23.517 Y35.404 E.03402
G1 X23.24 Y34.97 E.01613
G1 X22.982 Y34.509 E.01658
G1 X22.753 Y34.032 E.01657
G1 X22.552 Y33.543 E.01657
G1 X22.382 Y33.043 E.01657
G1 X22.241 Y32.533 E.01658
G1 X22.131 Y32.016 E.01657
G1 X22.054 Y31.508 E.01613
G1 X21.989 Y30.424 E.03402
G1 X22.005 Y29.91 E.01612
G1 X22.052 Y29.384 E.01658
G1 X22.131 Y28.861 E.01657
G1 X22.241 Y28.344 E.01657
G1 X22.382 Y27.834 E.01658
G1 X22.548 Y27.348 E.01613
G1 X22.989 Y26.356 E.03402
G1 X23.24 Y25.907 E.01613
G1 X23.524 Y25.462 E.01657
G1 X23.835 Y25.034 E.01658
G1 X24.171 Y24.626 E.01657
G1 X24.489 Y24.282 E.01469
M204 S1000
;WIPE_START
G1 F8640
G1 X24.912 Y23.873 E-.1359
G1 X25.316 Y23.531 E-.12206
G1 X25.739 Y23.214 E-.12206
G1 X26.18 Y22.923 E-.12206
G1 X26.625 Y22.665 E-.11879
G1 X27.172 Y22.412 E-.13913
;WIPE_END
G1 E-.04 F2100
G1 Z.6 F720
G1 X25.08 Y23.236 F10800
G1 Z.2 F720
G1 E.8 F2100
M204 S800
G1 F1200
G1 X25.521 Y22.905 E.01728
G1 X25.981 Y22.602 E.01728
G1 X26.451 Y22.33 E.01702
G1 X27.467 Y21.86 E.03509
G1 X27.977 Y21.677 E.01701
G1 X28.507 Y21.522 E.01728
G1 X29.044 Y21.4 E.01728
G1 X29.588 Y21.31 E.01728
G1 X30.136 Y21.252 E.01728
G1 X30.678 Y21.228 E.01701
G1 X31.796 Y21.278 E.03508
G1 X32.334 Y21.351 E.01701
G1 X32.874 Y21.457 E.01728
G1 X33.408 Y21.596 E.01728
G1 X33.932 Y21.766 E.01728
G1 X34.445 Y21.968 E.01728
G1 X34.945 Y22.199 E.01728
G1 X35.431 Y22.46 E.01728
G1 X35.899 Y22.75 E.01728
G1 X36.35 Y23.067 E.01728
G1 X36.781 Y23.411 E.01728
G1 X37.191 Y23.78 E.01728
G1 X37.578 Y24.173 E.01728
G1 X37.94 Y24.588 E.01728
G1 X38.277 Y25.024 E.01728
G1 X38.588 Y25.479 E.01728
G1 X38.871 Y25.952 E.01728
G1 X39.125 Y26.442 E.01728
G1 X39.349 Y26.945 E.01728
G1 X39.542 Y27.461 E.01728
G1 X39.705 Y27.988 E.01728
G1 X39.834 Y28.515 E.01702
G1 X40 Y29.622 E.03508
G1 X40.033 Y30.252 E.01979
G1 X40.033 Y30.714 E.0145
G1 X40 Y31.256 E.01702
G1 X39.834 Y32.363 E.03508
G1 X39.705 Y32.89 E.01701
G1 X39.542 Y33.416 E.01728
G1 X39.352 Y33.924 E.01702
G1 X38.866 Y34.933 E.03508
G1 X38.588 Y35.398 E.01701
G1 X38.277 Y35.854 E.01728
G1 X37.94 Y36.29 E.01728
G1 X37.578 Y36.705 E.01728
G1 X37.191 Y37.098 E.01728
G1 X36.781 Y37.466 E.01728
G1 X36.35 Y37.81 E.01728
G1 X35.899 Y38.127 E.01728
G1 X35.431 Y38.417 E.01728
G1 X34.945 Y38.678 E.01728
M73 Q6 S5
G1 X34.445 Y38.91 E.01728
G1 X33.932 Y39.111 E.01728
G1 X33.408 Y39.282 E.01728
G1 X32.874 Y39.42 E.01728
G1 X32.334 Y39.527 E.01728
G1 X31.787 Y39.601 E.01728
G1 X31.238 Y39.642 E.01728
G1 X30.686 Y39.65 E.01728
M73 P6 R5
G1 X30.136 Y39.626 E.01728
G1 X29.588 Y39.568 E.01728
G1 X29.044 Y39.478 E.01728
G1 X28.507 Y39.355 E.01728
G1 X27.977 Y39.2 E.01728
G1 X27.459 Y39.014 E.01728
G1 X26.952 Y38.798 E.01728
G1 X26.459 Y38.551 E.01728
G1 X25.981 Y38.276 E.01728
G1 X25.521 Y37.972 E.01728
G1 X25.08 Y37.641 E.01728
G1 X24.66 Y37.285 E.01728
G1 X24.261 Y36.904 E.01728
G1 X23.892 Y36.506 E.01702
G1 X23.208 Y35.621 E.03508
G1 X22.916 Y35.164 E.01701
G1 X22.647 Y34.682 E.01728
G1 X22.408 Y34.186 E.01728
G1 X22.199 Y33.676 E.01728
G1 X22.021 Y33.154 E.01728
G1 X21.874 Y32.623 E.01728
G1 X21.76 Y32.084 E.01728
G1 X21.679 Y31.547 E.01701
G1 X21.612 Y30.43 E.03509
G1 X21.628 Y29.888 E.01701
G1 X21.678 Y29.339 E.01729
G1 X21.76 Y28.794 E.01728
G1 X21.874 Y28.255 E.01728
G1 X22.021 Y27.723 E.01728
G1 X22.196 Y27.21 E.01702
G1 X22.652 Y26.187 E.03508
G1 X22.916 Y25.714 E.01701
G1 X23.213 Y25.249 E.01728
G1 X23.537 Y24.803 E.01728
G1 X23.887 Y24.377 E.01728
G1 X24.261 Y23.973 E.01728
G1 X24.66 Y23.592 E.01728
G1 X25.035 Y23.275 E.0154
M204 S1000
G1 X25.304 Y22.597 F10800
M204 S800
;TYPE:External perimeter
G1 F1200
G1 X25.783 Y22.281 E.01799
G1 X26.278 Y21.995 E.0179
G1 X27.324 Y21.511 E.03615
G1 X27.861 Y21.318 E.01789
G1 X28.412 Y21.157 E.01799
G1 X28.971 Y21.03 E.01799
G1 X29.537 Y20.936 E.01799
G1 X30.108 Y20.876 E.01799
G1 X30.678 Y20.85 E.0179
G1 X31.83 Y20.902 E.03615
G1 X32.395 Y20.978 E.0179
G1 X32.958 Y21.089 E.01799
G1 X33.514 Y21.234 E.01799
G1 X34.059 Y21.411 E.01799
G1 X34.593 Y21.621 E.01799
G1 X35.114 Y21.862 E.01799
G1 X35.619 Y22.134 E.01799
G1 X36.107 Y22.435 E.01799
G1 X36.576 Y22.766 E.01799
G1 X37.025 Y23.123 E.01799
G1 X37.451 Y23.507 E.01799
G1 X37.854 Y23.916 E.01799
G1 X38.232 Y24.348 E.01799
G1 X38.583 Y24.802 E.01799
G1 X38.906 Y25.276 E.01799
G1 X39.2 Y25.769 E.01799
G1 X39.464 Y26.278 E.01799
G1 X39.698 Y26.802 E.01799
G1 X39.899 Y27.339 E.01799
G1 X40.069 Y27.887 E.01799
G1 X40.204 Y28.442 E.0179
G1 X40.385 Y29.732 E.04083
G1 X40.41 Y30.726 E.03117
G1 X40.376 Y31.296 E.0179
G1 X40.204 Y32.435 E.03615
G1 X40.069 Y32.99 E.0179
G1 X39.899 Y33.538 E.01799
G1 X39.699 Y34.073 E.0179
G1 X39.199 Y35.111 E.03615
G1 X38.906 Y35.601 E.0179
G1 X38.583 Y36.075 E.01799
G1 X38.232 Y36.529 E.01799
G1 X37.854 Y36.961 E.01799
G1 X37.451 Y37.37 E.01799
G1 X37.025 Y37.754 E.01799
G1 X36.576 Y38.112 E.01799
G1 X36.107 Y38.442 E.01799
G1 X35.619 Y38.744 E.01799
G1 X35.114 Y39.016 E.01799
G1 X34.593 Y39.257 E.01799
G1 X34.059 Y39.466 E.01799
G1 X33.514 Y39.644 E.01799
G1 X32.958 Y39.788 E.01799
G1 X32.395 Y39.899 E.01799
G1 X31.827 Y39.976 E.01799
G1 X31.255 Y40.019 E.01799
G1 X30.681 Y40.027 E.01799
G1 X30.108 Y40.002 E.01799
G1 X29.537 Y39.942 E.01799
G1 X28.971 Y39.848 E.01799
G1 X28.412 Y39.72 E.01799
G1 X27.861 Y39.559 E.01799
G1 X27.321 Y39.366 E.01799
M73 Q7 S5
G1 X26.793 Y39.14 E.01799
G1 X26.28 Y38.883 E.01799
G1 X25.783 Y38.597 E.01799
G1 X25.304 Y38.281 E.01799
G1 X24.845 Y37.936 E.01799
G1 X24.407 Y37.565 E.01799
G1 X23.993 Y37.169 E.01799
G1 X23.604 Y36.75 E.0179
M73 P7 R5
G1 X22.899 Y35.838 E.03615
G1 X22.592 Y35.357 E.0179
G1 X22.313 Y34.856 E.01799
G1 X22.064 Y34.339 E.01799
G1 X21.846 Y33.808 E.01799
G1 X21.661 Y33.265 E.01799
G1 X21.508 Y32.712 E.01799
G1 X21.389 Y32.151 E.01799
G1 X21.304 Y31.587 E.0179
G1 X21.235 Y30.436 E.03615
G1 X21.252 Y29.865 E.01789
G1 X21.303 Y29.294 E.01799
G1 X21.389 Y28.726 E.01799
G1 X21.508 Y28.165 E.01799
G1 X21.661 Y27.612 E.01799
G1 X21.845 Y27.072 E.0179
G1 X22.314 Y26.019 E.03615
G1 X22.592 Y25.52 E.0179
G1 X22.901 Y25.037 E.01799
G1 X23.238 Y24.572 E.01799
G1 X23.602 Y24.129 E.01799
G1 X23.993 Y23.709 E.01799
G1 X24.407 Y23.312 E.01799
G1 X24.845 Y22.941 E.01799
G1 X25.256 Y22.633 E.01611
M204 S1000
G1 X25.667 Y22.765 F10800
;WIPE_START
G1 F8640
G1 X25.783 Y22.281 E-.14632
G1 X26.278 Y21.995 E-.13182
G1 X27.324 Y21.511 E-.2662
G1 X27.861 Y21.318 E-.13178
G1 X28.21 Y21.216 E-.08387
;WIPE_END
G1 E-.04 F2100
G1 Z.6 F720
G1 X28.327 Y27.782 F10800
G1 Z.2 F720
G1 E.8 F2100
M204 S800
;TYPE:Perimeter
G1 F1200
G1 X28.447 Y27.656 E.00547
G1 X28.947 Y27.297 E.01929
G1 X29.57 Y27.016 E.02142
G1 X30 Y26.875 E.01421
G1 X30.589 Y26.787 E.01866
G1 X31.11 Y26.787 E.01633
G1 X31.664 Y26.891 E.01767
G1 X32.164 Y27.037 E.01634
G1 X32.669 Y27.278 E.01755
G1 X33.237 Y27.702 E.02222
G1 X33.515 Y27.96 E.0119
G1 X33.925 Y28.497 E.02117
G1 X34.218 Y29.104 E.02116
G1 X34.369 Y29.547 E.01468
G1 X34.468 Y30.095 E.01744
G1 X34.453 Y30.791 E.02184
G1 X34.401 Y31.211 E.01325
G1 X34.223 Y31.796 E.01919
G1 X33.85 Y32.479 E.02439
G1 X33.65 Y32.763 E.01088
G1 X33.199 Y33.222 E.02018
G1 X32.562 Y33.654 E.02412
G1 X32.098 Y33.854 E.01586
G1 X31.606 Y34.017 E.01624
G1 X30.874 Y34.095 E.02308
G1 X30.355 Y34.054 E.01635
G1 X29.858 Y33.973 E.01578
G1 X29.174 Y33.701 E.02307
G1 X28.757 Y33.442 E.01539
G1 X28.352 Y33.143 E.01578
G1 X27.841 Y32.557 E.02439
G1 X27.44 Y31.832 E.02598
G1 X27.287 Y31.308 E.01711
G1 X27.179 Y30.801 E.01625
G1 X27.178 Y30.133 E.02096
G1 X27.287 Y29.569 E.01799
G1 X27.44 Y29.046 E.01711
G1 X27.72 Y28.501 E.0192
G1 X28.092 Y28.029 E.01887
G1 X28.286 Y27.826 E.00879
M204 S1000
G1 X28.63 Y28.006 F10800
M204 S800
G1 F1200
G1 X29.167 Y27.604 E.02103
G1 X29.711 Y27.366 E.01863
G1 X30.056 Y27.248 E.01141
G1 X30.644 Y27.16 E.01866
G1 X31.154 Y27.169 E.01597
G1 X31.831 Y27.313 E.0217
G1 X32.339 Y27.538 E.01743
G1 X32.71 Y27.762 E.01359
G1 X33.12 Y28.091 E.01646
G1 X33.51 Y28.575 E.0195
G1 X33.724 Y28.912 E.01251
G1 X33.95 Y29.434 E.01786
G1 X34.096 Y30.162 E.02326
G1 X34.076 Y30.769 E.01906
G1 X34.041 Y31.101 E.01046
G1 X33.862 Y31.686 E.01919
G1 X33.525 Y32.288 E.02161
G1 X33.28 Y32.602 E.01251
G1 X32.905 Y32.982 E.01674
G1 X32.361 Y33.335 E.02033
G1 X31.512 Y33.652 E.02843
G1 X30.841 Y33.72 E.02113
G1 X30.042 Y33.628 E.02521
G1 X29.316 Y33.351 E.02436
M73 Q8 S5
G1 X28.677 Y32.918 E.02422
G1 X28.128 Y32.312 E.02562
G1 X27.776 Y31.659 E.02326
G1 X27.571 Y30.878 E.02534
G1 X27.555 Y30.133 E.02336
M73 P8 R5
G1 X27.729 Y29.343 E.02534
G1 X27.953 Y28.873 E.01632
G1 X28.134 Y28.558 E.01143
G1 X28.582 Y28.042 E.02141
M204 S1000
G1 X28.856 Y28.297 F10800
M204 S800
;TYPE:External perimeter
G1 F1200
G1 X29.387 Y27.91 E.02058
G1 X30.111 Y27.621 E.02447
G1 X30.7 Y27.533 E.01866
G1 X31.139 Y27.549 E.01377
G1 X31.751 Y27.682 E.01963
G1 X32.345 Y27.959 E.02055
G1 X32.765 Y28.29 E.01678
G1 X32.984 Y28.507 E.00965
G1 X33.325 Y28.954 E.01765
G1 X33.604 Y29.584 E.02161
G1 X33.725 Y30.228 E.02055
G1 X33.7 Y30.747 E.01628
G1 X33.64 Y31.122 E.01191
G1 X33.491 Y31.603 E.01579
G1 X33.201 Y32.096 E.01794
G1 X33.011 Y32.338 E.00964
G1 X32.653 Y32.702 E.01601
