; generated by PrusaSlicer 2.5.0+win64 on 2023-11-22 at 12:01:21 UTC


;
;
; 

; external perimeters extrusion width = 0.60mm
; perimeters extrusion width = 0.50mm
; infill extrusion width = 0.50mm
; solid infill extrusion width = 0.50mm
; top infill extrusion width = 0.45mm
; support material extrusion width = 0.38mm
; first layer extrusion width = 0.42mm

; external perimeters extrusion width = 0.60mm
; perimeters extrusion width = 0.50mm
; infill extrusion width = 0.50mm
; solid infill extrusion width = 0.50mm
; top infill extrusion width = 0.45mm
; support material extrusion width = 0.38mm
; first layer extrusion width = 0.42mm

M73 P0 R65
M73 Q0 S66
M201 X1000 Y1000 Z200 E5000 ; sets maximum accelerations, mm/sec^2
M203 X200 Y200 Z12 E120 ; sets maximum feedrates, mm / sec
M204 P1250 R1250 T1250 ; sets acceleration (P, T) and retract acceleration (R), mm/sec^2
M205 X8.00 Y8.00 Z0.40 E4.50 ; sets the jerk limits, mm/sec
M205 S0 T0 ; sets the minimum extruding and travel feed rate, mm/sec
M107
;TYPE:Custom
M862.3 P "MK3" ; printer model check
M862.1 P0.4 ; nozzle diameter check
M115 U3.12.1 ; tell printer latest fw version
G90 ; use absolute coordinates
M83 ; extruder relative mode
M104 S215 ; set extruder temp
M140 S60 ; set bed temp
M190 S60 ; wait for bed temp
M109 S215 ; wait for extruder temp
G28 W ; home all without mesh bed level
G80 ; mesh bed leveling

G1 Z0.2 F720
G1 Y-3 F1000 ; go outside print area
G92 E0
G1 X60 E9 F1000 ; intro line
G1 X100 E12.5 F1000 ; intro line

G92 E0
M221 S95

; Don't change E values below. Excessive value can damage the printer.

M907 E538 ; set extruder motor current
G21 ; set units to millimeters
G90 ; use absolute coordinates
M83 ; use relative distances for extrusion
M900 K0.05 ; Filament gcode LA 1.5
M900 K30 ; Filament gcode LA 1.0
M107
;LAYER_CHANGE
;Z:0.2
;HEIGHT:0.2
;BEFORE_LAYER_CHANGE
G92 E0.0
;0.2


G1 E-.8 F2100
G1 Z.4 F720
;AFTER_LAYER_CHANGE
;0.2
G1 X14.173 Y12.331 F10800
G1 Z.2 F720
G1 E.8 F2100
M204 S800
;TYPE:Skirt/Brim
;WIDTH:0.42
G1 F1200
G1 X15.218 Y11.455 E.04278
G1 X16.158 Y11.261 E.03008
G1 X126.158 Y11.261 E3.44897
G1 X127.465 Y11.653 E.04278
G1 X128.342 Y12.698 E.04278
G1 X128.535 Y13.638 E.03008
G1 X128.535 Y23.638 E.31354
G1 X127.942 Y25.21 E.05268
G1 X82.192 Y77.124 E2.1696
G1 X80.409 Y77.93 E.06136
M73 Q0 S65
G1 X30.909 Y77.93 E1.55204
G1 X29.693 Y77.868 E.03816
G1 X28.543 Y77.698 E.03645
G1 X26.66 Y77.176 E.06126
G1 X25.443 Y76.655 E.0415
G1 X24.458 Y76.113 E.03528
G1 X22.847 Y74.942 E.06243
G1 X21.891 Y74.027 E.0415
G1 X20.64 Y72.459 E.0629
G1 X20.062 Y71.51 E.03482
G1 X19.173 Y69.478 E.06956
G1 X18.868 Y68.41 E.03482
G1 X18.635 Y67.142 E.04042
G1 X13.794 Y20.885 E1.45827
G1 X13.781 Y13.638 E.22724
G1 X14.155 Y12.389 E.0409
M204 S1000
; printing object middle_hole_v2.stl id:0 copy 0
;WIPE_START
G1 F8640
G1 X15.218 Y11.455 E-.32671
G1 X16.158 Y11.261 E-.22155
G1 X17.075 Y11.261 E-.21174
;WIPE_END
G1 E-.04 F2100
G1 Z.6 F720
G1 X16.945 Y14.425 F10800
G1 Z.2 F720
G1 E.8 F2100
M204 S800
;TYPE:Perimeter
;WIDTH:0.419999
G1 F1200
G1 X125.371 Y14.425 E3.39961
G1 X125.371 Y22.851 E.26419
G1 X95.937 Y22.851 E.92289
G1 X95.65 Y22.929 E.00931
G1 X95.451 Y23.127 E.00882
G1 X95.371 Y23.417 E.0094
G1 X95.371 Y32.851 E.29581
G1 X46.945 Y32.851 E1.51836
G1 X46.943 Y20.369 E.39137
G1 X46.857 Y20.113 E.00847
G1 X46.649 Y19.919 E.0089
G1 X46.38 Y19.851 E.00871
G1 X16.945 Y19.851 E.92289
G1 X16.945 Y14.485 E.16824
M204 S1000
G1 X16.568 Y14.048 F10800
M204 S800
;TYPE:External perimeter
G1 F1200
G1 X125.748 Y14.048 E3.42326
G1 X125.748 Y23.228 E.28783
M73 P1 R65
M73 Q1 S65
G1 X95.937 Y23.228 E.93472
M73 P1 R64
G1 X95.802 Y23.284 E.00457
G1 X95.748 Y23.417 E.00448
G1 X95.748 Y33.228 E.30763
G1 X46.568 Y33.228 E1.542
G1 X46.568 Y20.417 E.40169
G1 X46.505 Y20.276 E.00485
G1 X46.38 Y20.228 E.0042
G1 X16.568 Y20.228 E.93472
G1 X16.568 Y14.108 E.19189
M204 S1000
G1 X16.967 Y14.075 F10800
;WIPE_START
G1 F8640
G1 X19.86 Y14.106 E-.76
;WIPE_END
G1 E-.04 F2100
G1 Z.6 F720
G1 X49.572 Y22.007 F10800
G1 Z.2 F720
G1 E.8 F2100
M204 S800
;TYPE:Perimeter
G1 F1200
G1 X49.791 Y21.82 E.00904
G1 X50.08 Y21.623 E.01096
G1 X50.573 Y21.425 E.01667
G1 X51.144 Y21.351 E.01803
G1 X91.173 Y21.351 E1.25508
G1 X91.678 Y21.413 E.01596
G1 X92.236 Y21.623 E.01871
G1 X92.721 Y21.971 E.01871
G1 X93.099 Y22.432 E.01871
G1 X93.345 Y22.976 E.01871
G1 X93.44 Y23.543 E.01804
G1 X93.384 Y24.158 E.01935
G1 X93.173 Y24.716 E.01871
G1 X92.826 Y25.201 E.01871
G1 X92.364 Y25.579 E.01871
G1 X91.821 Y25.825 E.01871
G1 X91.173 Y25.925 E.02056
G1 X51.144 Y25.925 E1.25508
G1 X50.638 Y25.864 E.01596
G1 X50.08 Y25.653 E.01871
G1 X49.595 Y25.305 E.01871
G1 X49.217 Y24.844 E.01871
G1 X48.971 Y24.301 E.01871
G1 X48.874 Y23.712 E.01871
G1 X48.933 Y23.118 E.01871
G1 X49.143 Y22.56 E.01871
G1 X49.526 Y22.045 E.02011
M204 S1000
G1 X50.021 Y22.119 F10800
M204 S800
;TYPE:External perimeter
G1 F1200
G1 X50.224 Y21.971 E.00788
G1 X50.688 Y21.787 E.01564
G1 X51.144 Y21.728 E.01442
G1 X91.173 Y21.728 E1.25508
G1 X91.676 Y21.799 E.01595
G1 X92.135 Y21.996 E.01564
G1 X92.526 Y22.305 E.01564
G1 X92.825 Y22.704 E.01564
G1 X93.01 Y23.167 E.01564
G1 X93.068 Y23.663 E.01564
G1 X92.997 Y24.156 E.01564
G1 X92.8 Y24.615 E.01564
G1 X92.492 Y25.006 E.01564
G1 X92.092 Y25.305 E.01564
G1 X91.629 Y25.49 E.01564
G1 X91.173 Y25.548 E.01442
G1 X51.144 Y25.548 E1.25508
G1 X50.64 Y25.477 E.01595
G1 X50.182 Y25.28 E.01564
G1 X49.79 Y24.971 E.01564
G1 X49.492 Y24.572 E.01564
G1 X49.307 Y24.109 E.01564
G1 X49.248 Y23.613 E.01564
G1 X49.319 Y23.12 E.01564
G1 X49.516 Y22.662 E.01564
G1 X49.825 Y22.27 E.01564
G1 X49.973 Y22.156 E.00587
M204 S1000
G1 X49.979 Y21.871 F10800
;WIPE_START
G1 F8640
G1 X50.224 Y21.971 E-.07192
G1 X50.688 Y21.787 E-.11516
G1 X51.144 Y21.728 E-.10618
G1 X53.165 Y21.728 E-.46674
;WIPE_END
G1 E-.04 F2100
G1 Z.6 F720
G1 X125.258 Y15.304 F10800
G1 Z.2 F720
G1 E.8 F2100
M204 S800
;TYPE:Solid infill
;WIDTH:0.421404
G1 F1200
G1 X124.662 Y14.708 E.02651
G1 X124.127 Y14.708 E.01685
G1 X125.088 Y15.669 E.04278
G1 X125.088 Y16.204 E.01685
G1 X123.592 Y14.708 E.0666
G1 X123.057 Y14.708 E.01685
G1 X125.088 Y16.74 E.09042
G1 X125.088 Y17.275 E.01685
G1 X122.521 Y14.708 E.11424
G1 X121.986 Y14.708 E.01685
G1 X125.088 Y17.81 E.13807
G1 X125.088 Y18.345 E.01685
G1 X121.451 Y14.708 E.16189
G1 X120.916 Y14.708 E.01685
G1 X125.088 Y18.881 E.18571
G1 X125.088 Y19.416 E.01685
G1 X120.38 Y14.708 E.20954
G1 X119.845 Y14.708 E.01685
G1 X125.088 Y19.951 E.23336
G1 X125.088 Y20.486 E.01685
G1 X119.31 Y14.708 E.25718
G1 X118.775 Y14.708 E.01685
G1 X125.088 Y21.022 E.281
G1 X125.088 Y21.557 E.01685
G1 X118.239 Y14.708 E.30483
G1 X117.704 Y14.708 E.01685
G1 X125.088 Y22.092 E.32865
G1 X125.088 Y22.568 E.01498
G1 X125.029 Y22.568 E.00186
G1 X117.169 Y14.708 E.34983
G1 X116.634 Y14.708 E.01685
G1 X124.494 Y22.568 E.34983
G1 X123.959 Y22.568 E.01685
G1 X116.098 Y14.708 E.34983
G1 X115.563 Y14.708 E.01685
G1 X123.423 Y22.568 E.34983
G1 X122.888 Y22.568 E.01685
G1 X115.028 Y14.708 E.34983
G1 X114.493 Y14.708 E.01685
G1 X122.353 Y22.568 E.34983
G1 X121.818 Y22.568 E.01685
G1 X113.957 Y14.708 E.34983
G1 X113.422 Y14.708 E.01685
G1 X121.282 Y22.568 E.34983
G1 X120.747 Y22.568 E.01685
G1 X112.887 Y14.708 E.34983
G1 X112.352 Y14.708 E.01685
G1 X120.212 Y22.568 E.34983
G1 X119.677 Y22.568 E.01685
G1 X111.816 Y14.708 E.34983
G1 X111.281 Y14.708 E.01685
G1 X119.141 Y22.568 E.34983
G1 X118.606 Y22.568 E.01685
G1 X110.746 Y14.708 E.34983
G1 X110.21 Y14.708 E.01685
G1 X118.071 Y22.568 E.34983
G1 X117.535 Y22.568 E.01685
G1 X109.675 Y14.708 E.34983
G1 X109.14 Y14.708 E.01685
M73 Q1 S64
G1 X117 Y22.568 E.34983
G1 X116.465 Y22.568 E.01685
G1 X108.605 Y14.708 E.34983
G1 X108.069 Y14.708 E.01685
G1 X115.93 Y22.568 E.34983
G1 X115.394 Y22.568 E.01685
G1 X107.534 Y14.708 E.34983
G1 X106.999 Y14.708 E.01685
G1 X114.859 Y22.568 E.34983
G1 X114.324 Y22.568 E.01685
G1 X106.464 Y14.708 E.34983
G1 X105.928 Y14.708 E.01685
G1 X113.789 Y22.568 E.34983
G1 X113.253 Y22.568 E.01685
G1 X105.393 Y14.708 E.34983
G1 X104.858 Y14.708 E.01685
G1 X112.718 Y22.568 E.34983
G1 X112.183 Y22.568 E.01685
G1 X104.323 Y14.708 E.34983
M73 P2 R64
G1 X103.787 Y14.708 E.01685
M73 Q2 S64
G1 X111.648 Y22.568 E.34983
G1 X111.112 Y22.568 E.01685
G1 X103.252 Y14.708 E.34983
G1 X102.717 Y14.708 E.01685
G1 X110.577 Y22.568 E.34983
G1 X110.042 Y22.568 E.01685
G1 X102.182 Y14.708 E.34983
G1 X101.646 Y14.708 E.01685
G1 X109.507 Y22.568 E.34983
G1 X108.971 Y22.568 E.01685
G1 X101.111 Y14.708 E.34983
G1 X100.576 Y14.708 E.01685
G1 X108.436 Y22.568 E.34983
G1 X107.901 Y22.568 E.01685
G1 X100.041 Y14.708 E.34983
G1 X99.505 Y14.708 E.01685
G1 X107.366 Y22.568 E.34983
G1 X106.83 Y22.568 E.01685
G1 X98.97 Y14.708 E.34983
G1 X98.435 Y14.708 E.01685
G1 X106.295 Y22.568 E.34983
G1 X105.76 Y22.568 E.01685
G1 X97.9 Y14.708 E.34983
G1 X97.364 Y14.708 E.01685
G1 X105.225 Y22.568 E.34983
G1 X104.689 Y22.568 E.01685
G1 X96.829 Y14.708 E.34983
G1 X96.294 Y14.708 E.01685
G1 X104.154 Y22.568 E.34983
G1 X103.619 Y22.568 E.01685
G1 X95.759 Y14.708 E.34983
G1 X95.223 Y14.708 E.01685
G1 X103.084 Y22.568 E.34983
G1 X102.548 Y22.568 E.01685
G1 X94.688 Y14.708 E.34983
G1 X94.153 Y14.708 E.01685
G1 X102.013 Y22.568 E.34983
G1 X101.478 Y22.568 E.01685
G1 X93.618 Y14.708 E.34983
G1 X93.082 Y14.708 E.01685
G1 X100.943 Y22.568 E.34983
G1 X100.407 Y22.568 E.01685
G1 X92.547 Y14.708 E.34983
G1 X92.012 Y14.708 E.01685
G1 X99.872 Y22.568 E.34983
G1 X99.337 Y22.568 E.01685
G1 X91.476 Y14.708 E.34983
G1 X90.941 Y14.708 E.01685
G1 X98.801 Y22.568 E.34983
G1 X98.266 Y22.568 E.01685
G1 X90.406 Y14.708 E.34983
G1 X89.871 Y14.708 E.01685
G1 X97.731 Y22.568 E.34983
G1 X97.196 Y22.568 E.01685
G1 X89.335 Y14.708 E.34983
G1 X88.8 Y14.708 E.01685
G1 X96.66 Y22.568 E.34983
G1 X96.125 Y22.568 E.01685
G1 X88.265 Y14.708 E.34983
G1 X87.73 Y14.708 E.01685
G1 X95.643 Y22.621 E.35221
G1 X95.427 Y22.738 E.00771
G1 X95.321 Y22.835 E.00453
G1 X87.194 Y14.708 E.36169
G1 X86.659 Y14.708 E.01685
G1 X95.125 Y23.174 E.37678
G1 X95.088 Y23.41 E.00753
G1 X95.088 Y23.672 E.00825
G1 X86.124 Y14.708 E.39898
G1 X85.589 Y14.708 E.01685
G1 X92.17 Y21.29 E.29293
G1 X92.35 Y21.364 E.00613
G1 X92.532 Y21.469 E.0066
G1 X92.966 Y21.808 E.01735
G1 X93.327 Y22.264 E.0183
G1 X93.432 Y22.446 E.00662
G1 X93.503 Y22.622 E.00596
G1 X95.088 Y24.208 E.07056
G1 X95.088 Y24.743 E.01685
G1 X93.692 Y23.347 E.06214
G1 X93.731 Y23.638 E.00923
G1 X93.7 Y23.89 E.008
G1 X95.088 Y25.278 E.06179
G1 X95.088 Y25.813 E.01685
G1 X93.624 Y24.35 E.06515
G1 X93.472 Y24.733 E.01297
G1 X95.088 Y26.349 E.07192
G1 X95.088 Y26.884 E.01685
G1 X93.279 Y25.075 E.08053
G1 X93.047 Y25.377 E.01201
G1 X95.088 Y27.419 E.09087
G1 X95.088 Y27.954 E.01685
G1 X92.763 Y25.629 E.10348
G1 X92.452 Y25.853 E.01207
G1 X95.088 Y28.49 E.11734
G1 X95.088 Y29.025 E.01685
M73 P2 R63
G1 X92.085 Y26.022 E.13366
G1 X91.923 Y26.089 E.00552
G1 X91.677 Y26.148 E.00798
G1 X95.088 Y29.56 E.15184
G1 X95.088 Y30.095 E.01685
G1 X91.198 Y26.206 E.17313
G1 X90.666 Y26.208 E.01677
G1 X95.088 Y30.631 E.19684
G1 X95.088 Y31.166 E.01685
G1 X90.13 Y26.208 E.22066
G1 X89.595 Y26.208 E.01685
G1 X95.088 Y31.701 E.24449
G1 X95.088 Y32.236 E.01685
G1 X89.06 Y26.208 E.26831
G1 X88.525 Y26.208 E.01685
G1 X94.885 Y32.568 E.28307
G1 X94.35 Y32.568 E.01685
G1 X87.989 Y26.208 E.28307
G1 X87.454 Y26.208 E.01685
G1 X93.814 Y32.568 E.28307
G1 X93.279 Y32.568 E.01685
G1 X86.919 Y26.208 E.28307
G1 X86.384 Y26.208 E.01685
G1 X92.744 Y32.568 E.28307
G1 X92.209 Y32.568 E.01685
G1 X85.848 Y26.208 E.28307
G1 X85.313 Y26.208 E.01685
G1 X91.673 Y32.568 E.28307
G1 X91.138 Y32.568 E.01685
G1 X84.778 Y26.208 E.28307
G1 X84.242 Y26.208 E.01685
G1 X90.603 Y32.568 E.28307
G1 X90.067 Y32.568 E.01685
G1 X83.707 Y26.208 E.28307
G1 X83.172 Y26.208 E.01685
G1 X89.532 Y32.568 E.28307
G1 X88.997 Y32.568 E.01685
G1 X82.637 Y26.208 E.28307
G1 X82.101 Y26.208 E.01685
G1 X88.462 Y32.568 E.28307
G1 X87.926 Y32.568 E.01685
G1 X81.566 Y26.208 E.28307
G1 X81.031 Y26.208 E.01685
G1 X87.391 Y32.568 E.28307
G1 X86.856 Y32.568 E.01685
G1 X80.496 Y26.208 E.28307
G1 X79.96 Y26.208 E.01685
G1 X86.321 Y32.568 E.28307
G1 X85.785 Y32.568 E.01685
G1 X79.425 Y26.208 E.28307
G1 X78.89 Y26.208 E.01685
G1 X85.25 Y32.568 E.28307
G1 X84.715 Y32.568 E.01685
G1 X78.355 Y26.208 E.28307
G1 X77.819 Y26.208 E.01685
G1 X84.18 Y32.568 E.28307
G1 X83.644 Y32.568 E.01685
G1 X77.284 Y26.208 E.28307
G1 X76.749 Y26.208 E.01685
G1 X83.109 Y32.568 E.28307
G1 X82.574 Y32.568 E.01685
G1 X76.214 Y26.208 E.28307
G1 X75.678 Y26.208 E.01685
G1 X82.039 Y32.568 E.28307
G1 X81.503 Y32.568 E.01685
G1 X75.143 Y26.208 E.28307
G1 X74.608 Y26.208 E.01685
G1 X80.968 Y32.568 E.28307
G1 X80.433 Y32.568 E.01685
G1 X74.073 Y26.208 E.28307
G1 X73.537 Y26.208 E.01685
G1 X79.898 Y32.568 E.28307
G1 X79.362 Y32.568 E.01685
M73 P3 R63
G1 X73.002 Y26.208 E.28307
M73 Q3 S64
G1 X72.467 Y26.208 E.01685
G1 X78.827 Y32.568 E.28307
G1 X78.292 Y32.568 E.01685
G1 X71.932 Y26.208 E.28307
G1 X71.396 Y26.208 E.01685
G1 X77.757 Y32.568 E.28307
G1 X77.221 Y32.568 E.01685
G1 X70.861 Y26.208 E.28307
G1 X70.326 Y26.208 E.01685
G1 X76.686 Y32.568 E.28307
G1 X76.151 Y32.568 E.01685
G1 X69.791 Y26.208 E.28307
G1 X69.255 Y26.208 E.01685
G1 X75.616 Y32.568 E.28307
G1 X75.08 Y32.568 E.01685
G1 X68.72 Y26.208 E.28307
G1 X68.185 Y26.208 E.01685
G1 X74.545 Y32.568 E.28307
G1 X74.01 Y32.568 E.01685
G1 X67.65 Y26.208 E.28307
G1 X67.114 Y26.208 E.01685
G1 X73.475 Y32.568 E.28307
G1 X72.939 Y32.568 E.01685
G1 X66.579 Y26.208 E.28307
G1 X66.044 Y26.208 E.01685
G1 X72.404 Y32.568 E.28307
G1 X71.869 Y32.568 E.01685
G1 X65.508 Y26.208 E.28307
G1 X64.973 Y26.208 E.01685
G1 X71.333 Y32.568 E.28307
G1 X70.798 Y32.568 E.01685
G1 X64.438 Y26.208 E.28307
G1 X63.903 Y26.208 E.01685
G1 X70.263 Y32.568 E.28307
G1 X69.728 Y32.568 E.01685
G1 X63.367 Y26.208 E.28307
G1 X62.832 Y26.208 E.01685
G1 X69.192 Y32.568 E.28307
G1 X68.657 Y32.568 E.01685
G1 X62.297 Y26.208 E.28307
G1 X61.762 Y26.208 E.01685
G1 X68.122 Y32.568 E.28307
G1 X67.587 Y32.568 E.01685
G1 X61.226 Y26.208 E.28307
G1 X60.691 Y26.208 E.01685
G1 X67.051 Y32.568 E.28307
G1 X66.516 Y32.568 E.01685
G1 X60.156 Y26.208 E.28307
G1 X59.621 Y26.208 E.01685
G1 X65.981 Y32.568 E.28307
G1 X65.446 Y32.568 E.01685
G1 X59.085 Y26.208 E.28307
G1 X58.55 Y26.208 E.01685
G1 X64.91 Y32.568 E.28307
G1 X64.375 Y32.568 E.01685
G1 X58.015 Y26.208 E.28307
G1 X57.48 Y26.208 E.01685
G1 X63.84 Y32.568 E.28307
G1 X63.305 Y32.568 E.01685
M73 Q3 S63
G1 X56.944 Y26.208 E.28307
G1 X56.409 Y26.208 E.01685
G1 X62.769 Y32.568 E.28307
G1 X62.234 Y32.568 E.01685
G1 X55.874 Y26.208 E.28307
G1 X55.339 Y26.208 E.01685
G1 X61.699 Y32.568 E.28307
G1 X61.164 Y32.568 E.01685
G1 X54.803 Y26.208 E.28307
G1 X54.268 Y26.208 E.01685
G1 X60.628 Y32.568 E.28307
G1 X60.093 Y32.568 E.01685
G1 X53.733 Y26.208 E.28307
G1 X53.198 Y26.208 E.01685
G1 X59.558 Y32.568 E.28307
G1 X59.023 Y32.568 E.01685
G1 X52.662 Y26.208 E.28307
G1 X52.127 Y26.208 E.01685
G1 X58.487 Y32.568 E.28307
G1 X57.952 Y32.568 E.01685
G1 X51.592 Y26.208 E.28307
G1 X51.045 Y26.197 E.0172
G1 X57.586 Y32.738 E.29112
M204 S1000
;WIPE_START
G1 F8640
G1 X55.259 Y30.41 E-.76
;WIPE_END
G1 E-.04 F2100
G1 Z.6 F720
G1 X84.884 Y14.538 F10800
G1 Z.2 F720
G1 E.8 F2100
M204 S800
G1 F1200
G1 X91.446 Y21.1 E.29205
G1 X91.178 Y21.068 E.00847
G1 X90.878 Y21.068 E.00944
G1 X84.518 Y14.708 E.28307
G1 X83.983 Y14.708 E.01685
G1 X90.343 Y21.068 E.28307
G1 X89.808 Y21.068 E.01685
G1 X83.448 Y14.708 E.28307
G1 X82.912 Y14.708 E.01685
G1 X89.273 Y21.068 E.28307
G1 X88.737 Y21.068 E.01685
G1 X82.377 Y14.708 E.28307
G1 X81.842 Y14.708 E.01685
G1 X88.202 Y21.068 E.28307
G1 X87.667 Y21.068 E.01685
G1 X81.307 Y14.708 E.28307
G1 X80.771 Y14.708 E.01685
G1 X87.132 Y21.068 E.28307
G1 X86.596 Y21.068 E.01685
G1 X80.236 Y14.708 E.28307
G1 X79.701 Y14.708 E.01685
G1 X86.061 Y21.068 E.28307
G1 X85.526 Y21.068 E.01685
G1 X79.166 Y14.708 E.28307
G1 X78.63 Y14.708 E.01685
G1 X84.991 Y21.068 E.28307
G1 X84.455 Y21.068 E.01685
G1 X78.095 Y14.708 E.28307
G1 X77.56 Y14.708 E.01685
G1 X83.92 Y21.068 E.28307
G1 X83.385 Y21.068 E.01685
