; generated by PrusaSlicer 2.5.0+win64 on 2023-11-23 at 14:53:46 UTC


;
;
; 

; external perimeters extrusion width = 0.45mm
; perimeters extrusion width = 0.45mm
; infill extrusion width = 0.45mm
; solid infill extrusion width = 0.45mm
; top infill extrusion width = 0.40mm
; first layer extrusion width = 0.42mm

M73 P0 R30
M73 Q0 S30
M201 X1000 Y1000 Z200 E5000 ; sets maximum accelerations, mm/sec^2
M203 X200 Y200 Z12 E120 ; sets maximum feedrates, mm / sec
M204 P1250 R1250 T1250 ; sets acceleration (P, T) and retract acceleration (R), mm/sec^2
M205 X8.00 Y8.00 Z0.40 E4.50 ; sets the jerk limits, mm/sec
M205 S0 T0 ; sets the minimum extruding and travel feed rate, mm/sec
M107
;TYPE:Custom
M862.3 P "MK3" ; printer model check
M862.1 P0.4 ; nozzle diameter check
M115 U3.12.1 ; tell printer latest fw version
G90 ; use absolute coordinates
M83 ; extruder relative mode
M104 S215 ; set extruder temp
M140 S60 ; set bed temp
M190 S60 ; wait for bed temp
M109 S215 ; wait for extruder temp
G28 W ; home all without mesh bed level
G80 ; mesh bed leveling

G1 Z0.2 F720
G1 Y-3 F1000 ; go outside print area
G92 E0
G1 X60 E9 F1000 ; intro line
G1 X100 E12.5 F1000 ; intro line

G92 E0
M221 S95

; Don't change E values below. Excessive value can damage the printer.

M907 E538 ; set extruder motor current
G21 ; set units to millimeters
G90 ; use absolute coordinates
M83 ; use relative distances for extrusion
M900 K0.05 ; Filament gcode LA 1.5
M900 K30 ; Filament gcode LA 1.0
M107
;LAYER_CHANGE
;Z:0.2
;HEIGHT:0.2
;BEFORE_LAYER_CHANGE
G92 E0.0
;0.2


G1 E-.8 F2100
G1 Z.4 F720
;AFTER_LAYER_CHANGE
;0.2
G1 X9.48 Y16.087 F10800
G1 Z.2 F720
G1 E.8 F2100
M204 S800
;TYPE:Skirt/Brim
;WIDTH:0.42
G1 F1200
G1 X11.285 Y15.149 E.06377
G1 X13.237 Y14.58 E.06377
G1 X15.147 Y14.401 E.06014
G1 X64.647 Y14.401 E1.55204
G1 X66.328 Y15.097 E.05704
G1 X66.828 Y15.597 E.02217
G1 X67.524 Y17.278 E.05704
G1 X67.524 Y32.278 E.47031
G1 X66.828 Y33.959 E.05704
G1 X66.328 Y34.459 E.02217
G1 X64.647 Y35.155 E.05704
G1 X15.147 Y35.155 E1.55204
G1 X14.014 Y35.091 E.03558
G1 X12.247 Y34.739 E.05649
G1 X11.069 Y34.318 E.03923
G1 X9.48 Y33.469 E.05649
G1 X7.894 Y32.196 E.06377
G1 X7.054 Y31.269 E.03923
G1 X5.943 Y29.566 E.06377
G1 X5.253 Y27.901 E.05649
G1 X4.949 Y26.688 E.03923
G1 X4.773 Y24.661 E.06377
G1 X4.995 Y22.64 E.06377
G1 X5.607 Y20.7 E.06377
G1 X6.586 Y18.917 E.06377
G1 X7.894 Y17.36 E.06377
G1 X9.433 Y16.125 E.06189
M204 S1000
; printing object middle_joint_static.stl id:0 copy 0
;WIPE_START
G1 F8640
G1 X11.285 Y15.149 E-.48321
G1 X12.436 Y14.814 E-.27679
;WIPE_END
G1 E-.04 F2100
G1 Z.6 F720
G1 X11.28 Y19.17 F10800
G1 Z.2 F720
G1 E.8 F2100
M204 S800
;TYPE:Perimeter
;WIDTH:0.419999
G1 F1200
G1 X11.86 Y18.812 E.02138
G1 X12.477 Y18.511 E.0215
G1 X13.12 Y18.275 E.02151
G1 X13.646 Y18.138 E.01704
G1 X14.467 Y18 E.02607
G1 X15.167 Y17.965 E.02198
G1 X63.96 Y17.965 E1.52988
G1 X63.96 Y31.591 E.42723
G1 X15.171 Y31.591 E1.52973
M73 P1 R30
M73 Q1 S30
G1 X14.322 Y31.535 E.0267
G1 X13.784 Y31.452 E.01704
G1 X13.12 Y31.281 E.02151
G1 X12.477 Y31.045 E.0215
G1 X11.86 Y30.745 E.0215
G1 X11.277 Y30.384 E.0215
G1 X10.733 Y29.966 E.0215
G1 X10.234 Y29.496 E.0215
G1 X9.785 Y28.978 E.0215
G1 X9.39 Y28.418 E.0215
G1 X9.053 Y27.821 E.0215
G1 X8.778 Y27.193 E.0215
G1 X8.568 Y26.54 E.0215
G1 X8.424 Y25.87 E.0215
G1 X8.349 Y25.191 E.02141
G1 X8.349 Y24.365 E.02591
G1 X8.424 Y23.686 E.02141
G1 X8.568 Y23.014 E.02157
G1 X8.731 Y22.496 E.017
G1 X9.055 Y21.732 E.02602
G1 X9.39 Y21.138 E.02139
G1 X9.785 Y20.578 E.0215
G1 X10.235 Y20.059 E.02154
G1 X10.628 Y19.685 E.01702
G1 X11.233 Y19.207 E.02417
M204 S1000
G1 X11.064 Y18.861 F10800
M204 S800
;TYPE:External perimeter
G1 F1200
G1 X11.678 Y18.481 E.02265
G1 X12.329 Y18.164 E.02269
G1 X13.008 Y17.914 E.02269
G1 X13.568 Y17.769 E.01813
G1 X14.426 Y17.625 E.02728
G1 X15.157 Y17.588 E.02296
G1 X64.337 Y17.588 E1.542
G1 X64.337 Y31.968 E.45087
G1 X15.159 Y31.968 E1.54194
G1 X14.281 Y31.91 E.0276
G1 X13.709 Y31.822 E.01814
G1 X13.008 Y31.642 E.02269
G1 X12.329 Y31.392 E.02269
G1 X11.678 Y31.075 E.02269
G1 X11.062 Y30.695 E.02269
G1 X10.488 Y30.254 E.02269
G1 X9.962 Y29.758 E.02269
G1 X9.487 Y29.211 E.02269
G1 X9.07 Y28.62 E.02269
G1 X8.715 Y27.989 E.02269
G1 X8.425 Y27.327 E.02269
G1 X8.203 Y26.638 E.02269
G1 X8.051 Y25.93 E.02269
G1 X7.972 Y25.212 E.02265
G1 X7.972 Y24.344 E.02722
G1 X8.051 Y23.626 E.02265
G1 X8.203 Y22.918 E.02271
G1 X8.376 Y22.366 E.01812
G1 X8.716 Y21.566 E.02726
G1 X9.07 Y20.936 E.02265
G1 X9.487 Y20.345 E.02269
G1 X9.962 Y19.798 E.0227
G1 X10.381 Y19.4 E.01813
G1 X11.017 Y18.898 E.02539
M204 S1000
G1 X11.425 Y19.032 F10800
;WIPE_START
G1 F8640
G1 X11.678 Y18.481 E-.18055
G1 X12.329 Y18.164 E-.1671
G1 X13.008 Y17.914 E-.16713
G1 X13.568 Y17.769 E-.13355
G1 X14.045 Y17.689 E-.11168
;WIPE_END
G1 E-.04 F2100
G1 Z.6 F720
G1 X62.31 Y26.524 F10800
G1 Z.2 F720
G1 E.8 F2100
M204 S800
;TYPE:Perimeter
G1 F1200
G1 X61.967 Y26.884 E.01559
G1 X61.524 Y27.199 E.01703
G1 X61.028 Y27.42 E.01704
G1 X60.498 Y27.542 E.01705
G1 X59.956 Y27.557 E.01699
G1 X59.421 Y27.467 E.01703
G1 X58.912 Y27.274 E.01705
G1 X58.46 Y26.994 E.01668
G1 X58.132 Y26.699 E.01384
G1 X57.797 Y26.272 E.01703
G1 X57.551 Y25.787 E.01704
G1 X57.404 Y25.264 E.01705
G1 X57.362 Y24.723 E.01701
G1 X57.425 Y24.184 E.01701
G1 X57.593 Y23.667 E.01705
G1 X57.858 Y23.192 E.01704
G1 X58.21 Y22.779 E.01704
G1 X58.621 Y22.45 E.0165
G1 X59.013 Y22.234 E.01401
G1 X59.513 Y22.065 E.01657
G1 X60.039 Y21.993 E.01665
G1 X60.492 Y22.02 E.01424
G1 X61.012 Y22.134 E.01668
G1 X61.509 Y22.351 E.01699
G1 X61.964 Y22.67 E.01745
G1 X62.34 Y23.062 E.01703
G1 X62.632 Y23.521 E.01704
G1 X62.829 Y24.027 E.01704
G1 X62.924 Y24.563 E.01705
G1 X62.916 Y25.091 E.01658
G1 X62.797 Y25.635 E.01744
G1 X62.58 Y26.133 E.01704
G1 X62.344 Y26.475 E.01303
M204 S1000
G1 X62.006 Y26.31 F10800
M204 S800
;TYPE:External perimeter
G1 F1200
G1 X61.743 Y26.581 E.01183
G1 X61.363 Y26.857 E.01473
G1 X60.936 Y27.055 E.01474
G1 X60.479 Y27.165 E.01474
G1 X60.011 Y27.184 E.01468
G1 X59.547 Y27.112 E.01472
G1 X59.106 Y26.951 E.01474
G1 X58.707 Y26.709 E.01461
G1 X58.424 Y26.46 E.01182
G1 X58.13 Y26.094 E.01473
G1 X57.912 Y25.678 E.01474
G1 X57.779 Y25.227 E.01474
G1 X57.737 Y24.76 E.0147
G1 X57.786 Y24.293 E.0147
G1 X57.926 Y23.844 E.01474
G1 X58.15 Y23.431 E.01474
G1 X58.45 Y23.069 E.01473
G1 X58.81 Y22.776 E.01455
G1 X59.139 Y22.59 E.01188
G1 X59.583 Y22.435 E.01473
G1 X60.048 Y22.37 E.01472
G1 X60.418 Y22.39 E.0116
G1 X60.881 Y22.488 E.01485
G1 X61.358 Y22.696 E.01632
G1 X61.697 Y22.936 E.01303
G1 X62.026 Y23.271 E.01472
G1 X62.283 Y23.665 E.01474
G1 X62.459 Y24.101 E.01474
G1 X62.547 Y24.563 E.01474
G1 X62.545 Y25.026 E.01454
G1 X62.449 Y25.491 E.01488
G1 X62.266 Y25.924 E.01474
G1 X62.039 Y26.26 E.01272
M204 S1000
G1 X62.142 Y26.662 F10800
;WIPE_START
G1 F8640
G1 X61.743 Y26.581 E-.10078
G1 X61.363 Y26.857 E-.10846
G1 X60.936 Y27.055 E-.10855
G1 X60.479 Y27.165 E-.10858
G1 X60.011 Y27.184 E-.10814
G1 X59.547 Y27.112 E-.10844
G1 X59.106 Y26.951 E-.10857
G1 X59.074 Y26.932 E-.00847
;WIPE_END
G1 E-.04 F2100
G1 Z.6 F720
G1 X42.31 Y26.524 F10800
G1 Z.2 F720
G1 E.8 F2100
M204 S800
;TYPE:Perimeter
G1 F1200
G1 X41.967 Y26.884 E.01559
G1 X41.524 Y27.199 E.01703
G1 X41.028 Y27.42 E.01704
G1 X40.498 Y27.542 E.01705
G1 X39.956 Y27.557 E.01699
G1 X39.421 Y27.467 E.01703
G1 X38.912 Y27.275 E.01705
G1 X38.46 Y26.994 E.01668
G1 X38.132 Y26.699 E.01384
G1 X37.797 Y26.272 E.01703
G1 X37.551 Y25.787 E.01704
G1 X37.404 Y25.264 E.01705
G1 X37.362 Y24.723 E.01701
G1 X37.425 Y24.184 E.01701
G1 X37.593 Y23.667 E.01705
G1 X37.858 Y23.192 E.01704
G1 X38.21 Y22.779 E.01704
G1 X38.621 Y22.45 E.0165
G1 X39.013 Y22.234 E.01401
G1 X39.513 Y22.065 E.01657
G1 X40.039 Y21.993 E.01665
G1 X40.492 Y22.02 E.01424
G1 X41.032 Y22.142 E.01733
G1 X41.509 Y22.351 E.01632
G1 X41.964 Y22.67 E.01745
G1 X42.34 Y23.062 E.01703
G1 X42.632 Y23.521 E.01704
G1 X42.829 Y24.027 E.01704
G1 X42.924 Y24.563 E.01705
G1 X42.914 Y25.104 E.01697
G1 X42.797 Y25.635 E.01705
G1 X42.58 Y26.133 E.01704
G1 X42.344 Y26.475 E.01303
M204 S1000
G1 X42.006 Y26.31 F10800
M204 S800
;TYPE:External perimeter
G1 F1200
G1 X41.743 Y26.581 E.01183
G1 X41.363 Y26.857 E.01473
G1 X40.936 Y27.055 E.01474
G1 X40.479 Y27.165 E.01474
G1 X40.011 Y27.184 E.01468
G1 X39.547 Y27.112 E.01472
G1 X39.106 Y26.951 E.01474
G1 X38.707 Y26.709 E.01461
G1 X38.424 Y26.46 E.01182
G1 X38.13 Y26.094 E.01473
G1 X37.912 Y25.678 E.01474
G1 X37.779 Y25.227 E.01474
G1 X37.737 Y24.76 E.0147
G1 X37.786 Y24.293 E.0147
G1 X37.926 Y23.844 E.01474
G1 X38.15 Y23.431 E.01474
G1 X38.45 Y23.069 E.01473
G1 X38.81 Y22.776 E.01455
G1 X39.139 Y22.59 E.01188
G1 X39.583 Y22.435 E.01473
G1 X40.048 Y22.37 E.01472
G1 X40.418 Y22.39 E.0116
G1 X40.881 Y22.488 E.01485
G1 X41.358 Y22.696 E.01632
G1 X41.697 Y22.936 E.01303
G1 X42.026 Y23.271 E.01472
G1 X42.283 Y23.665 E.01474
G1 X42.459 Y24.101 E.01474
G1 X42.547 Y24.563 E.01474
G1 X42.544 Y25.03 E.01466
G1 X42.449 Y25.491 E.01474
G1 X42.266 Y25.924 E.01474
G1 X42.039 Y26.26 E.01272
M204 S1000
G1 X42.142 Y26.662 F10800
;WIPE_START
G1 F8640
G1 X41.743 Y26.581 E-.10078
G1 X41.363 Y26.857 E-.10846
G1 X40.936 Y27.055 E-.10856
G1 X40.479 Y27.165 E-.10858
G1 X40.011 Y27.184 E-.10814
G1 X39.547 Y27.112 E-.10844
G1 X39.106 Y26.951 E-.10857
G1 X39.074 Y26.932 E-.00847
;WIPE_END
G1 E-.04 F2100
G1 Z.6 F720
G1 X19.286 Y25.359 F10800
G1 Z.2 F720
G1 E.8 F2100
M204 S800
;TYPE:Perimeter
G1 F1200
G1 X19.134 Y26.042 E.02194
G1 X18.95 Y26.527 E.01627
G1 X18.645 Y27.077 E.01972
G1 X18.257 Y27.58 E.01991
G1 X17.797 Y28.018 E.01991
G1 X17.277 Y28.382 E.01989
G1 X16.708 Y28.662 E.0199
G1 X16.102 Y28.854 E.01991
G1 X15.475 Y28.951 E.01991
G1 X14.84 Y28.952 E.01991
G1 X14.328 Y28.881 E.01622
G1 X13.616 Y28.672 E.02324
G1 X13.14 Y28.45 E.01647
G1 X12.616 Y28.111 E.01959
G1 X12.141 Y27.69 E.01991
G1 X11.734 Y27.201 E.01992
G1 X11.382 Y26.589 E.02214
G1 X11.164 Y26.067 E.01774
G1 X11.015 Y25.453 E.01981
G1 X10.961 Y24.821 E.01989
G1 X11.002 Y24.188 E.01989
G1 X11.121 Y23.646 E.0174
G1 X11.324 Y23.082 E.0188
G1 X11.652 Y22.484 E.02136
G1 X12.081 Y21.929 E.02202
G1 X12.548 Y21.498 E.01991
G1 X13.074 Y21.143 E.0199
G1 X13.534 Y20.916 E.01609
G1 X14.129 Y20.719 E.01964
G1 X14.793 Y20.617 E.02107
G1 X15.394 Y20.599 E.01885
G1 X16.019 Y20.684 E.01976
G1 X16.628 Y20.863 E.01991
G1 X17.203 Y21.131 E.01989
G1 X17.73 Y21.484 E.01989
G1 X18.199 Y21.913 E.01992
G1 X18.597 Y22.408 E.01991
G1 X18.915 Y22.957 E.01991
G1 X19.147 Y23.548 E.01991
G1 X19.287 Y24.167 E.0199
G1 X19.332 Y24.726 E.01759
G1 X19.299 Y25.301 E.01803
M204 S1000
G1 X18.922 Y25.282 F10800
M204 S800
;TYPE:External perimeter
G1 F1200
G1 X18.767 Y25.956 E.02171
G1 X18.587 Y26.414 E.0154
G1 X18.317 Y26.891 E.01722
G1 X17.961 Y27.347 E.01812
G1 X17.54 Y27.743 E.01812
G1 X17.064 Y28.071 E.0181
G1 X16.545 Y28.322 E.01811
G1 X15.993 Y28.493 E.01812
G1 X15.421 Y28.578 E.01812
G1 X14.843 Y28.575 E.01812
G1 X14.357 Y28.502 E.0154
G1 X13.725 Y28.311 E.0207
G1 X13.282 Y28.098 E.01543
G1 X12.823 Y27.796 E.01721
G1 X12.393 Y27.41 E.01812
G1 X12.027 Y26.963 E.01812
G1 X11.711 Y26.405 E.0201
G1 X11.515 Y25.929 E.01613
G1 X11.383 Y25.368 E.01809
G1 X11.337 Y24.792 E.0181
G1 X11.378 Y24.216 E.0181
G1 X11.507 Y23.653 E.01812
G1 X11.717 Y23.142 E.01733
G1 X12.008 Y22.62 E.01874
G1 X12.374 Y22.167 E.01825
G1 X12.801 Y21.778 E.01812
G1 X13.282 Y21.458 E.01811
G1 X13.722 Y21.246 E.01531
G1 X14.245 Y21.078 E.01722
G1 X14.846 Y20.99 E.01904
G1 X15.394 Y20.976 E.0172
G1 X15.965 Y21.057 E.01807
G1 X16.518 Y21.223 E.01812
G1 X17.04 Y21.471 E.0181
G1 X17.517 Y21.795 E.0181
M73 Q2 S30
G1 X17.941 Y22.188 E.01813
G1 X18.301 Y22.641 E.01812
G1 X18.587 Y23.143 E.01812
G1 X18.795 Y23.682 E.01812
G1 X18.918 Y24.246 E.01811
G1 X18.955 Y24.724 E.01501
G1 X18.926 Y25.222 E.01564
M204 S1000
G1 X19.235 Y25.531 F10800
;WIPE_START
G1 F8640
G1 X18.767 Y25.956 E-.17353
G1 X18.587 Y26.414 E-.11344
G1 X18.317 Y26.891 E-.12682
G1 X17.961 Y27.347 E-.13344
G1 X17.54 Y27.743 E-.13345
G1 X17.257 Y27.938 E-.07932
;WIPE_END
G1 E-.04 F2100
G1 Z.6 F720
M73 P2 R30
G1 X63.079 Y18.078 F10800
G1 Z.2 F720
M73 P2 R29
G1 E.8 F2100
M204 S800
;TYPE:Solid infill
;WIDTH:0.422391
G1 F1200
G1 X63.677 Y18.676 E.02667
G1 X63.677 Y19.213 E.01693
G1 X62.712 Y18.248 E.04304
G1 X62.176 Y18.248 E.01693
G1 X63.677 Y19.749 E.06699
G1 X63.677 Y20.286 E.01693
G1 X61.639 Y18.248 E.09094
G1 X61.102 Y18.248 E.01693
G1 X63.677 Y20.823 E.11489
G1 X63.677 Y21.359 E.01693
G1 X60.566 Y18.248 E.13883
G1 X60.029 Y18.248 E.01693
G1 X63.677 Y21.896 E.16278
G1 X63.677 Y22.432 E.01693
G1 X59.492 Y18.248 E.18673
G1 X58.956 Y18.248 E.01693
G1 X63.677 Y22.969 E.21067
G1 X63.677 Y23.506 E.01693
G1 X58.419 Y18.248 E.23462
G1 X57.883 Y18.248 E.01693
G1 X63.677 Y24.042 E.25857
G1 X63.677 Y24.579 E.01693
G1 X63.114 Y24.016 E.02511
G1 X63.207 Y24.555 E.01726
G1 X63.206 Y24.644 E.00281
G1 X63.677 Y25.116 E.02103
G1 X63.677 Y25.652 E.01693
G1 X63.189 Y25.165 E.02177
G1 X63.091 Y25.603 E.01418
G1 X63.677 Y26.189 E.02614
G1 X63.677 Y26.726 E.01693
G1 X62.947 Y25.996 E.03258
G1 X62.819 Y26.284 E.00995
G1 X62.77 Y26.355 E.00274
G1 X63.677 Y27.262 E.04048
G1 X63.677 Y27.799 E.01693
G1 X62.55 Y26.672 E.0503
G1 X62.487 Y26.761 E.00344
G1 X62.295 Y26.954 E.00859
G1 X63.677 Y28.336 E.06167
G1 X63.677 Y28.872 E.01693
G1 X62.007 Y27.202 E.07453
G1 X61.691 Y27.423 E.01216
G1 X63.677 Y29.409 E.08861
G1 X63.677 Y29.946 E.01693
G1 X61.331 Y27.599 E.10469
G1 X61.175 Y27.672 E.00543
G1 X60.925 Y27.73 E.0081
G1 X63.677 Y30.482 E.12282
G1 X63.677 Y31.019 E.01693
G1 X60.483 Y27.825 E.14253
G1 X59.959 Y27.838 E.01654
G1 X63.43 Y31.308 E.15487
G1 X62.893 Y31.308 E.01693
G1 X59.018 Y27.434 E.1729
M204 S1000
;WIPE_START
G1 F8640
G1 X61.346 Y29.761 E-.76
;WIPE_END
G1 E-.04 F2100
G1 Z.6 F720
G1 X61.184 Y22.086 F10800
G1 Z.2 F720
G1 E.8 F2100
M204 S800
G1 F1200
G1 X57.346 Y18.248 E.17125
G1 X56.809 Y18.248 E.01693
G1 X60.286 Y21.725 E.15514
G1 X60.076 Y21.711 E.00664
G1 X59.769 Y21.744 E.00974
G1 X56.273 Y18.248 E.15601
G1 X55.736 Y18.248 E.01693
G1 X59.315 Y21.827 E.15969
G1 X58.926 Y21.975 E.01312
G1 X55.199 Y18.248 E.1663
G1 X54.663 Y18.248 E.01693
M73 Q2 S29
G1 X58.572 Y22.158 E.17446
G1 X58.368 Y22.281 E.00753
G1 X58.256 Y22.378 E.00467
G1 X54.126 Y18.248 E.18431
G1 X53.589 Y18.248 E.01693
G1 X57.969 Y22.628 E.19544
G1 X57.725 Y22.92 E.01202
G1 X53.053 Y18.248 E.20849
G1 X52.516 Y18.248 E.01693
G1 X57.505 Y23.236 E.2226
G1 X57.325 Y23.594 E.01262
G1 X51.979 Y18.248 E.23855
G1 X51.443 Y18.248 E.01693
G1 X57.194 Y23.999 E.25664
G1 X57.123 Y24.258 E.00847
G1 X57.109 Y24.451 E.00609
G1 X50.906 Y18.248 E.27678
G1 X50.369 Y18.248 E.01693
G1 X57.094 Y24.972 E.30006
G1 X57.152 Y25.447 E.0151
G1 X57.212 Y25.627 E.00596
G1 X49.833 Y18.248 E.32927
G1 X49.296 Y18.248 E.01693
G1 X62.356 Y31.308 E.58279
G1 X61.82 Y31.308 E.01693
G1 X48.759 Y18.248 E.58279
G1 X48.223 Y18.248 E.01693
G1 X61.283 Y31.308 E.58279
G1 X60.746 Y31.308 E.01693
G1 X47.686 Y18.248 E.58279
G1 X47.149 Y18.248 E.01693
G1 X60.21 Y31.308 E.58279
G1 X59.673 Y31.308 E.01693
G1 X46.613 Y18.248 E.58279
G1 X46.076 Y18.248 E.01693
G1 X59.136 Y31.308 E.58279
G1 X58.6 Y31.308 E.01693
M73 P3 R29
M73 Q3 S29
G1 X45.54 Y18.248 E.58279
G1 X45.003 Y18.248 E.01693
G1 X58.063 Y31.308 E.58279
G1 X57.526 Y31.308 E.01693
G1 X44.466 Y18.248 E.58279
G1 X43.93 Y18.248 E.01693
G1 X56.99 Y31.308 E.58279
G1 X56.453 Y31.308 E.01693
G1 X43.393 Y18.248 E.58279
G1 X42.856 Y18.248 E.01693
G1 X55.916 Y31.308 E.58279
G1 X55.38 Y31.308 E.01693
G1 X42.32 Y18.248 E.58279
G1 X41.783 Y18.248 E.01693
G1 X54.843 Y31.308 E.58279
G1 X54.307 Y31.308 E.01693
G1 X41.246 Y18.248 E.58279
G1 X40.71 Y18.248 E.01693
G1 X53.77 Y31.308 E.58279
G1 X53.233 Y31.308 E.01693
G1 X40.173 Y18.248 E.58279
G1 X39.636 Y18.248 E.01693
G1 X52.697 Y31.308 E.58279
G1 X52.16 Y31.308 E.01693
G1 X39.1 Y18.248 E.58279
G1 X38.563 Y18.248 E.01693
G1 X51.623 Y31.308 E.58279
G1 X51.087 Y31.308 E.01693
G1 X38.026 Y18.248 E.58279
G1 X37.49 Y18.248 E.01693
G1 X41.115 Y21.873 E.16177
G1 X41.629 Y22.095 E.01768
G1 X42.06 Y22.381 E.01632
G1 X42.475 Y22.782 E.01821
G1 X42.819 Y23.272 E.01888
